/* XPM */
static char * aim_xpm[] = {
"512 512 2 1",
" 	c None",
".	c #000000",
"                                                                                                                                                                                                                                                            ........                                                                                                                                                                                                                                                            ",
"                                                                                                                                                                                                                                                         ..............                                                                                                                                                                                                                                                         ",
"                                                                                                                                                                                                                                                       ..................                                                                                                                                                                                                                                                       ",
"                                                                                                                                                                                                                                                      ....................                                                                                                                                                                                                                                                      ",
"                                                                                                                                                                                                                                                     ......................                                                                                                                                                                                                                                                     ",
"                                                                                                                                                                                                                                                    ........................                                                                                                                                                                                                                                                    ",
"                                                                                                                                                                                                                                                   ..........................                                                                                                                                                                                                                                                   ",
"                                                                                                                                                                                                                                                  ............................                                                                                                                                                                                                                                                  ",
"                                                                                                                                                                                                                                                  ............................                                                                                                                                                                                                                                                  ",
"                                                                                                                                                                                                                                                 ..............................                                                                                                                                                                                                                                                 ",
"                                                                                                                                                                                                                                                 ..............................                                                                                                                                                                                                                                                 ",
"                                                                                                                                                                                                                                                ................................                                                                                                                                                                                                                                                ",
"                                                                                                                                                                                                                                                ................................                                                                                                                                                                                                                                                ",
"                                                                                                                                                                                                                                                ................................                                                                                                                                                                                                                                                ",
"                                                                                                                                                                                                                                                ................................                                                                                                                                                                                                                                                ",
"                                                                                                                                                                                                                                                ................................                                                                                                                                                                                                                                                ",
"                                                                                                                                                                                                                                                ................................                                                                                                                                                                                                                                                ",
"                                                                                                                                                                                                                                                ................................                                                                                                                                                                                                                                                ",
"                                                                                                                                                                                                                                                ................................                                                                                                                                                                                                                                                ",
"                                                                                                                                                                                                                                                ................................                                                                                                                                                                                                                                                ",
"                                                                                                                                                                                                                                                ................................                                                                                                                                                                                                                                                ",
"                                                                                                                                                                                                                                                ................................                                                                                                                                                                                                                                                ",
"                                                                                                                                                                                                                                                ................................                                                                                                                                                                                                                                                ",
"                                                                                                                                                                                                                                                ................................                                                                                                                                                                                                                                                ",
"                                                                                                                                                                                                                                                ................................                                                                                                                                                                                                                                                ",
"                                                                                                                                                                                                                                                ................................                                                                                                                                                                                                                                                ",
"                                                                                                                                                                                                                                                ................................                                                                                                                                                                                                                                                ",
"                                                                                                                                                                                                                                                ................................                                                                                                                                                                                                                                                ",
"                                                                                                                                                                                                                                                ................................                                                                                                                                                                                                                                                ",
"                                                                                                                                                                                                                                                ................................                                                                                                                                                                                                                                                ",
"                                                                                                                                                                                                                                                ................................                                                                                                                                                                                                                                                ",
"                                                                                                                                                                                                                                                ................................                                                                                                                                                                                                                                                ",
"                                                                                                                                                                                                                                                ................................                                                                                                                                                                                                                                                ",
"                                                                                                                                                                                                                                               ..................................                                                                                                                                                                                                                                               ",
"                                                                                                                                                                                                                                       .................................................                                                                                                                                                                                                                                        ",
"                                                                                                                                                                                                                               ..................................................................                                                                                                                                                                                                                               ",
"                                                                                                                                                                                                                         ..............................................................................                                                                                                                                                                                                                         ",
"                                                                                                                                                                                                                    ........................................................................................                                                                                                                                                                                                                    ",
"                                                                                                                                                                                                               ..................................................................................................                                                                                                                                                                                                               ",
"                                                                                                                                                                                                           ..........................................................................................................                                                                                                                                                                                                           ",
"                                                                                                                                                                                                      ...................................................................................................................                                                                                                                                                                                                       ",
"                                                                                                                                                                                                   ..........................................................................................................................                                                                                                                                                                                                   ",
"                                                                                                                                                                                                ................................................................................................................................                                                                                                                                                                                                ",
"                                                                                                                                                                                             ......................................................................................................................................                                                                                                                                                                                             ",
"                                                                                                                                                                                          ............................................................................................................................................                                                                                                                                                                                          ",
"                                                                                                                                                                                      ....................................................................................................................................................                                                                                                                                                                                      ",
"                                                                                                                                                                                   ..........................................................................................................................................................                                                                                                                                                                                   ",
"                                                                                                                                                                                 ..............................................................................................................................................................                                                                                                                                                                                 ",
"                                                                                                                                                                               ..................................................................................................................................................................                                                                                                                                                                               ",
"                                                                                                                                                                            ........................................................................................................................................................................                                                                                                                                                                            ",
"                                                                                                                                                                          ............................................................................................................................................................................                                                                                                                                                                          ",
"                                                                                                                                                                       ..................................................................................................................................................................................                                                                                                                                                                       ",
"                                                                                                                                                                     ......................................................................................................................................................................................                                                                                                                                                                     ",
"                                                                                                                                                                  ...........................................................................................................................................................................................                                                                                                                                                                   ",
"                                                                                                                                                                ...............................................................................................................................................................................................                                                                                                                                                                 ",
"                                                                                                                                                               ..................................................................................................................................................................................................                                                                                                                                                               ",
"                                                                                                                                                             ......................................................................................................................................................................................................                                                                                                                                                             ",
"                                                                                                                                                           ..........................................................................................................................................................................................................                                                                                                                                                           ",
"                                                                                                                                                         ..............................................................................................................................................................................................................                                                                                                                                                         ",
"                                                                                                                                                       ..................................................................................................................................................................................................................                                                                                                                                                       ",
"                                                                                                                                                     ......................................................................................................................................................................................................................                                                                                                                                                     ",
"                                                                                                                                                   ..........................................................................................................................................................................................................................                                                                                                                                                   ",
"                                                                                                                                                 ..............................................................................................................................................................................................................................                                                                                                                                                 ",
"                                                                                                                                               ..................................................................................................................................................................................................................................                                                                                                                                               ",
"                                                                                                                                              ....................................................................................................................................................................................................................................                                                                                                                                              ",
"                                                                                                                                            ........................................................................................................................................................................................................................................                                                                                                                                            ",
"                                                                                                                                           ..........................................................................................................................................................................................................................................                                                                                                                                           ",
"                                                                                                                                         ..............................................................................................         ................................         ..............................................................................................                                                                                                                                         ",
"                                                                                                                                        ........................................................................................                ................................                ........................................................................................                                                                                                                                        ",
"                                                                                                                                      .....................................................................................                     ................................                     .....................................................................................                                                                                                                                      ",
"                                                                                                                                     .................................................................................                          ................................                          .................................................................................                                                                                                                                     ",
"                                                                                                                                   ...............................................................................                              ................................                              ...............................................................................                                                                                                                                   ",
"                                                                                                                                 .............................................................................                                  ................................                                  .............................................................................                                                                                                                                 ",
"                                                                                                                                ..........................................................................                                      ................................                                     ...........................................................................                                                                                                                                ",
"                                                                                                                               ........................................................................                                         ................................                                         ........................................................................                                                                                                                               ",
"                                                                                                                             .......................................................................                                            ................................                                            .......................................................................                                                                                                                             ",
"                                                                                                                            .....................................................................                                               ................................                                               .....................................................................                                                                                                                            ",
"                                                                                                                           ...................................................................                                                  ................................                                                  ...................................................................                                                                                                                           ",
"                                                                                                                         ...................................................................                                                    ................................                                                    ...................................................................                                                                                                                         ",
"                                                                                                                        .................................................................                                                       ................................                                                       .................................................................                                                                                                                        ",
"                                                                                                                       ................................................................                                                         ................................                                                         ................................................................                                                                                                                       ",
"                                                                                                                     ................................................................                                                           ................................                                                            ...............................................................                                                                                                                     ",
"                                                                                                                    ..............................................................                                                              ................................                                                              ..............................................................                                                                                                                    ",
"                                                                                                                   .............................................................                                                                ................................                                                                .............................................................                                                                                                                   ",
"                                                                                                                  ............................................................                                                                  ................................                                                                  ............................................................                                                                                                                  ",
"                                                                                                                ............................................................                                                                    ................................                                                                    ............................................................                                                                                                                ",
"                                                                                                               ...........................................................                                                                      ................................                                                                      ...........................................................                                                                                                               ",
"                                                                                                              ..........................................................                                                                        ................................                                                                        ..........................................................                                                                                                              ",
"                                                                                                             .........................................................                                                                          ................................                                                                          .........................................................                                                                                                             ",
"                                                                                                            ........................................................                                                                            ................................                                                                            ........................................................                                                                                                            ",
"                                                                                                           .......................................................                                                                              ................................                                                                              .......................................................                                                                                                           ",
"                                                                                                          ......................................................                                                                                ................................                                                                                ......................................................                                                                                                          ",
"                                                                                                         ......................................................                                                                                 ................................                                                                                 ......................................................                                                                                                         ",
"                                                                                                        .....................................................                                                                                   ................................                                                                                   .....................................................                                                                                                        ",
"                                                                                                      ......................................................                                                                                    ................................                                                                                    .....................................................                                                                                                       ",
"                                                                                                     .....................................................                                                                                      ................................                                                                                      .....................................................                                                                                                     ",
"                                                                                                    .....................................................                                                                                       ................................                                                                                       .....................................................                                                                                                    ",
"                                                                                                   ....................................................                                                                                         ................................                                                                                         ....................................................                                                                                                   ",
"                                                                                                  ...................................................                                                                                           ................................                                                                                          ....................................................                                                                                                  ",
"                                                                                                 ...................................................                                                                                            ................................                                                                                            ...................................................                                                                                                 ",
"                                                                                                ..................................................                                                                                              ................................                                                                                              ..................................................                                                                                                ",
"                                                                                               ..................................................                                                                                               ................................                                                                                               ..................................................                                                                                               ",
"                                                                                              ..................................................                                                                                                ................................                                                                                                .................................................                                                                                               ",
"                                                                                              .................................................                                                                                                 ................................                                                                                                 .................................................                                                                                              ",
"                                                                                             ................................................                                                                                                   ................................                                                                                                   ................................................                                                                                             ",
"                                                                                            ................................................                                                                                                    ................................                                                                                                    ................................................                                                                                            ",
"                                                                                           ................................................                                                                                                     ................................                                                                                                     ................................................                                                                                           ",
"                                                                                          ...............................................                                                                                                       ................................                                                                                                       ...............................................                                                                                          ",
"                                                                                         ...............................................                                                                                                        ................................                                                                                                        ...............................................                                                                                         ",
"                                                                                        ...............................................                                                                                                         ................................                                                                                                         ...............................................                                                                                        ",
"                                                                                       ..............................................                                                                                                           ................................                                                                                                           ..............................................                                                                                       ",
"                                                                                      ..............................................                                                                                                            ................................                                                                                                            ..............................................                                                                                      ",
"                                                                                     ..............................................                                                                                                             ................................                                                                                                             ..............................................                                                                                     ",
"                                                                                     .............................................                                                                                                              ................................                                                                                                              .............................................                                                                                     ",
"                                                                                    .............................................                                                                                                               ................................                                                                                                               .............................................                                                                                    ",
"                                                                                   .............................................                                                                                                                ................................                                                                                                                .............................................                                                                                   ",
"                                                                                  .............................................                                                                                                                 ................................                                                                                                                 .............................................                                                                                  ",
"                                                                                 .............................................                                                                                                                  ................................                                                                                                                  .............................................                                                                                 ",
"                                                                                 ............................................                                                                                                                   ................................                                                                                                                   ............................................                                                                                 ",
"                                                                                ............................................                                                                                                                    ................................                                                                                                                    ............................................                                                                                ",
"                                                                               ............................................                                                                                                                     ................................                                                                                                                     ............................................                                                                               ",
"                                                                              ...........................................                                                                                                                       ................................                                                                                                                      ............................................                                                                              ",
"                                                                              ...........................................                                                                                                                       ................................                                                                                                                       ...........................................                                                                              ",
"                                                                             ...........................................                                                                                                                        ................................                                                                                                                        ...........................................                                                                             ",
"                                                                            ...........................................                                                                                                                         ................................                                                                                                                         ...........................................                                                                            ",
"                                                                           ...........................................                                                                                                                       ......................................                                                                                                                       ...........................................                                                                           ",
"                                                                           ..........................................                                                                                                                  ..................................................                                                                                                                  ..........................................                                                                           ",
"                                                                          ..........................................                                                                                                              ............................................................                                                                                                              ..........................................                                                                          ",
"                                                                         ..........................................                                                                                                           ....................................................................                                                                                                           ..........................................                                                                         ",
"                                                                        ..........................................                                                                                                        ............................................................................                                                                                                        ..........................................                                                                        ",
"                                                                        .........................................                                                                                                      ..................................................................................                                                                                                      .........................................                                                                        ",
"                                                                       .........................................                                                                                                     ......................................................................................                                                                                                     .........................................                                                                       ",
"                                                                       ........................................                                                                                                   ............................................................................................                                                                                                   .........................................                                                                      ",
"                                                                      ........................................                                                                                                 ..................................................................................................                                                                                                 ........................................                                                                      ",
"                                                                     .........................................                                                                                               ......................................................................................................                                                                                               .........................................                                                                     ",
"                                                                     ........................................                                                                                             ............................................................................................................                                                                                             ........................................                                                                     ",
"                                                                    ........................................                                                                                            ................................................................................................................                                                                                            ........................................                                                                    ",
"                                                                   ........................................                                                                                           ....................................................................................................................                                                                                           ........................................                                                                   ",
"                                                                   ........................................                                                                                         ........................................................................................................................                                                                                         ........................................                                                                   ",
"                                                                  ........................................                                                                                        ............................................................................................................................                                                                                        ........................................                                                                  ",
"                                                                 ........................................                                                                                       ................................................................................................................................                                                                                       ........................................                                                                 ",
"                                                                 .......................................                                                                                       ..................................................................................................................................                                                                                       .......................................                                                                 ",
"                                                                ........................................                                                                                     ......................................................................................................................................                                                                                     ........................................                                                                ",
"                                                               ........................................                                                                                    ..........................................................................................................................................                                                                                    ........................................                                                               ",
"                                                               .......................................                                                                                    ............................................................................................................................................                                                                                    .......................................                                                               ",
"                                                              .......................................                                                                                   ................................................................................................................................................                                                                                   .......................................                                                              ",
"                                                              ......................................                                                                                   ..................................................................................................................................................                                                                                   ......................................                                                              ",
"                                                             .......................................                                                                                 ......................................................................................................................................................                                                                                 .......................................                                                             ",
"                                                             ......................................                                                                                 ........................................................................................................................................................                                                                                 ......................................                                                             ",
"                                                            ......................................                                                                                ............................................................................................................................................................                                                                               .......................................                                                            ",
"                                                            ......................................                                                                               ..............................................................................................................................................................                                                                               ......................................                                                            ",
"                                                           ......................................                                                                               ................................................................................................................................................................                                                                               ......................................                                                           ",
"                                                           ......................................                                                                             ....................................................................................................................................................................                                                                             ......................................                                                           ",
"                                                          ......................................                                                                             ......................................................................................................................................................................                                                                             ......................................                                                          ",
"                                                          .....................................                                                                             ........................................................................................................................................................................                                                                             .....................................                                                          ",
"                                                         ......................................                                                                            ..........................................................................................................................................................................                                                                            ......................................                                                         ",
"                                                         .....................................                                                                           ..............................................................................................................................................................................                                                                           .....................................                                                         ",
"                                                        .....................................                                                                           ................................................................................................................................................................................                                                                           .....................................                                                        ",
"                                                        .....................................                                                                          ....................................................................... .................................. .......................................................................                                                                          .....................................                                                        ",
"                                                       .....................................                                                                          ...................................................................       ................................       ...................................................................                                                                          .....................................                                                       ",
"                                                      .....................................                                                                          ................................................................           ................................           ................................................................                                                                          .....................................                                                      ",
"                                                      .....................................                                                                         ..............................................................              ................................              ..............................................................                                                                         .....................................                                                      ",
"                                                     .....................................                                                                         ............................................................                 ................................                 ............................................................                                                                         .....................................                                                     ",
"                                                     .....................................                                                                        ..........................................................                    ................................                    ..........................................................                                                                        .....................................                                                     ",
"                                                     ....................................                                                                        .........................................................                      ................................                      .........................................................                                                                        ....................................                                                     ",
"                                                    .....................................                                                                       ........................................................                        ................................                        ........................................................                                                                       .....................................                                                    ",
"                                                    ....................................                                                                       ......................................................                           ................................                           ......................................................                                                                       ....................................                                                    ",
"                                                   .....................................                                                                      .....................................................                             ................................                             .....................................................                                                                      .....................................                                                   ",
"                                                   ....................................                                                                      ....................................................                               ................................                               ....................................................                                                                      ....................................                                                   ",
"                                                   ....................................                                                                     ....................................................                                ................................                                ....................................................                                                                     ....................................                                                   ",
"                                                  ....................................                                                                      ..................................................                                  ................................                                  ..................................................                                                                      ....................................                                                  ",
"                                                  ....................................                                                                     .................................................                                    ................................                                    .................................................                                                                     ....................................                                                  ",
"                                                 ....................................                                                                     .................................................                                     ................................                                     .................................................                                                                     ....................................                                                 ",
"                                                 ....................................                                                                    ................................................                                       ................................                                       ................................................                                                                    ....................................                                                 ",
"                                                 ...................................                                                                    ................................................                                        ................................                                        ................................................                                                                    ...................................                                                 ",
"                                                ....................................                                                                    ..............................................                                          ................................                                          ..............................................                                                                    ....................................                                                ",
"                                                ...................................                                                                    ..............................................                                           ................................                                           ..............................................                                                                    ...................................                                                ",
"                                               ....................................                                                                   ..............................................                                            ................................                                             .............................................                                                                   ....................................                                               ",
"                                               ...................................                                                                   .............................................                                              ................................                                              .............................................                                                                   ...................................                                               ",
"                                              ....................................                                                                   ............................................                                               ................................                                               ............................................                                                                   ....................................                                              ",
"                                              ...................................                                                                   ............................................                                                ................................                                                ............................................                                                                   ...................................                                              ",
"                                              ...................................                                                                  ............................................                                                 ................................                                                 ............................................                                                                  ...................................                                              ",
"                                             ....................................                                                                  ...........................................                                                  ................................                                                  ...........................................                                                                  ....................................                                             ",
"                                             ...................................                                                                  ..........................................                                                    ................................                                                    ..........................................                                                                  ...................................                                             ",
"                                             ...................................                                                                 ..........................................                                                     ................................                                                     ..........................................                                                                 ...................................                                             ",
"                                            ...................................                                                                  .........................................                                                      ................................                                                      .........................................                                                                  ..................................                                             ",
"                                            ...................................                                                                 .........................................                                                       ................................                                                       .........................................                                                                 ...................................                                            ",
"                                            ...................................                                                                .........................................                                                        ................................                                                        .........................................                                                                ...................................                                            ",
"                                            ..................................                                                                 ........................................                                                         ................................                                                         ........................................                                                                 ..................................                                            ",
"                                           ...................................                                                                .........................................                                                         ................................                                                         .........................................                                                                ...................................                                           ",
"                                           ..................................                                                                 ........................................                                                          ................................                                                          ........................................                                                                 ..................................                                           ",
"                                           ..................................                                                                ........................................                                                           ................................                                                           ........................................                                                                ..................................                                           ",
"                                          ...................................                                                               ........................................                                                            ................................                                                            ........................................                                                               ...................................                                          ",
"                                          ..................................                                                                .......................................                                                             ................................                                                             .......................................                                                                ..................................                                          ",
"                                          ..................................                                                               .......................................                                                              ................................                                                              .......................................                                                               ..................................                                          ",
"                                         ...................................                                                               .......................................                                                              ................................                                                              .......................................                                                               ...................................                                         ",
"                                         ..................................                                                               .......................................                                                               ................................                                                               .......................................                                                               ..................................                                         ",
"                                         ..................................                                                               ......................................                                                                ................................                                                                ......................................                                                               ..................................                                         ",
"                                        ...................................                                                              ......................................                                                                 ................................                                                                 ......................................                                                              ...................................                                        ",
"                                        ..................................                                                               ......................................                                                                 ................................                                                                 ......................................                                                               ..................................                                        ",
"                                        ..................................                                                              ......................................                                                                  ................................                                                                  ......................................                                                              ..................................                                        ",
"                                        ..................................                                                              .....................................                                                                   ................................                                                                   .....................................                                                              ..................................                                        ",
"                                        .................................                                                              ......................................                                                                   ................................                                                                   ......................................                                                              .................................                                        ",
"                                       ..................................                                                              .....................................                                                                    ................................                                                                    .....................................                                                              ..................................                                       ",
"                                       ..................................                                                              ....................................                                                                     ................................                                                                     ....................................                                                              ..................................                                       ",
"                                       ..................................                                                             .....................................                                                                     ................................                                                                     .....................................                                                             ..................................                                       ",
"                                       .................................                                                              ....................................                                                                       ..............................                                                                       ....................................                                                              .................................                                       ",
"                                      ..................................                                                             .....................................                                                                       ..............................                                                                       .....................................                                                             ..................................                                      ",
"                                      ..................................                                                             ....................................                                                                        ..............................                                                                        ....................................                                                             ..................................                                      ",
"                                      ..................................                                                             ...................................                                                                          ............................                                                                          ...................................                                                             ..................................                                      ",
"                                      .................................                                                             ....................................                                                                          ............................                                                                          ....................................                                                             .................................                                      ",
"                                      .................................                                                             ...................................                                                                            ..........................                                                                            ...................................                                                             .................................                                      ",
"                                     ..................................                                                            ....................................                                                                             ........................                                                                             ...................................                                                             ..................................                                     ",
"                                     ..................................                                                            ...................................                                                                               ......................                                                                               ...................................                                                            ..................................                                     ",
"                                     .................................                                                             ...................................                                                                                ....................                                                                                ...................................                                                             .................................                                     ",
"                                     .................................                                                            ...................................                                                                                   ................                                                                                  ....................................                                                            .................................                                     ",
"                                     .................................                                                            ...................................                                                                                     ............                                                                                     ...................................                                                            .................................                                     ",
"                                    ..................................                                                            ...................................                                                                                         ....                                                                                         ...................................                                                            ..................................                                    ",
"                                    ..................................                                                           ...................................                                                                                                                                                                                        ...................................                                                           ..................................                                    ",
"                                    .................................                                                            ...................................                                                                                                                                                                                        ...................................                                                            .................................                                    ",
"                                    .................................                                                            ..................................                                                                                                                                                                                          ..................................                                                            .................................                                    ",
"                                    .................................                                                            ..................................                                                                                                                                                                                          ..................................                                                            .................................                                    ",
"                                    .................................                                                           ...................................                                                                                                                                                                                          ...................................                                                           .................................                                    ",
"                                   .................................                                                            ..................................                                                                                                                                                                                            ..................................                                                           ..................................                                   ",
"                                   .................................                                                            ..................................                                                                                                                                                                                            ..................................                                                            .................................                                   ",
"                                   .................................                                                            ..................................                                                                                                                                                                                            ..................................                                                            .................................                                   ",
"                                   .................................                                                           ..................................                                                                                                                                                                                              ..................................                                                           .................................                                   ",
"                                   .................................                                                           ..................................                                                                                                                                                                                              ..................................                                                           .................................                                   ",
"                                   .................................                                                           ..................................                                                                                                                                                                                              ..................................                                                           .................................                                   ",
"                                   .................................                                                           .................................                                                                                                                                                                                                .................................                                                           .................................                                   ",
"                                   .................................                                                           .................................                                                                                          ............                                                                                          .................................                                                           .................................                                   ",
"                                  .................................                                                           ..................................                                                                                       ..................                                                                                       ..................................                                                           .................................                                  ",
"                                  .................................                                                           ..................................                                                                                    ........................                                                                                    ..................................                                                           .................................                                  ",
"                                  .................................                                                           .................................                                                                                    ..........................                                                                                    .................................                                                           .................................                                  ",
"                                  .................................                                                           .................................                                                                                  ..............................                                                                                  .................................                                                           .................................                                  ",
"                                  .................................                                                           .................................                                                                                 ................................                                                                                 .................................                                                           .................................                                  ",
"                                  .................................                                                           .................................                                                                               ....................................                                                                               .................................                                                           .................................                                  ",
"                                  .................................                                                          ..................................                                                                              ......................................                                                                              ..................................                                                          .................................                                  ",
"                                  .................................                                                          .................................                                                                              ........................................                                                                              .................................                                                          .................................                                  ",
"                                 ..................................                                                          .................................                                                                              ........................................                                                                              .................................                                                          ..................................                                 ",
"           ...................................................................................................................................................................................................                             ..........................................                             ...................................................................................................................................................................................................           ",
"         ........................................................................................................................................................................................................                         ............................................                         ........................................................................................................................................................................................................         ",
"       ............................................................................................................................................................................................................                      ..............................................                      ............................................................................................................................................................................................................       ",
"      ..............................................................................................................................................................................................................                     ..............................................                     ..............................................................................................................................................................................................................      ",
"     ................................................................................................................................................................................................................                   ................................................                   ................................................................................................................................................................................................................     ",
"    ..................................................................................................................................................................................................................                  ................................................                  ..................................................................................................................................................................................................................    ",
"   ....................................................................................................................................................................................................................                ..................................................                ....................................................................................................................................................................................................................   ",
"  .....................................................................................................................................................................................................................                ..................................................                .....................................................................................................................................................................................................................  ",
"  ......................................................................................................................................................................................................................               ..................................................               ......................................................................................................................................................................................................................  ",
" .......................................................................................................................................................................................................................               ..................................................               ....................................................................................................................................................................................................................... ",
" ........................................................................................................................................................................................................................             ....................................................             ........................................................................................................................................................................................................................ ",
" ........................................................................................................................................................................................................................             ....................................................             ........................................................................................................................................................................................................................ ",
".........................................................................................................................................................................................................................             ....................................................             .........................................................................................................................................................................................................................",
".........................................................................................................................................................................................................................             ....................................................             .........................................................................................................................................................................................................................",
"..........................................................................................................................................................................................................................            ....................................................            ..........................................................................................................................................................................................................................",
"..........................................................................................................................................................................................................................            ....................................................            ..........................................................................................................................................................................................................................",
"..........................................................................................................................................................................................................................            ....................................................            ..........................................................................................................................................................................................................................",
"..........................................................................................................................................................................................................................            ....................................................            ..........................................................................................................................................................................................................................",
".........................................................................................................................................................................................................................             ....................................................             .........................................................................................................................................................................................................................",
".........................................................................................................................................................................................................................             ....................................................             .........................................................................................................................................................................................................................",
" ........................................................................................................................................................................................................................             ....................................................             ........................................................................................................................................................................................................................ ",
" ........................................................................................................................................................................................................................             ....................................................             ........................................................................................................................................................................................................................ ",
" .......................................................................................................................................................................................................................               ..................................................               ....................................................................................................................................................................................................................... ",
"  ......................................................................................................................................................................................................................               ..................................................               ......................................................................................................................................................................................................................  ",
"  .....................................................................................................................................................................................................................                ..................................................                .....................................................................................................................................................................................................................  ",
"   ....................................................................................................................................................................................................................                ..................................................                ....................................................................................................................................................................................................................   ",
"    ..................................................................................................................................................................................................................                  ................................................                  ..................................................................................................................................................................................................................    ",
"     ................................................................................................................................................................................................................                   ................................................                   ................................................................................................................................................................................................................     ",
"      ..............................................................................................................................................................................................................                     ..............................................                     ..............................................................................................................................................................................................................      ",
"       ............................................................................................................................................................................................................                      ..............................................                      ............................................................................................................................................................................................................       ",
"         ........................................................................................................................................................................................................                         ............................................                         ........................................................................................................................................................................................................         ",
"           ....................................................................................................................................................................................................                            ..........................................                             ...................................................................................................................................................................................................           ",
"                                 ..................................                                                          ..................................                                                                             ........................................                                                                             ..................................                                                          ..................................                                 ",
"                                  .................................                                                          .................................                                                                              ........................................                                                                              .................................                                                          .................................                                  ",
"                                  .................................                                                          ..................................                                                                              ......................................                                                                              ..................................                                                          .................................                                  ",
"                                  .................................                                                           .................................                                                                               ....................................                                                                               .................................                                                           .................................                                  ",
"                                  .................................                                                           .................................                                                                                 ................................                                                                                 .................................                                                           .................................                                  ",
"                                  .................................                                                           .................................                                                                                  ..............................                                                                                  .................................                                                           .................................                                  ",
"                                  .................................                                                           .................................                                                                                   ............................                                                                                   .................................                                                           .................................                                  ",
"                                  .................................                                                           ..................................                                                                                    ........................                                                                                    ..................................                                                           .................................                                  ",
"                                  .................................                                                           ..................................                                                                                      ....................                                                                                      ..................................                                                           .................................                                  ",
"                                   .................................                                                           .................................                                                                                          ............                                                                                          .................................                                                           .................................                                   ",
"                                   .................................                                                           .................................                                                                                                                                                                                                .................................                                                           .................................                                   ",
"                                   .................................                                                           ..................................                                                                                                                                                                                              ..................................                                                           .................................                                   ",
"                                   .................................                                                           ..................................                                                                                                                                                                                              ..................................                                                           .................................                                   ",
"                                   .................................                                                           ..................................                                                                                                                                                                                              ..................................                                                           .................................                                   ",
"                                   .................................                                                            ..................................                                                                                                                                                                                            ..................................                                                            .................................                                   ",
"                                   .................................                                                            ..................................                                                                                                                                                                                            ..................................                                                            .................................                                   ",
"                                   .................................                                                            ..................................                                                                                                                                                                                            ..................................                                                           ..................................                                   ",
"                                    .................................                                                           ...................................                                                                                                                                                                                          ...................................                                                           .................................                                    ",
"                                    .................................                                                            ..................................                                                                                                                                                                                          ..................................                                                            .................................                                    ",
"                                    .................................                                                            ..................................                                                                                                                                                                                          ..................................                                                            .................................                                    ",
"                                    .................................                                                            ...................................                                                                                                                                                                                        ...................................                                                            .................................                                    ",
"                                    ..................................                                                           ...................................                                                                                                                                                                                        ...................................                                                           ..................................                                    ",
"                                    ..................................                                                            ...................................                                                                                         ....                                                                                         ...................................                                                            ..................................                                    ",
"                                     .................................                                                            ...................................                                                                                     ............                                                                                     ...................................                                                            .................................                                     ",
"                                     .................................                                                            ...................................                                                                                   ................                                                                                   ...................................                                                            .................................                                     ",
"                                     .................................                                                             ...................................                                                                                ....................                                                                                ...................................                                                             .................................                                     ",
"                                     ..................................                                                            ...................................                                                                               ......................                                                                               ...................................                                                            ..................................                                     ",
"                                     ..................................                                                            ....................................                                                                             ........................                                                                             ....................................                                                            ..................................                                     ",
"                                      .................................                                                             ...................................                                                                            ..........................                                                                            ...................................                                                             .................................                                      ",
"                                      .................................                                                             ....................................                                                                          ............................                                                                          ....................................                                                             .................................                                      ",
"                                      ..................................                                                             ...................................                                                                          ............................                                                                          ...................................                                                             ..................................                                      ",
"                                      ..................................                                                             ....................................                                                                        ..............................                                                                        ....................................                                                             ..................................                                      ",
"                                      ..................................                                                             .....................................                                                                       ..............................                                                                       .....................................                                                             ..................................                                      ",
"                                       .................................                                                              ....................................                                                                       ..............................                                                                       ....................................                                                              .................................                                       ",
"                                       ..................................                                                             .....................................                                                                     ................................                                                                     .....................................                                                             ..................................                                       ",
"                                       ..................................                                                              ....................................                                                                     ................................                                                                     ....................................                                                              ..................................                                       ",
"                                       ..................................                                                              .....................................                                                                    ................................                                                                    .....................................                                                              ..................................                                       ",
"                                        .................................                                                              ......................................                                                                   ................................                                                                   ......................................                                                              .................................                                        ",
"                                        ..................................                                                              .....................................                                                                   ................................                                                                   .....................................                                                              ..................................                                        ",
"                                        ..................................                                                              ......................................                                                                  ................................                                                                  ......................................                                                              ..................................                                        ",
"                                        ..................................                                                               ......................................                                                                 ................................                                                                 ......................................                                                               ..................................                                        ",
"                                        ...................................                                                              ......................................                                                                 ................................                                                                 ......................................                                                              ...................................                                        ",
"                                         ..................................                                                               ......................................                                                                ................................                                                                ......................................                                                               ..................................                                         ",
"                                         ..................................                                                               .......................................                                                               ................................                                                               .......................................                                                               ..................................                                         ",
"                                         ...................................                                                               ......................................                                                               ................................                                                               ......................................                                                               ...................................                                         ",
"                                          ..................................                                                               .......................................                                                              ................................                                                              .......................................                                                               ..................................                                          ",
"                                          ..................................                                                                .......................................                                                             ................................                                                             .......................................                                                                ..................................                                          ",
"                                          ...................................                                                               ........................................                                                            ................................                                                            ........................................                                                               ...................................                                          ",
"                                           ..................................                                                                ........................................                                                           ................................                                                           ........................................                                                                ..................................                                           ",
"                                           ..................................                                                                 ........................................                                                          ................................                                                          ........................................                                                                 ..................................                                           ",
"                                           ...................................                                                                ........................................                                                          ................................                                                          ........................................                                                                ...................................                                           ",
"                                            ..................................                                                                 ........................................                                                         ................................                                                         ........................................                                                                 ..................................                                            ",
"                                            ...................................                                                                .........................................                                                        ................................                                                        .........................................                                                                ...................................                                            ",
"                                            ...................................                                                                 .........................................                                                       ................................                                                       .........................................                                                                 ...................................                                            ",
"                                            ...................................                                                                  .........................................                                                      ................................                                                      .........................................                                                                  ..................................                                             ",
"                                             ...................................                                                                 ..........................................                                                     ................................                                                     ..........................................                                                                 ...................................                                             ",
"                                             ...................................                                                                  ..........................................                                                    ................................                                                    ..........................................                                                                  ...................................                                             ",
"                                             ....................................                                                                  ..........................................                                                   ................................                                                   ..........................................                                                                  ....................................                                             ",
"                                              ...................................                                                                  ............................................                                                 ................................                                                 ............................................                                                                  ...................................                                              ",
"                                              ...................................                                                                   ............................................                                                ................................                                                ............................................                                                                   ...................................                                              ",
"                                              ....................................                                                                  .............................................                                               ................................                                               ............................................                                                                   ....................................                                              ",
"                                               ...................................                                                                   .............................................                                              ................................                                              .............................................                                                                   ...................................                                               ",
"                                               ....................................                                                                   .............................................                                             ................................                                             .............................................                                                                   ....................................                                               ",
"                                                ...................................                                                                    ..............................................                                           ................................                                           ..............................................                                                                    ...................................                                                ",
"                                                ....................................                                                                    ..............................................                                          ................................                                          ..............................................                                                                    ....................................                                                ",
"                                                 ...................................                                                                    ................................................                                        ................................                                        ................................................                                                                    ...................................                                                 ",
"                                                 ....................................                                                                    ................................................                                       ................................                                       ................................................                                                                    ....................................                                                 ",
"                                                 ....................................                                                                     ................................................                                      ................................                                      ................................................                                                                     ....................................                                                 ",
"                                                  ....................................                                                                     .................................................                                    ................................                                    .................................................                                                                     ....................................                                                  ",
"                                                  ....................................                                                                      ..................................................                                  ................................                                  ..................................................                                                                      ....................................                                                  ",
"                                                   ....................................                                                                     ....................................................                                ................................                                ....................................................                                                                     ....................................                                                   ",
"                                                   ....................................                                                                      ....................................................                               ................................                               ....................................................                                                                      ....................................                                                   ",
"                                                   .....................................                                                                      .....................................................                             ................................                             .....................................................                                                                      .....................................                                                   ",
"                                                    ....................................                                                                       ......................................................                           ................................                           ......................................................                                                                       ....................................                                                    ",
"                                                    .....................................                                                                       .......................................................                         ................................                         .......................................................                                                                       .....................................                                                    ",
"                                                     ....................................                                                                        .........................................................                      ................................                      .........................................................                                                                        ....................................                                                     ",
"                                                     .....................................                                                                        ..........................................................                    ................................                    ..........................................................                                                                        .....................................                                                     ",
"                                                     .....................................                                                                         ............................................................                 ................................                 ............................................................                                                                         .....................................                                                     ",
"                                                      .....................................                                                                         ..............................................................              ................................              ..............................................................                                                                         .....................................                                                      ",
"                                                      .....................................                                                                          ................................................................           ................................           ................................................................                                                                          .....................................                                                      ",
"                                                       .....................................                                                                          ...................................................................       ................................       ...................................................................                                                                          .....................................                                                       ",
"                                                        .....................................                                                                          .......................................................................  ................................  .......................................................................                                                                          .....................................                                                        ",
"                                                        .....................................                                                                           ................................................................................................................................................................................                                                                           .....................................                                                        ",
"                                                         .....................................                                                                           ..............................................................................................................................................................................                                                                           .....................................                                                         ",
"                                                         ......................................                                                                            ..........................................................................................................................................................................                                                                            ......................................                                                         ",
"                                                          .....................................                                                                             ........................................................................................................................................................................                                                                             .....................................                                                          ",
"                                                          ......................................                                                                             ......................................................................................................................................................................                                                                             ......................................                                                          ",
"                                                           ......................................                                                                             ....................................................................................................................................................................                                                                             ......................................                                                           ",
"                                                           ......................................                                                                               ................................................................................................................................................................                                                                               ......................................                                                           ",
"                                                            ......................................                                                                               ..............................................................................................................................................................                                                                               ......................................                                                            ",
"                                                            ......................................                                                                                ............................................................................................................................................................                                                                                ......................................                                                            ",
"                                                             ......................................                                                                                ..........................................................................................................................................................                                                                                ......................................                                                             ",
"                                                             .......................................                                                                                 ......................................................................................................................................................                                                                                 .......................................                                                             ",
"                                                              ......................................                                                                                   ..................................................................................................................................................                                                                                   ......................................                                                              ",
"                                                              .......................................                                                                                   ................................................................................................................................................                                                                                   .......................................                                                              ",
"                                                               .......................................                                                                                    ............................................................................................................................................                                                                                    .......................................                                                               ",
"                                                               ........................................                                                                                    ..........................................................................................................................................                                                                                    ........................................                                                               ",
"                                                                .......................................                                                                                      ......................................................................................................................................                                                                                     ........................................                                                                ",
"                                                                 .......................................                                                                                       ..................................................................................................................................                                                                                       .......................................                                                                 ",
"                                                                 ........................................                                                                                       ................................................................................................................................                                                                                       ........................................                                                                 ",
"                                                                  ........................................                                                                                        ............................................................................................................................                                                                                        ........................................                                                                  ",
"                                                                   ........................................                                                                                         ........................................................................................................................                                                                                         ........................................                                                                   ",
"                                                                   ........................................                                                                                           ....................................................................................................................                                                                                           ........................................                                                                   ",
"                                                                    ........................................                                                                                            ................................................................................................................                                                                                            ........................................                                                                    ",
"                                                                     ........................................                                                                                             ............................................................................................................                                                                                             ........................................                                                                     ",
"                                                                     .........................................                                                                                               ......................................................................................................                                                                                               .........................................                                                                     ",
"                                                                      ........................................                                                                                                 ..................................................................................................                                                                                                 ........................................                                                                      ",
"                                                                      .........................................                                                                                                   ............................................................................................                                                                                                   .........................................                                                                      ",
"                                                                       .........................................                                                                                                    ........................................................................................                                                                                                    .........................................                                                                       ",
"                                                                        .........................................                                                                                                      ..................................................................................                                                                                                      .........................................                                                                        ",
"                                                                        ..........................................                                                                                                        ............................................................................                                                                                                        ..........................................                                                                        ",
"                                                                         ..........................................                                                                                                           ....................................................................                                                                                                           ..........................................                                                                         ",
"                                                                          ..........................................                                                                                                              ............................................................                                                                                                              ..........................................                                                                          ",
"                                                                           ..........................................                                                                                                                  ..................................................                                                                                                                  ..........................................                                                                           ",
"                                                                           ...........................................                                                                                                                       ......................................                                                                                                                       ...........................................                                                                           ",
"                                                                            ...........................................                                                                                                                         ................................                                                                                                                         ...........................................                                                                            ",
"                                                                             ...........................................                                                                                                                        ................................                                                                                                                        ...........................................                                                                             ",
"                                                                              ...........................................                                                                                                                       ................................                                                                                                                       ...........................................                                                                              ",
"                                                                              ...........................................                                                                                                                       ................................                                                                                                                       ...........................................                                                                              ",
"                                                                               ............................................                                                                                                                     ................................                                                                                                                     ............................................                                                                               ",
"                                                                                ............................................                                                                                                                    ................................                                                                                                                    ............................................                                                                                ",
"                                                                                 ............................................                                                                                                                   ................................                                                                                                                   ............................................                                                                                 ",
"                                                                                 .............................................                                                                                                                  ................................                                                                                                                  .............................................                                                                                 ",
"                                                                                  .............................................                                                                                                                 ................................                                                                                                                 .............................................                                                                                  ",
"                                                                                   .............................................                                                                                                                ................................                                                                                                                .............................................                                                                                   ",
"                                                                                    .............................................                                                                                                               ................................                                                                                                               .............................................                                                                                    ",
"                                                                                    ..............................................                                                                                                              ................................                                                                                                              .............................................                                                                                     ",
"                                                                                     ..............................................                                                                                                             ................................                                                                                                             ..............................................                                                                                     ",
"                                                                                      ..............................................                                                                                                            ................................                                                                                                            ..............................................                                                                                      ",
"                                                                                       ..............................................                                                                                                           ................................                                                                                                           ..............................................                                                                                       ",
"                                                                                        ...............................................                                                                                                         ................................                                                                                                         ...............................................                                                                                        ",
"                                                                                         ...............................................                                                                                                        ................................                                                                                                        ...............................................                                                                                         ",
"                                                                                          ...............................................                                                                                                       ................................                                                                                                       ...............................................                                                                                          ",
"                                                                                           ................................................                                                                                                     ................................                                                                                                     ................................................                                                                                           ",
"                                                                                            ................................................                                                                                                    ................................                                                                                                    ................................................                                                                                            ",
"                                                                                             ................................................                                                                                                   ................................                                                                                                   ................................................                                                                                             ",
"                                                                                              ................................................                                                                                                  ................................                                                                                                  ................................................                                                                                              ",
"                                                                                              ..................................................                                                                                                ................................                                                                                                ..................................................                                                                                              ",
"                                                                                               ..................................................                                                                                               ................................                                                                                               ..................................................                                                                                               ",
"                                                                                                ..................................................                                                                                              ................................                                                                                              ..................................................                                                                                                ",
"                                                                                                 ...................................................                                                                                            ................................                                                                                            ...................................................                                                                                                 ",
"                                                                                                  ...................................................                                                                                           ................................                                                                                           ...................................................                                                                                                  ",
"                                                                                                   ....................................................                                                                                         ................................                                                                                         ....................................................                                                                                                   ",
"                                                                                                    .....................................................                                                                                       ................................                                                                                       .....................................................                                                                                                    ",
"                                                                                                     .....................................................                                                                                      ................................                                                                                      .....................................................                                                                                                     ",
"                                                                                                      ......................................................                                                                                    ................................                                                                                    ......................................................                                                                                                      ",
"                                                                                                        .....................................................                                                                                   ................................                                                                                   .....................................................                                                                                                        ",
"                                                                                                         ......................................................                                                                                 ................................                                                                                 ......................................................                                                                                                         ",
"                                                                                                          ......................................................                                                                                ................................                                                                                ......................................................                                                                                                          ",
"                                                                                                           .......................................................                                                                              ................................                                                                              .......................................................                                                                                                           ",
"                                                                                                            ........................................................                                                                            ................................                                                                            ........................................................                                                                                                            ",
"                                                                                                             .........................................................                                                                          ................................                                                                          .........................................................                                                                                                             ",
"                                                                                                              ..........................................................                                                                        ................................                                                                        ..........................................................                                                                                                              ",
"                                                                                                               ...........................................................                                                                      ................................                                                                      ...........................................................                                                                                                               ",
"                                                                                                                ............................................................                                                                    ................................                                                                    ............................................................                                                                                                                ",
"                                                                                                                 .............................................................                                                                  ................................                                                                  .............................................................                                                                                                                 ",
"                                                                                                                   .............................................................                                                                ................................                                                                .............................................................                                                                                                                   ",
"                                                                                                                    ..............................................................                                                              ................................                                                              ..............................................................                                                                                                                    ",
"                                                                                                                     ...............................................................                                                            ................................                                                            ...............................................................                                                                                                                     ",
"                                                                                                                       ................................................................                                                         ................................                                                         ................................................................                                                                                                                       ",
"                                                                                                                        .................................................................                                                       ................................                                                       .................................................................                                                                                                                        ",
"                                                                                                                         ...................................................................                                                    ................................                                                    ...................................................................                                                                                                                         ",
"                                                                                                                           ...................................................................                                                  ................................                                                  ...................................................................                                                                                                                           ",
"                                                                                                                            .....................................................................                                               ................................                                               .....................................................................                                                                                                                            ",
"                                                                                                                             .......................................................................                                            ................................                                            .......................................................................                                                                                                                             ",
"                                                                                                                               ........................................................................                                         ................................                                         ........................................................................                                                                                                                               ",
"                                                                                                                                ..........................................................................                                      ................................                                      ..........................................................................                                                                                                                                ",
"                                                                                                                                 .............................................................................                                  ................................                                  .............................................................................                                                                                                                                 ",
"                                                                                                                                   ...............................................................................                              ................................                              ...............................................................................                                                                                                                                   ",
"                                                                                                                                    ..................................................................................                          ................................                          ..................................................................................                                                                                                                                    ",
"                                                                                                                                      .....................................................................................                     ................................                     .....................................................................................                                                                                                                                      ",
"                                                                                                                                        .......................................................................................                 ................................                 .......................................................................................                                                                                                                                        ",
"                                                                                                                                         ..............................................................................................         ................................         ..............................................................................................                                                                                                                                         ",
"                                                                                                                                           ..........................................................................................................................................................................................................................................                                                                                                                                           ",
"                                                                                                                                            ........................................................................................................................................................................................................................................                                                                                                                                            ",
"                                                                                                                                              ....................................................................................................................................................................................................................................                                                                                                                                              ",
"                                                                                                                                               ..................................................................................................................................................................................................................................                                                                                                                                               ",
"                                                                                                                                                 ..............................................................................................................................................................................................................................                                                                                                                                                 ",
"                                                                                                                                                   ..........................................................................................................................................................................................................................                                                                                                                                                   ",
"                                                                                                                                                     ......................................................................................................................................................................................................................                                                                                                                                                     ",
"                                                                                                                                                       ..................................................................................................................................................................................................................                                                                                                                                                       ",
"                                                                                                                                                         ..............................................................................................................................................................................................................                                                                                                                                                         ",
"                                                                                                                                                           ..........................................................................................................................................................................................................                                                                                                                                                           ",
"                                                                                                                                                             ......................................................................................................................................................................................................                                                                                                                                                             ",
"                                                                                                                                                               ..................................................................................................................................................................................................                                                                                                                                                               ",
"                                                                                                                                                                ................................................................................................................................................................................................                                                                                                                                                                ",
"                                                                                                                                                                  ............................................................................................................................................................................................                                                                                                                                                                  ",
"                                                                                                                                                                     ......................................................................................................................................................................................                                                                                                                                                                     ",
"                                                                                                                                                                       ..................................................................................................................................................................................                                                                                                                                                                       ",
"                                                                                                                                                                          ............................................................................................................................................................................                                                                                                                                                                          ",
"                                                                                                                                                                            ........................................................................................................................................................................                                                                                                                                                                            ",
"                                                                                                                                                                               ..................................................................................................................................................................                                                                                                                                                                               ",
"                                                                                                                                                                                 ..............................................................................................................................................................                                                                                                                                                                                 ",
"                                                                                                                                                                                   ..........................................................................................................................................................                                                                                                                                                                                   ",
"                                                                                                                                                                                      ....................................................................................................................................................                                                                                                                                                                                      ",
"                                                                                                                                                                                         ..............................................................................................................................................                                                                                                                                                                                         ",
"                                                                                                                                                                                             ......................................................................................................................................                                                                                                                                                                                             ",
"                                                                                                                                                                                                ................................................................................................................................                                                                                                                                                                                                ",
"                                                                                                                                                                                                   ..........................................................................................................................                                                                                                                                                                                                   ",
"                                                                                                                                                                                                      ....................................................................................................................                                                                                                                                                                                                      ",
"                                                                                                                                                                                                           ..........................................................................................................                                                                                                                                                                                                           ",
"                                                                                                                                                                                                               ..................................................................................................                                                                                                                                                                                                               ",
"                                                                                                                                                                                                                    ........................................................................................                                                                                                                                                                                                                    ",
"                                                                                                                                                                                                                        ................................................................................                                                                                                                                                                                                                        ",
"                                                                                                                                                                                                                               ..................................................................                                                                                                                                                                                                                               ",
"                                                                                                                                                                                                                                       ..................................................                                                                                                                                                                                                                                       ",
"                                                                                                                                                                                                                                               ..................................                                                                                                                                                                                                                                               ",
"                                                                                                                                                                                                                                                ................................                                                                                                                                                                                                                                                ",
"                                                                                                                                                                                                                                                ................................                                                                                                                                                                                                                                                ",
"                                                                                                                                                                                                                                                ................................                                                                                                                                                                                                                                                ",
"                                                                                                                                                                                                                                                ................................                                                                                                                                                                                                                                                ",
"                                                                                                                                                                                                                                                ................................                                                                                                                                                                                                                                                ",
"                                                                                                                                                                                                                                                ................................                                                                                                                                                                                                                                                ",
"                                                                                                                                                                                                                                                ................................                                                                                                                                                                                                                                                ",
"                                                                                                                                                                                                                                                ................................                                                                                                                                                                                                                                                ",
"                                                                                                                                                                                                                                                ................................                                                                                                                                                                                                                                                ",
"                                                                                                                                                                                                                                                ................................                                                                                                                                                                                                                                                ",
"                                                                                                                                                                                                                                                ................................                                                                                                                                                                                                                                                ",
"                                                                                                                                                                                                                                                ................................                                                                                                                                                                                                                                                ",
"                                                                                                                                                                                                                                                ................................                                                                                                                                                                                                                                                ",
"                                                                                                                                                                                                                                                ................................                                                                                                                                                                                                                                                ",
"                                                                                                                                                                                                                                                ................................                                                                                                                                                                                                                                                ",
"                                                                                                                                                                                                                                                ................................                                                                                                                                                                                                                                                ",
"                                                                                                                                                                                                                                                ................................                                                                                                                                                                                                                                                ",
"                                                                                                                                                                                                                                                ................................                                                                                                                                                                                                                                                ",
"                                                                                                                                                                                                                                                ................................                                                                                                                                                                                                                                                ",
"                                                                                                                                                                                                                                                ................................                                                                                                                                                                                                                                                ",
"                                                                                                                                                                                                                                                ................................                                                                                                                                                                                                                                                ",
"                                                                                                                                                                                                                                                ................................                                                                                                                                                                                                                                                ",
"                                                                                                                                                                                                                                                 ..............................                                                                                                                                                                                                                                                 ",
"                                                                                                                                                                                                                                                 ..............................                                                                                                                                                                                                                                                 ",
"                                                                                                                                                                                                                                                  ............................                                                                                                                                                                                                                                                  ",
"                                                                                                                                                                                                                                                  ............................                                                                                                                                                                                                                                                  ",
"                                                                                                                                                                                                                                                   ..........................                                                                                                                                                                                                                                                   ",
"                                                                                                                                                                                                                                                    ........................                                                                                                                                                                                                                                                    ",
"                                                                                                                                                                                                                                                     ......................                                                                                                                                                                                                                                                     ",
"                                                                                                                                                                                                                                                      ....................                                                                                                                                                                                                                                                      ",
"                                                                                                                                                                                                                                                       ..................                                                                                                                                                                                                                                                       ",
"                                                                                                                                                                                                                                                         ..............                                                                                                                                                                                                                                                         ",
"                                                                                                                                                                                                                                                            ........                                                                                                                                                                                                                                                            "};
