/* XPM */
static char * aim_xpm[] = {
"60 60 27 1",
" 	c None",
".	c #47704C",
"+	c #000000",
"@	c #000000",
"#	c #000000",
"$	c #000000",
"%	c #000000",
"&	c #000000",
"*	c #000000",
"=	c #000000",
"-	c #000000",
";	c #000000",
">	c #000000",
",	c #000000",
"'	c #000000",
")	c #000000",
"!	c #000000",
"~	c #000000",
"{	c #000000",
"]	c #000000",
"^	c #000000",
"/	c #000000",
"(	c #000000",
"_	c #000000",
":	c #000000",
"<	c #000000",
"[	c #000000",
"                             ,,                             ",
"                            ([[(                            ",
"                            @[[@                            ",
"                            ~[[~                            ",
"                        {]&$#[[#$&]{                        ",
"                     )$#[[[[[[[[[[[[#$)                     ",
"                   &#[[[[[[[[[[[[[[[[[[#&                   ",
"                 &[[[[[[['~&'[['&~'[[[[[[[&                 ",
"               )#[[[[[$)    @[[@    )$[[[[[#)               ",
"              @[[[[#(       @[[@       (#[[[[@              ",
"             ,[[[[&         @[[@         &[[[[,             ",
"            '[[['{          @[[@          {'[[['            ",
"           '[[[~            @[[@            ~[[['           ",
"          ,[[[&             @[[@             &[[[,          ",
"         @[[[&              $[[$              &[[[@         ",
"        )[[[~            ]$#[[[[#$]            ~[[[)        ",
"        #[['          {$[[[[[[[[[[[[${          '[[#        ",
"       &[[[{         ([[[[[[[[[[[[[[[[(         {[[[&       ",
"       [[[&         ,[[[[#@),[[,)@#[[[[,         &[[[       ",
"      &[[#         '[[[#]   @[[@   ]#[[['         #[[&      ",
"      #[[(        ,[[[$     @[[@     $[[[,        ([[#      ",
"     )[[[        &[[[~      @[[@      ~[[[(        [[[)     ",
"     $[[$       {[[[$       @[[@       $[[[{       $[[$     ",
"     #[[)       $[[#        @[[@        #[[$       )[[#     ",
"    {[[[        [[[]        <[[<        ][[[        [[[{    ",
"    ][['       ][[#                      #[[]       '[[]    ",
"    &[[~       $[[@                      @[[$       ~[[&    ",
"    $[[&       #[[)         <$$<         )[[#       &[[$    ",
" (@~#[['@@@@@@$[[[,@@@@@<  <[[[[<  <@@@@@,[[[$@@@@@@'[[#~@( ",
",[[[[[[[[[[[[[[[[[[[[[[[[  $[[[[$  [[[[[[[[[[[[[[[[[[[[[[[[,",
",[[[[[[[[[[[[[[[[[[[[[[[[  $[[[[$  [[[[[[[[[[[[[[[[[[[[[[[[,",
" (@~#[['@@@@@@$[[[,@@@@@<  <[[[[<  <@@@@@,[[[$@@@@@@'[[#~@( ",
"    $[[&       #[[)         <$$<         )[[#       &[[$    ",
"    &[[~       $[[@                      @[[$       ~[[&    ",
"    ][['       ][[#                      #[[]       '[[]    ",
"    {[[[        [[[]        <[[<        ][[[        [[[{    ",
"     #[[)       $[[#        @[[@        #[[$       )[[#     ",
"     $[[$       {[[[$       @[[@       $[[[{       $[[$     ",
"     )[[[        &[[[~      @[[@      ~[[[(        [[[)     ",
"      #[[(        ,[[[$     @[[@     $[[[,        ([[#      ",
"      @[[#         '[[[#]   @[[@   ]#[[['         #[[@      ",
"       [[[&         ,[[[[#@),[[,)@#[[[[,         &[[[       ",
"       @[[[{         &[[[[[[[[[[[[[[[[&         {[[[@       ",
"        #[['          {$[[[[[[[[[[[[${          '[[#        ",
"        )[[[~            ],#[[[[#,]            ~[[[)        ",
"         ~[[[&              $[[$              &[[[@         ",
"          ,[[[&             @[[@             &[[[,          ",
"           '[[[~            @[[@            ~[[['           ",
"            '[[['{          @[[@          {'[[['            ",
"             ,[[[[&         @[[@         &[[[[,             ",
"              ~[[[[#(       @[[@       (#[[[[~              ",
"               )#[[[[[$)    @[[@    )$[[[[[#)               ",
"                 @[[[[[[['~&'[['&~'[[[[[[[@                 ",
"                   @#[[[[[[[[[[[[[[[[[[#&                   ",
"                     )$#[[[[[[[[[[[[#$)                     ",
"                        {]&$#[[#$&]{                        ",
"                            ~[[~                            ",
"                            @[[@                            ",
"                            ([[(                            ",
"                             ,,                             "};
