/* XPM */
static char * NO_xpm[] = {
"30 30 2 1",
" 	c #4C00FF",
".	c #000507",
"                              ",
" ............................ ",
" ............................ ",
" ............................ ",
" ............................ ",
" ............................ ",
" ............................ ",
" ............................ ",
" ............................ ",
" ............................ ",
" ............................ ",
" ............................ ",
" ............................ ",
" ............................ ",
" ............................ ",
" ............................ ",
" ............................ ",
" ............................ ",
" ............................ ",
" ............................ ",
" ............................ ",
" ............................ ",
" ............................ ",
" ............................ ",
" ............................ ",
" ............................ ",
" ............................ ",
" ............................ ",
" ............................ ",
"                              "};
