/* XPM */
static char * sprite_xpm[] = {
"600 368 16353 3",
"   	c None",
".  	c #717F8E",
"+  	c #5D6D79",
"@  	c #768491",
"#  	c #788897",
"$  	c #7F8E9D",
"%  	c #6C7D8B",
"&  	c #3E4F5E",
"*  	c #415161",
"=  	c #8190A1",
"-  	c #5D6D7C",
";  	c #798897",
">  	c #4C5969",
",  	c #8996A6",
"'  	c #9DABB8",
")  	c #94A2AF",
"!  	c #8C9AA7",
"~  	c #6B7984",
"{  	c #7E8B94",
"]  	c #A2AFB8",
"^  	c #9BABBA",
"/  	c #4A5C6F",
"(  	c #728594",
"_  	c #3B4B58",
":  	c #5A646D",
"<  	c #5D686E",
"[  	c #84939A",
"}  	c #6E8187",
"|  	c #3A4D53",
"1  	c #596A71",
"2  	c #535D67",
"3  	c #4B535E",
"4  	c #464E59",
"5  	c #58656E",
"6  	c #596A72",
"7  	c #54676D",
"8  	c #5C6D74",
"9  	c #4C595F",
"0  	c #616A6F",
"a  	c #62696F",
"b  	c #3D4B4C",
"c  	c #516160",
"d  	c #506060",
"e  	c #4E5E5E",
"f  	c #374548",
"g  	c #39474A",
"h  	c #414C50",
"i  	c #434E52",
"j  	c #485359",
"k  	c #384349",
"l  	c #4A5559",
"m  	c #4D585C",
"n  	c #515C60",
"o  	c #646F71",
"p  	c #606B6D",
"q  	c #515C5E",
"r  	c #3E494F",
"s  	c #89939C",
"t  	c #BCCAD6",
"u  	c #4F6273",
"v  	c #5F717F",
"w  	c #9EB0BA",
"x  	c #69767C",
"y  	c #34393C",
"z  	c #525655",
"A  	c #384241",
"B  	c #344242",
"C  	c #495959",
"D  	c #384647",
"E  	c #323B40",
"F  	c #363D43",
"G  	c #343B41",
"H  	c #1D262B",
"I  	c #1F2D30",
"J  	c #233333",
"K  	c #2F3D3E",
"L  	c #3F494A",
"M  	c #3F4447",
"N  	c #3F4545",
"O  	c #3C4844",
"P  	c #2E3F37",
"Q  	c #273832",
"R  	c #394843",
"S  	c #32413E",
"T  	c #384442",
"U  	c #394342",
"V  	c #242E2D",
"W  	c #3B4546",
"X  	c #485253",
"Y  	c #4C5655",
"Z  	c #495352",
"`  	c #505A59",
" . 	c #56605F",
".. 	c #6E7975",
"+. 	c #737D7C",
"@. 	c #9BA5A7",
"#. 	c #868F96",
"$. 	c #AFBCC5",
"%. 	c #5F707E",
"&. 	c #657680",
"*. 	c #8A99A0",
"=. 	c #747F81",
"-. 	c #7C807F",
";. 	c #4B504A",
">. 	c #515C56",
",. 	c #4A5A57",
"'. 	c #425553",
"). 	c #485858",
"!. 	c #3F4A4E",
"~. 	c #4C555C",
"{. 	c #3F484F",
"]. 	c #475256",
"^. 	c #324144",
"/. 	c #445454",
"(. 	c #5B6B6B",
"_. 	c #5B6668",
":. 	c #4A5255",
"<. 	c #71797B",
"[. 	c #5D6E68",
"}. 	c #74887F",
"|. 	c #6F827C",
"1. 	c #61726C",
"2. 	c #64736E",
"3. 	c #63726D",
"4. 	c #889492",
"5. 	c #9CA8A6",
"6. 	c #9BA5A4",
"7. 	c #AEB8B7",
"8. 	c #929B9A",
"9. 	c #B6BFBE",
"0. 	c #AAB5B1",
"a. 	c #B4BFBB",
"b. 	c #7E8985",
"c. 	c #BAC4C3",
"d. 	c #8A9294",
"e. 	c #646B71",
"f. 	c #AEB8C1",
"g. 	c #4B5B68",
"h. 	c #58666F",
"i. 	c #637076",
"j. 	c #5C6769",
"k. 	c #5C6564",
"l. 	c #6F7978",
"m. 	c #4F6260",
"n. 	c #839B9B",
"o. 	c #698286",
"p. 	c #3B545B",
"q. 	c #5C707B",
"r. 	c #5D6F7D",
"s. 	c #647483",
"t. 	c #8698A4",
"u. 	c #5D737E",
"v. 	c #8DA6AD",
"w. 	c #A2B9C1",
"x. 	c #80949B",
"y. 	c #6F7D88",
"z. 	c #909FA6",
"A. 	c #9DB2B5",
"B. 	c #A1B9B9",
"C. 	c #8A9FA0",
"D. 	c #687C7D",
"E. 	c #76888A",
"F. 	c #576669",
"G. 	c #647177",
"H. 	c #6B787E",
"I. 	c #646F75",
"J. 	c #4A555B",
"K. 	c #3D464D",
"L. 	c #444D52",
"M. 	c #353E43",
"N. 	c #323D3F",
"O. 	c #253032",
"P. 	c #AFB9BB",
"Q. 	c #899193",
"R. 	c #7E8689",
"S. 	c #C5D0D6",
"T. 	c #4D5C66",
"U. 	c #56656C",
"V. 	c #667477",
"W. 	c #546366",
"X. 	c #425458",
"Y. 	c #7C9399",
"Z. 	c #587680",
"`. 	c #638793",
" + 	c #5B8595",
".+ 	c #588195",
"++ 	c #5A7E98",
"@+ 	c #6385A0",
"#+ 	c #6988A4",
"$+ 	c #6587A0",
"%+ 	c #61859B",
"&+ 	c #4E7489",
"*+ 	c #4C7287",
"=+ 	c #507588",
"-+ 	c #638199",
";+ 	c #718DA2",
">+ 	c #7491A3",
",+ 	c #688595",
"'+ 	c #7792A3",
")+ 	c #607789",
"!+ 	c #54697C",
"~+ 	c #6A7B8F",
"{+ 	c #27364B",
"]+ 	c #222E44",
"^+ 	c #1F2A3E",
"/+ 	c #071226",
"(+ 	c #081025",
"_+ 	c #0F172A",
":+ 	c #171F32",
"<+ 	c #0D1929",
"[+ 	c #121E2E",
"}+ 	c #A1ABB5",
"|+ 	c #929A9D",
"1+ 	c #757D7F",
"2+ 	c #C9D2D7",
"3+ 	c #495762",
"4+ 	c #59686F",
"5+ 	c #748285",
"6+ 	c #526468",
"7+ 	c #425961",
"8+ 	c #688593",
"9+ 	c #577E8F",
"0+ 	c #73A2B6",
"a+ 	c #4F819A",
"b+ 	c #5386A5",
"c+ 	c #6290B2",
"d+ 	c #4E789E",
"e+ 	c #537EA1",
"f+ 	c #517C9E",
"g+ 	c #4D7C9A",
"h+ 	c #4B7A96",
"i+ 	c #51809E",
"j+ 	c #507D9C",
"k+ 	c #537C9C",
"l+ 	c #6084A4",
"m+ 	c #5A7D9B",
"n+ 	c #6587A3",
"o+ 	c #6887A4",
"p+ 	c #425D7A",
"q+ 	c #2E4564",
"r+ 	c #687B9B",
"s+ 	c #334364",
"t+ 	c #293857",
"u+ 	c #2A3757",
"v+ 	c #131E3C",
"w+ 	c #0F1A36",
"x+ 	c #111C38",
"y+ 	c #17213C",
"z+ 	c #111D35",
"A+ 	c #101C34",
"B+ 	c #8A96A6",
"C+ 	c #858D90",
"D+ 	c #737C7B",
"E+ 	c #C4CDD2",
"F+ 	c #52606D",
"G+ 	c #3B4952",
"H+ 	c #A3B2B7",
"I+ 	c #66797F",
"J+ 	c #3A525E",
"K+ 	c #7FA0B1",
"L+ 	c #547F92",
"M+ 	c #6092AB",
"N+ 	c #467F9D",
"O+ 	c #3E769B",
"P+ 	c #3B6F97",
"Q+ 	c #4B7CA7",
"R+ 	c #4978A2",
"S+ 	c #4979A1",
"T+ 	c #46789B",
"U+ 	c #4A7F9F",
"V+ 	c #5085A7",
"W+ 	c #4A7FA1",
"X+ 	c #4B7B9F",
"Y+ 	c #5985AA",
"Z+ 	c #547EA4",
"`+ 	c #547CA0",
" @ 	c #52759B",
".@ 	c #35557B",
"+@ 	c #233F66",
"@@ 	c #4D658B",
"#@ 	c #253860",
"$@ 	c #29385F",
"%@ 	c #263459",
"&@ 	c #0B183B",
"*@ 	c #061335",
"=@ 	c #091636",
"-@ 	c #16213F",
";@ 	c #172540",
">@ 	c #071530",
",@ 	c #626D7F",
"'@ 	c #757C82",
")@ 	c #5E6766",
"!@ 	c #A1ACB0",
"~@ 	c #54616F",
"{@ 	c #576870",
"]@ 	c #556469",
"^@ 	c #4E6167",
"/@ 	c #465E6A",
"(@ 	c #87A7B6",
"_@ 	c #568194",
":@ 	c #6599B1",
"<@ 	c #4A82A3",
"[@ 	c #4882A8",
"}@ 	c #467BA7",
"|@ 	c #4C7FAC",
"1@ 	c #4879A4",
"2@ 	c #45769E",
"3@ 	c #3F7398",
"4@ 	c #4D83A5",
"5@ 	c #578DAF",
"6@ 	c #568CAE",
"7@ 	c #5183A8",
"8@ 	c #4C7CA2",
"9@ 	c #5784AD",
"0@ 	c #517CA6",
"a@ 	c #5077A2",
"b@ 	c #2A4D77",
"c@ 	c #24446D",
"d@ 	c #39527B",
"e@ 	c #1C325B",
"f@ 	c #15274F",
"g@ 	c #28375E",
"h@ 	c #0A173A",
"i@ 	c #071436",
"j@ 	c #0D1B38",
"k@ 	c #0C1733",
"l@ 	c #07152F",
"m@ 	c #0B1933",
"n@ 	c #778294",
"o@ 	c #60696E",
"p@ 	c #5F6769",
"q@ 	c #A0ABB1",
"r@ 	c #3B4B59",
"s@ 	c #75888F",
"t@ 	c #8A9CA0",
"u@ 	c #485B5F",
"v@ 	c #41555C",
"w@ 	c #829EAA",
"x@ 	c #587F90",
"y@ 	c #6999AF",
"z@ 	c #427997",
"A@ 	c #427A9D",
"B@ 	c #487CA4",
"C@ 	c #42739C",
"D@ 	c #4D7AA3",
"E@ 	c #4F7DA1",
"F@ 	c #48799A",
"G@ 	c #4D809F",
"H@ 	c #5386A3",
"I@ 	c #5E8CAE",
"J@ 	c #5F8DB1",
"K@ 	c #5D8DB5",
"L@ 	c #5481AB",
"M@ 	c #4C76A0",
"N@ 	c #294E78",
"O@ 	c #24456E",
"P@ 	c #29456D",
"Q@ 	c #192B51",
"R@ 	c #2D3B60",
"S@ 	c #06112D",
"T@ 	c #16223C",
"U@ 	c #141F35",
"V@ 	c #071427",
"W@ 	c #0B1829",
"X@ 	c #737F8B",
"Y@ 	c #8A9496",
"Z@ 	c #909A9B",
"`@ 	c #BCC9CF",
" # 	c #526470",
".# 	c #54676E",
"+# 	c #6F8286",
"@# 	c #5C6F73",
"## 	c #4B5E64",
"$# 	c #9FBAC3",
"%# 	c #567B8B",
"&# 	c #4F7F95",
"*# 	c #457C9A",
"=# 	c #3F739B",
"-# 	c #4E7FA8",
";# 	c #4B789F",
"># 	c #517FA3",
",# 	c #447595",
"'# 	c #4C7F9C",
")# 	c #6598B5",
"!# 	c #5583A4",
"~# 	c #608EB2",
"{# 	c #5B8AB6",
"]# 	c #5483B1",
"^# 	c #45709D",
"/# 	c #325885",
"(# 	c #234471",
"_# 	c #233E69",
":# 	c #1B305B",
"<# 	c #23355D",
"[# 	c #1D294F",
"}# 	c #091434",
"|# 	c #020B28",
"1# 	c #0C132D",
"2# 	c #151D32",
"3# 	c #162133",
"4# 	c #041020",
"5# 	c #404D56",
"6# 	c #707A7C",
"7# 	c #7C8687",
"8# 	c #C3D0D6",
"9# 	c #364855",
"0# 	c #42565D",
"a# 	c #4F6467",
"b# 	c #54696C",
"c# 	c #52666D",
"d# 	c #9CB8C3",
"e# 	c #497081",
"f# 	c #3A6D82",
"g# 	c #407997",
"h# 	c #437FA3",
"i# 	c #4279A2",
"j# 	c #41749F",
"k# 	c #5080A8",
"l# 	c #5181A7",
"m# 	c #3F7192",
"n# 	c #679CBB",
"o# 	c #BBF0FF",
"p# 	c #86BBDA",
"q# 	c #5585AB",
"r# 	c #5080B0",
"s# 	c #5886BA",
"t# 	c #456EA2",
"u# 	c #264B7F",
"v# 	c #1E3E6F",
"w# 	c #294374",
"x# 	c #2A3C6C",
"y# 	c #1C2A57",
"z# 	c #19224B",
"A# 	c #141C40",
"B# 	c #0E1333",
"C# 	c #040926",
"D# 	c #050B23",
"E# 	c #10172A",
"F# 	c #0C1325",
"G# 	c #4C5660",
"H# 	c #5B6567",
"I# 	c #566262",
"J# 	c #B8C7CC",
"K# 	c #31444C",
"L# 	c #2B3E44",
"M# 	c #384C4D",
"N# 	c #394D4E",
"O# 	c #374A50",
"P# 	c #A0BBC4",
"Q# 	c #608798",
"R# 	c #4B7B92",
"S# 	c #3F7798",
"T# 	c #2D678D",
"U# 	c #285F86",
"V# 	c #2E628A",
"W# 	c #32638B",
"X# 	c #3A6C91",
"Y# 	c #275C7E",
"Z# 	c #6097B6",
"`# 	c #CEFFFF",
" $ 	c #81BAD8",
".$ 	c #3F7695",
"+$ 	c #588CB3",
"@$ 	c #5C8ABE",
"#$ 	c #4B75B1",
"$$ 	c #355C95",
"%$ 	c #1C3F77",
"&$ 	c #29477D",
"*$ 	c #22396D",
"=$ 	c #2C3E6E",
"-$ 	c #24325F",
";$ 	c #1F2B53",
">$ 	c #0C1439",
",$ 	c #050B2B",
"'$ 	c #101532",
")$ 	c #121830",
"!$ 	c #091023",
"~$ 	c #0B1224",
"{$ 	c #6A727D",
"]$ 	c #747D82",
"^$ 	c #4A5557",
"/$ 	c #9FAEB5",
"($ 	c #677881",
"_$ 	c #3B4F55",
":$ 	c #4B5D61",
"<$ 	c #3F4F4F",
"[$ 	c #313F3F",
"}$ 	c #374546",
"|$ 	c #9FB3BA",
"1$ 	c #537485",
"2$ 	c #27536C",
"3$ 	c #326789",
"4$ 	c #235B80",
"5$ 	c #1D5178",
"6$ 	c #225479",
"7$ 	c #2E5E82",
"8$ 	c #2C5E81",
"9$ 	c #31678B",
"0$ 	c #2D678C",
"a$ 	c #4682A6",
"b$ 	c #3F7B9F",
"c$ 	c #548FAF",
"d$ 	c #4C81A9",
"e$ 	c #4872AC",
"f$ 	c #3C62A3",
"g$ 	c #325694",
"h$ 	c #2B4B84",
"i$ 	c #1D3B71",
"j$ 	c #2D4778",
"k$ 	c #354A77",
"l$ 	c #2C3D68",
"m$ 	c #27355A",
"n$ 	c #041133",
"o$ 	c #000826",
"p$ 	c #09132E",
"q$ 	c #10182F",
"r$ 	c #091124",
"s$ 	c #020B1C",
"t$ 	c #79838F",
"u$ 	c #787F89",
"v$ 	c #A7B4BC",
"w$ 	c #627580",
"x$ 	c #2A3B41",
"y$ 	c #516063",
"z$ 	c #6A7878",
"A$ 	c #525E5E",
"B$ 	c #434F4F",
"C$ 	c #86979F",
"D$ 	c #506C81",
"E$ 	c #4D7491",
"F$ 	c #21557C",
"G$ 	c #2E5E84",
"H$ 	c #2A587C",
"I$ 	c #2C587B",
"J$ 	c #2D5B7F",
"K$ 	c #2D6189",
"L$ 	c #2D678F",
"M$ 	c #3F7AA4",
"N$ 	c #4F89AF",
"O$ 	c #4D80AD",
"P$ 	c #466EAC",
"Q$ 	c #4164A8",
"R$ 	c #2F5190",
"S$ 	c #1B3B74",
"T$ 	c #1A356A",
"U$ 	c #435B8B",
"V$ 	c #3F547F",
"W$ 	c #25375D",
"X$ 	c #2E3C61",
"Y$ 	c #0E1B3D",
"Z$ 	c #06112F",
"`$ 	c #0B1731",
" % 	c #111C32",
".% 	c #081325",
"+% 	c #000919",
"@% 	c #515B67",
"#% 	c #6B717D",
"$% 	c #3F4650",
"%% 	c #647179",
"&% 	c #62757C",
"*% 	c #31424A",
"=% 	c #5D6C71",
"-% 	c #7D8B8C",
";% 	c #576363",
">% 	c #3E474C",
",% 	c #7F8D98",
"'% 	c #5E788F",
")% 	c #4B6E8E",
"!% 	c #37638A",
"~% 	c #2C5B85",
"{% 	c #29547E",
"]% 	c #275179",
"^% 	c #2C537C",
"/% 	c #335D87",
"(% 	c #366593",
"_% 	c #3C6E9F",
":% 	c #4276A8",
"<% 	c #3F74A8",
"[% 	c #4175A5",
"}% 	c #3D6AA1",
"|% 	c #37589D",
"1% 	c #2E4D8D",
"2% 	c #22417A",
"3% 	c #1D376A",
"4% 	c #455B8A",
"5% 	c #384B75",
"6% 	c #2A3C60",
"7% 	c #273558",
"8% 	c #0B1838",
"9% 	c #05102C",
"0% 	c #07112A",
"a% 	c #0E162D",
"b% 	c #081023",
"c% 	c #000819",
"d% 	c #232B38",
"e% 	c #565C68",
"f% 	c #383F49",
"g% 	c #455258",
"h% 	c #5B6E75",
"i% 	c #1F425E",
"j% 	c #21455F",
"k% 	c #23405B",
"l% 	c #6B8AA1",
"m% 	c #1B2C3A",
"n% 	c #192B39",
"o% 	c #2A3C48",
"p% 	c #374850",
"q% 	c #405158",
"r% 	c #445356",
"s% 	c #2F3A3C",
"t% 	c #3F464C",
"u% 	c #505D66",
"v% 	c #52687D",
"w% 	c #5E7D9A",
"x% 	c #31577B",
"y% 	c #2F597F",
"z% 	c #21486F",
"A% 	c #2D537A",
"B% 	c #30537B",
"C% 	c #355A86",
"D% 	c #3A6592",
"E% 	c #3C679A",
"F% 	c #3D6CA2",
"G% 	c #3C6BA3",
"H% 	c #3F6CA5",
"I% 	c #4068A5",
"J% 	c #3D60A2",
"K% 	c #345396",
"L% 	c #2D4B89",
"M% 	c #29437C",
"N% 	c #1F3668",
"O% 	c #435A84",
"P% 	c #34466E",
"Q% 	c #364668",
"R% 	c #1E2B4B",
"S% 	c #091430",
"T% 	c #06102B",
"U% 	c #061029",
"V% 	c #0F172C",
"W% 	c #0A1225",
"X% 	c #0A1324",
"Y% 	c #0E1623",
"Z% 	c #474D59",
"`% 	c #3C434B",
" & 	c #3E4B51",
".& 	c #4C5D64",
"+& 	c #0C2E49",
"@& 	c #4F718A",
"#& 	c #163347",
"$& 	c #466375",
"%& 	c #597992",
"&& 	c #1B2C3C",
"*& 	c #273642",
"=& 	c #202C37",
"-& 	c #212F38",
";& 	c #182633",
">& 	c #10202D",
",& 	c #132533",
"'& 	c #243642",
")& 	c #33444E",
"!& 	c #2B3C44",
"~& 	c #223136",
"{& 	c #3B4648",
"]& 	c #41494B",
"^& 	c #3A4348",
"/& 	c #526573",
"(& 	c #678297",
"_& 	c #3B5D78",
":& 	c #2B506D",
"<& 	c #3B607D",
"[& 	c #3B5E7E",
"}& 	c #456687",
"|& 	c #47698E",
"1& 	c #4E739F",
"2& 	c #426A9B",
"3& 	c #426B9F",
"4& 	c #3A639B",
"5& 	c #3D65A0",
"6& 	c #3F63A1",
"7& 	c #2D488B",
"8& 	c #243E7B",
"9& 	c #193268",
"0& 	c #1B3160",
"a& 	c #546A91",
"b& 	c #435377",
"c& 	c #2D3C5B",
"d& 	c #141F3B",
"e& 	c #08122B",
"f& 	c #0B132A",
"g& 	c #0F152B",
"h& 	c #070E21",
"i& 	c #0D1426",
"j& 	c #040B1B",
"k& 	c #262D37",
"l& 	c #3B444B",
"m& 	c #2D3A40",
"n& 	c #4F666E",
"o& 	c #1A3956",
"p& 	c #18384F",
"q& 	c #527589",
"r& 	c #0E273B",
"s& 	c #233D4C",
"t& 	c #638297",
"u& 	c #1F3351",
"v& 	c #283953",
"w& 	c #1F3044",
"x& 	c #202D3D",
"y& 	c #26343F",
"z& 	c #25313D",
"A& 	c #17232F",
"B& 	c #1D2937",
"C& 	c #1E2C39",
"D& 	c #1F2F3E",
"E& 	c #243443",
"F& 	c #2D3D4A",
"G& 	c #2C3D47",
"H& 	c #233239",
"I& 	c #414F52",
"J& 	c #3F4847",
"K& 	c #465051",
"L& 	c #4E5F66",
"M& 	c #768E9A",
"N& 	c #506F81",
"O& 	c #4A6A7F",
"P& 	c #6F8FA6",
"Q& 	c #608099",
"R& 	c #6C8AA6",
"S& 	c #6886A8",
"T& 	c #698BB1",
"U& 	c #5274A2",
"V& 	c #496DA1",
"W& 	c #40639B",
"X& 	c #4567A4",
"Y& 	c #4B6AAA",
"Z& 	c #435FA0",
"`& 	c #405898",
" * 	c #415791",
".* 	c #3C5284",
"+* 	c #394E79",
"@* 	c #64769A",
"#* 	c #445372",
"$* 	c #15233E",
"%* 	c #000B21",
"&* 	c #091126",
"** 	c #0D152A",
"=* 	c #0F1629",
"-* 	c #040B1D",
";* 	c #091022",
">* 	c #010916",
",* 	c #131A24",
"'* 	c #454E53",
")* 	c #2F4145",
"!* 	c #41545D",
"~* 	c #14314D",
"{* 	c #0A293E",
"]* 	c #3F6073",
"^* 	c #152A3B",
"/* 	c #1C323F",
"(* 	c #6C879B",
"_* 	c #133153",
":* 	c #182D4C",
"<* 	c #172842",
"[* 	c #24344B",
"}* 	c #1A293C",
"|* 	c #1E2A36",
"1* 	c #1F2935",
"2* 	c #0F1B27",
"3* 	c #1A2634",
"4* 	c #1B2936",
"5* 	c #1D2A3A",
"6* 	c #213140",
"7* 	c #233342",
"8* 	c #394956",
"9* 	c #3C4D57",
"0* 	c #3A474D",
"a* 	c #454E4D",
"b* 	c #343E3D",
"c* 	c #2D3C3F",
"d* 	c #8CA0A7",
"e* 	c #5B7681",
"f* 	c #6F8C9A",
"g* 	c #7A97A7",
"h* 	c #7894A9",
"i* 	c #718DA5",
"j* 	c #6B86A4",
"k* 	c #6280A4",
"l* 	c #496894",
"m* 	c #3B598D",
"n* 	c #3F5E97",
"o* 	c #4B69A7",
"p* 	c #5C78B7",
"q* 	c #6378B9",
"r* 	c #5165A2",
"s* 	c #54689D",
"t* 	c #596B99",
"u* 	c #46587E",
"v* 	c #505F80",
"w* 	c #33415C",
"x* 	c #08142A",
"y* 	c #020D21",
"z* 	c #050D20",
"A* 	c #0D1427",
"B* 	c #0F1628",
"C* 	c #12172A",
"D* 	c #0C1222",
"E* 	c #0B1121",
"F* 	c #090F1D",
"G* 	c #050C16",
"H* 	c #283136",
"I* 	c #3E494B",
"J* 	c #2E4042",
"K* 	c #394D53",
"L* 	c #1A354F",
"M* 	c #163345",
"N* 	c #3C596A",
"O* 	c #081A28",
"P* 	c #2D414C",
"Q* 	c #516B81",
"R* 	c #002046",
"S* 	c #051E3C",
"T* 	c #22334F",
"U* 	c #18273E",
"V* 	c #1E2D40",
"W* 	c #253243",
"X* 	c #212D3B",
"Y* 	c #202C38",
"Z* 	c #212B37",
"`* 	c #232D39",
" = 	c #263240",
".= 	c #212D3D",
"+= 	c #283545",
"@= 	c #162635",
"#= 	c #354554",
"$= 	c #4A5A67",
"%= 	c #2A3841",
"&= 	c #424C4E",
"*= 	c #353F40",
"== 	c #334245",
"-= 	c #4D6066",
";= 	c #758C94",
">= 	c #6E8692",
",= 	c #4F6978",
"'= 	c #526D80",
")= 	c #4F6781",
"!= 	c #536C8A",
"~= 	c #556D93",
"{= 	c #4A628E",
"]= 	c #354C80",
"^= 	c #374F8B",
"/= 	c #304989",
"(= 	c #3E5696",
"_= 	c #465994",
":= 	c #25366C",
"<= 	c #1C2C5D",
"[= 	c #213059",
"}= 	c #142344",
"|= 	c #24324D",
"1= 	c #253147",
"2= 	c #061123",
"3= 	c #040D1E",
"4= 	c #081120",
"5= 	c #0B1222",
"6= 	c #091020",
"7= 	c #0D1321",
"8= 	c #0B111F",
"9= 	c #050B19",
"0= 	c #070D19",
"a= 	c #040B13",
"b= 	c #091315",
"c= 	c #505C5C",
"d= 	c #839393",
"e= 	c #7D9094",
"f= 	c #1B3544",
"g= 	c #1F3946",
"h= 	c #203143",
"i= 	c #01121C",
"j= 	c #697B87",
"k= 	c #3F566C",
"l= 	c #173A5E",
"m= 	c #1B3452",
"n= 	c #172B44",
"o= 	c #122239",
"p= 	c #263346",
"q= 	c #273445",
"r= 	c #1A2636",
"s= 	c #1E2A38",
"t= 	c #232F3B",
"u= 	c #1E2834",
"v= 	c #242D3C",
"w= 	c #1F2B39",
"x= 	c #1D2939",
"y= 	c #2B3849",
"z= 	c #1F2F3F",
"A= 	c #263646",
"B= 	c #485A68",
"C= 	c #374754",
"D= 	c #39464F",
"E= 	c #37444C",
"F= 	c #394750",
"G= 	c #44555F",
"H= 	c #4A5C68",
"I= 	c #2C4250",
"J= 	c #233A4C",
"K= 	c #334C62",
"L= 	c #3A4F6C",
"M= 	c #314568",
"N= 	c #384B73",
"O= 	c #394E7D",
"P= 	c #34477F",
"Q= 	c #2B3F7C",
"R= 	c #3B5093",
"S= 	c #384B8D",
"T= 	c #425188",
"U= 	c #263463",
"V= 	c #202D57",
"W= 	c #1D2C4D",
"X= 	c #212F4A",
"Y= 	c #3C495C",
"Z= 	c #313D4D",
"`= 	c #000915",
" - 	c #040E18",
".- 	c #060E19",
"+- 	c #0B111D",
"@- 	c #101622",
"#- 	c #080E1A",
"$- 	c #050915",
"%- 	c #020611",
"&- 	c #02090F",
"*- 	c #000608",
"=- 	c #717D7B",
"-- 	c #576565",
";- 	c #4C5E60",
">- 	c #B4C7D1",
",- 	c #2D4551",
"'- 	c #253D47",
")- 	c #3C5360",
"!- 	c #152838",
"~- 	c #0F1D2A",
"{- 	c #54616A",
"]- 	c #6C7C89",
"^- 	c #0D2644",
"/- 	c #162A42",
"(- 	c #213045",
"_- 	c #2E3B4E",
":- 	c #1F2A3C",
"<- 	c #283444",
"[- 	c #222E3C",
"}- 	c #2A3642",
"|- 	c #242E3A",
"1- 	c #1A2332",
"2- 	c #202938",
"3- 	c #20293A",
"4- 	c #283345",
"5- 	c #243142",
"6- 	c #203141",
"7- 	c #334655",
"8- 	c #334454",
"9- 	c #2B3B48",
"0- 	c #4F5D68",
"a- 	c #526069",
"b- 	c #798790",
"c- 	c #677882",
"d- 	c #4D5F6D",
"e- 	c #495E6F",
"f- 	c #384E65",
"g- 	c #3D516C",
"h- 	c #3A4D6D",
"i- 	c #354569",
"j- 	c #34436E",
"k- 	c #364377",
"l- 	c #2E3D76",
"m- 	c #334381",
"n- 	c #354580",
"o- 	c #283464",
"p- 	c #1A264C",
"q- 	c #101B3B",
"r- 	c #101C36",
"s- 	c #152235",
"t- 	c #1C2836",
"u- 	c #151F29",
"v- 	c #000912",
"w- 	c #060F16",
"x- 	c #00030A",
"y- 	c #091018",
"z- 	c #0A1119",
"A- 	c #080F17",
"B- 	c #12161F",
"C- 	c #1E2329",
"D- 	c #1C2427",
"E- 	c #081012",
"F- 	c #394440",
"G- 	c #404C48",
"H- 	c #586868",
"I- 	c #BBCED4",
"J- 	c #233944",
"K- 	c #152A2F",
"L- 	c #2E4249",
"M- 	c #3B515C",
"N- 	c #465D6F",
"O- 	c #29454E",
"P- 	c #294046",
"Q- 	c #425059",
"R- 	c #69737C",
"S- 	c #4D585E",
"T- 	c #2C3A45",
"U- 	c #062240",
"V- 	c #06182E",
"W- 	c #101F32",
"X- 	c #1F2B3B",
"Y- 	c #2B3745",
"Z- 	c #232C3B",
"`- 	c #171E2E",
" ; 	c #1A2131",
".; 	c #171E30",
"+; 	c #1E2738",
"@; 	c #283949",
"#; 	c #273A4B",
"$; 	c #20323E",
"%; 	c #42535B",
"&; 	c #39484F",
"*; 	c #424F55",
"=; 	c #7D8C91",
"-; 	c #4A5B63",
";; 	c #354954",
">; 	c #2F4455",
",; 	c #22344A",
"'; 	c #1F3149",
"); 	c #22304B",
"!; 	c #2B3656",
"~; 	c #212A51",
"{; 	c #222E58",
"]; 	c #2A3869",
"^; 	c #253161",
"/; 	c #303A5E",
"(; 	c #3E4764",
"_; 	c #273248",
":; 	c #3E4A56",
"<; 	c #57616A",
"[; 	c #586367",
"}; 	c #4B5557",
"|; 	c #5B6366",
"1; 	c #71797C",
"2; 	c #5C6369",
"3; 	c #4C5359",
"4; 	c #899096",
"5; 	c #798086",
"6; 	c #5A6265",
"7; 	c #9CA4A7",
"8; 	c #73787B",
"9; 	c #586160",
"0; 	c #747D78",
"a; 	c #65706A",
"b; 	c #4E5C5C",
"c; 	c #9BADB1",
"d; 	c #2C455A",
"e; 	c #364A53",
"f; 	c #1B2D2F",
"g; 	c #1A2C2E",
"h; 	c #24353C",
"i; 	c #3D4D5A",
"j; 	c #495B68",
"k; 	c #3C4F52",
"l; 	c #748686",
"m; 	c #677276",
"n; 	c #464D53",
"o; 	c #081214",
"p; 	c #132029",
"q; 	c #001630",
"r; 	c #0A1A2A",
"s; 	c #101C2C",
"t; 	c #172331",
"u; 	c #212A39",
"v; 	c #2D3645",
"w; 	c #2F3B49",
"x; 	c #273341",
"y; 	c #161F2E",
"z; 	c #1B2433",
"A; 	c #192030",
"B; 	c #1F2636",
"C; 	c #252C3E",
"D; 	c #212A3B",
"E; 	c #213244",
"F; 	c #233549",
"G; 	c #485D6E",
"H; 	c #435762",
"I; 	c #46595F",
"J; 	c #3A484B",
"K; 	c #4F5B5B",
"L; 	c #9CA8A8",
"M; 	c #445253",
"N; 	c #546670",
"O; 	c #3A4C58",
"P; 	c #556574",
"Q; 	c #566272",
"R; 	c #60687B",
"S; 	c #666C84",
"T; 	c #666D89",
"U; 	c #616B8E",
"V; 	c #6F7A9A",
"W; 	c #787F99",
"X; 	c #7F8899",
"Y; 	c #4F5666",
"Z; 	c #3D4751",
"`; 	c #626B72",
" > 	c #778183",
".> 	c #697374",
"+> 	c #485251",
"@> 	c #707978",
"#> 	c #5D6567",
"$> 	c #5E6668",
"%> 	c #687072",
"&> 	c #525A5C",
"*> 	c #485150",
"=> 	c #57605F",
"-> 	c #565B5E",
";> 	c #494F4F",
">> 	c #6A736E",
",> 	c #656F67",
"'> 	c #778381",
")> 	c #ADBDC2",
"!> 	c #23405E",
"~> 	c #20364B",
"{> 	c #2E4148",
"]> 	c #152525",
"^> 	c #182424",
"/> 	c #1D282A",
"(> 	c #1C262F",
"_> 	c #151F28",
":> 	c #263133",
"<> 	c #162220",
"[> 	c #12171A",
"}> 	c #1A1F22",
"|> 	c #121B1A",
"1> 	c #000C12",
"2> 	c #061A32",
"3> 	c #111D2B",
"4> 	c #131F2D",
"5> 	c #111D29",
"6> 	c #1D2935",
"7> 	c #16222E",
"8> 	c #101E2B",
"9> 	c #101928",
"0> 	c #141A2A",
"a> 	c #1B2234",
"b> 	c #121B2C",
"c> 	c #111C2E",
"d> 	c #122134",
"e> 	c #182A3E",
"f> 	c #455B69",
"g> 	c #384F57",
"h> 	c #4B5F60",
"i> 	c #4F5E5B",
"j> 	c #424D45",
"k> 	c #818B83",
"l> 	c #78837D",
"m> 	c #5C6C6B",
"n> 	c #3A4C4C",
"o> 	c #2A3C3E",
"p> 	c #324043",
"q> 	c #374143",
"r> 	c #3F4448",
"s> 	c #2D3037",
"t> 	c #2B2F3A",
"u> 	c #2C3343",
"v> 	c #262F3E",
"w> 	c #28303B",
"x> 	c #303940",
"y> 	c #272E34",
"z> 	c #364042",
"A> 	c #414A49",
"B> 	c #333C39",
"C> 	c #404946",
"D> 	c #535C59",
"E> 	c #47504D",
"F> 	c #3A4342",
"G> 	c #495251",
"H> 	c #4F5857",
"I> 	c #3B4441",
"J> 	c #48514C",
"K> 	c #434C49",
"L> 	c #4C5252",
"M> 	c #5D645D",
"N> 	c #475148",
"O> 	c #56615D",
"P> 	c #C9D7DA",
"Q> 	c #13304E",
"R> 	c #1C3247",
"S> 	c #394A51",
"T> 	c #1D2929",
"U> 	c #1B2421",
"V> 	c #262C2C",
"W> 	c #23282C",
"X> 	c #1A2322",
"Y> 	c #1F2523",
"Z> 	c #242527",
"`> 	c #151716",
" , 	c #1A201E",
"., 	c #0F1D20",
"+, 	c #0D1F33",
"@, 	c #131D29",
"#, 	c #121E2A",
"$, 	c #1B252F",
"%, 	c #1E2832",
"&, 	c #14202C",
"*, 	c #172530",
"=, 	c #14222F",
"-, 	c #1F2837",
";, 	c #202737",
">, 	c #101626",
",, 	c #131A2C",
"', 	c #111A2B",
"), 	c #1B2638",
"!, 	c #263548",
"~, 	c #2B3D51",
"{, 	c #506674",
"], 	c #2E454D",
"^, 	c #3F5354",
"/, 	c #45514D",
"(, 	c #4B554C",
"_, 	c #535B50",
":, 	c #323C33",
"<, 	c #2D3935",
"[, 	c #1F2D2D",
"}, 	c #1D2B2B",
"|, 	c #25312F",
"1, 	c #1D231F",
"2, 	c #21231E",
"3, 	c #2A2927",
"4, 	c #2A2A2A",
"5, 	c #272C30",
"6, 	c #2B3238",
"7, 	c #1F2729",
"8, 	c #353E3D",
"9, 	c #2D3631",
"0, 	c #343D38",
"a, 	c #434D45",
"b, 	c #4E5850",
"c, 	c #414A45",
"d, 	c #3E4742",
"e, 	c #3E4744",
"f, 	c #555E5B",
"g, 	c #4D5653",
"h, 	c #434C47",
"i, 	c #505A52",
"j, 	c #454F47",
"k, 	c #4F5555",
"l, 	c #3A403E",
"m, 	c #484F47",
"n, 	c #727971",
"o, 	c #4C5550",
"p, 	c #BDC8CA",
"q, 	c #1B3A59",
"r, 	c #192F44",
"s, 	c #2E3F46",
"t, 	c #131D1C",
"u, 	c #1B211D",
"v, 	c #262B27",
"w, 	c #1D1E20",
"x, 	c #1B1C20",
"y, 	c #161A1B",
"z, 	c #141517",
"A, 	c #181818",
"B, 	c #222222",
"C, 	c #151C15",
"D, 	c #0A1818",
"E, 	c #0E1F33",
"F, 	c #0D1925",
"G, 	c #121C26",
"H, 	c #202A34",
"I, 	c #15212D",
"J, 	c #111F2A",
"K, 	c #0E1C29",
"L, 	c #0C1826",
"M, 	c #101727",
"N, 	c #131929",
"O, 	c #1E2434",
"P, 	c #1C2335",
"Q, 	c #242F41",
"R, 	c #273649",
"S, 	c #2C4154",
"T, 	c #5A7181",
"U, 	c #546A77",
"V, 	c #65787E",
"W, 	c #5C6868",
"X, 	c #3C423E",
"Y, 	c #666962",
"Z, 	c #424741",
"`, 	c #202928",
" ' 	c #2B3638",
".' 	c #1E292B",
"+' 	c #181A15",
"@' 	c #23221D",
"#' 	c #29241E",
"$' 	c #2E2A27",
"%' 	c #3A3C3B",
"&' 	c #313536",
"*' 	c #2D332F",
"=' 	c #303730",
"-' 	c #323932",
";' 	c #343B33",
">' 	c #343E35",
",' 	c #353F36",
"'' 	c #3D473E",
")' 	c #48524A",
"!' 	c #363F3A",
"~' 	c #3C4540",
"{' 	c #323B36",
"]' 	c #404944",
"^' 	c #424B46",
"/' 	c #49534B",
"(' 	c #444E43",
"_' 	c #39433A",
":' 	c #3D4341",
"<' 	c #414544",
"[' 	c #2C312A",
"}' 	c #545B53",
"|' 	c #535D55",
"1' 	c #C4CFD1",
"2' 	c #163554",
"3' 	c #142D43",
"4' 	c #344650",
"5' 	c #1A2829",
"6' 	c #17201D",
"7' 	c #111612",
"8' 	c #040605",
"9' 	c #141414",
"0' 	c #0E100F",
"a' 	c #151314",
"b' 	c #0C0C0A",
"c' 	c #080E0A",
"d' 	c #233131",
"e' 	c #0A1A33",
"f' 	c #151E2D",
"g' 	c #0E1726",
"h' 	c #141E2A",
"i' 	c #202833",
"j' 	c #19232C",
"k' 	c #18252E",
"l' 	c #101D26",
"m' 	c #1F2B37",
"n' 	c #192231",
"o' 	c #131A2A",
"p' 	c #1E2537",
"q' 	c #242B3D",
"r' 	c #222B3C",
"s' 	c #2E3B4C",
"t' 	c #29384B",
"u' 	c #4D6273",
"v' 	c #4E616F",
"w' 	c #64757C",
"x' 	c #556161",
"y' 	c #393F3B",
"z' 	c #595B56",
"A' 	c #474C46",
"B' 	c #37403D",
"C' 	c #1D2728",
"D' 	c #141E1F",
"E' 	c #0F1515",
"F' 	c #2C2924",
"G' 	c #2B2823",
"H' 	c #373735",
"I' 	c #313632",
"J' 	c #252A24",
"K' 	c #363D35",
"L' 	c #3C433B",
"M' 	c #2D342C",
"N' 	c #29332A",
"O' 	c #2F3930",
"P' 	c #2F3931",
"Q' 	c #353F37",
"R' 	c #353E39",
"S' 	c #38413C",
"T' 	c #3A433E",
"U' 	c #353C34",
"V' 	c #2E332F",
"W' 	c #3F4440",
"X' 	c #333831",
"Y' 	c #2E352D",
"Z' 	c #2C3530",
"`' 	c #9AA5A7",
" ) 	c #1D405C",
".) 	c #1B3A4F",
"+) 	c #2F4654",
"@) 	c #1C2F36",
"#) 	c #122021",
"$) 	c #141D1C",
"%) 	c #1D1F1C",
"&) 	c #262624",
"*) 	c #292927",
"=) 	c #2B2B29",
"-) 	c #292B28",
";) 	c #232726",
">) 	c #252E2D",
",) 	c #34454D",
"') 	c #283D4A",
")) 	c #00112F",
"!) 	c #101B31",
"~) 	c #15182B",
"{) 	c #181B2A",
"]) 	c #1A222D",
"^) 	c #111B24",
"/) 	c #1D262F",
"() 	c #1E2730",
"_) 	c #1B242D",
":) 	c #161E29",
"<) 	c #1C2431",
"[) 	c #273041",
"}) 	c #1D283A",
"|) 	c #192639",
"1) 	c #1B2A3D",
"2) 	c #2A394C",
"3) 	c #2A3B4F",
"4) 	c #213246",
"5) 	c #2F4048",
"6) 	c #596565",
"7) 	c #2B3632",
"8) 	c #4D534F",
"9) 	c #686F68",
"0) 	c #434A43",
"a) 	c #2F3833",
"b) 	c #2A332E",
"c) 	c #1E2722",
"d) 	c #202622",
"e) 	c #252A26",
"f) 	c #373936",
"g) 	c #292B2A",
"h) 	c #4A4C4B",
"i) 	c #393D3C",
"j) 	c #20251F",
"k) 	c #293028",
"l) 	c #2C332B",
"m) 	c #2B322B",
"n) 	c #29332B",
"o) 	c #3A4340",
"p) 	c #3F4541",
"q) 	c #3E4440",
"r) 	c #333A33",
"s) 	c #373E36",
"t) 	c #3C413A",
"u) 	c #383F37",
"v) 	c #8D938F",
"w) 	c #626E74",
"x) 	c #24445D",
"y) 	c #1A364B",
"z) 	c #2D4756",
"A) 	c #20343D",
"B) 	c #121F25",
"C) 	c #151D1F",
"D) 	c #1D1F1E",
"E) 	c #1C1C1A",
"F) 	c #1B1B19",
"G) 	c #1C1E1D",
"H) 	c #1E2221",
"I) 	c #1F2525",
"J) 	c #20282B",
"K) 	c #222B30",
"L) 	c #15222A",
"M) 	c #021019",
"N) 	c #041622",
"O) 	c #071B2A",
"P) 	c #132A39",
"Q) 	c #1E374A",
"R) 	c #061B38",
"S) 	c #0F1B33",
"T) 	c #1E2336",
"U) 	c #111521",
"V) 	c #1D2731",
"W) 	c #1A232C",
"X) 	c #151C26",
"Y) 	c #0F1620",
"Z) 	c #121923",
"`) 	c #181E2A",
" ! 	c #1F2734",
".! 	c #253141",
"+! 	c #1E2B3C",
"@! 	c #1D2E42",
"#! 	c #293A4E",
"$! 	c #2A3B4D",
"%! 	c #263749",
"&! 	c #384A58",
"*! 	c #37484F",
"=! 	c #384646",
"-! 	c #616A65",
";! 	c #727972",
">! 	c #262D26",
",! 	c #424941",
"'! 	c #3E4840",
")! 	c #3D4641",
"!! 	c #4C5552",
"~! 	c #1C2522",
"{! 	c #2D3132",
"]! 	c #2E3233",
"^! 	c #353638",
"/! 	c #363837",
"(! 	c #1A241C",
"_! 	c #282F28",
":! 	c #27302B",
"<! 	c #313A37",
"[! 	c #323B38",
"}! 	c #2F3835",
"|! 	c #2B312D",
"1! 	c #272E27",
"2! 	c #2D342D",
"3! 	c #3B423B",
"4! 	c #252A23",
"5! 	c #383E34",
"6! 	c #262B25",
"7! 	c #B4BAB6",
"8! 	c #7F898A",
"9! 	c #67747C",
"0! 	c #243E57",
"a! 	c #2A445B",
"b! 	c #243D51",
"c! 	c #112838",
"d! 	c #213540",
"e! 	c #192A32",
"f! 	c #0E191F",
"g! 	c #1B2024",
"h! 	c #2A2B2F",
"i! 	c #252429",
"j! 	c #242328",
"k! 	c #1B1C21",
"l! 	c #13161B",
"m! 	c #0F1217",
"n! 	c #11161C",
"o! 	c #181F25",
"p! 	c #1C252C",
"q! 	c #18222B",
"r! 	c #0A1821",
"s! 	c #0D1E28",
"t! 	c #1B2B38",
"u! 	c #253745",
"v! 	c #213443",
"w! 	c #1A2D3E",
"x! 	c #13283B",
"y! 	c #0F233B",
"z! 	c #283654",
"A! 	c #0B263B",
"B! 	c #192E3F",
"C! 	c #0B1924",
"D! 	c #1C2932",
"E! 	c #192533",
"F! 	c #121C28",
"G! 	c #121A25",
"H! 	c #131925",
"I! 	c #191F2B",
"J! 	c #232B36",
"K! 	c #232F3F",
"L! 	c #1E2E3E",
"M! 	c #1D2E40",
"N! 	c #203344",
"O! 	c #2A3D4E",
"P! 	c #2E4150",
"Q! 	c #344555",
"R! 	c #495B67",
"S! 	c #5D6E76",
"T! 	c #79888D",
"U! 	c #505E5F",
"V! 	c #374341",
"W! 	c #444D4A",
"X! 	c #2C332C",
"Y! 	c #39423F",
"Z! 	c #343839",
"`! 	c #424443",
" ~ 	c #2A2C2B",
".~ 	c #232925",
"+~ 	c #27322C",
"@~ 	c #212A25",
"#~ 	c #222B26",
"$~ 	c #29322D",
"%~ 	c #2C3230",
"&~ 	c #2D3331",
"*~ 	c #282E2A",
"=~ 	c #313733",
"-~ 	c #323834",
";~ 	c #2A302C",
">~ 	c #232824",
",~ 	c #2D322E",
"'~ 	c #3C413B",
")~ 	c #343932",
"!~ 	c #292C25",
"~~ 	c #2C3228",
"{~ 	c #2D322C",
"]~ 	c #616763",
"^~ 	c #364249",
"/~ 	c #3F87A5",
"(~ 	c #2E89A8",
"_~ 	c #2795B2",
":~ 	c #37ADC9",
"<~ 	c #2FA5C1",
"[~ 	c #1E91AB",
"}~ 	c #254A5C",
"|~ 	c #28475B",
"1~ 	c #253F50",
"2~ 	c #243B4B",
"3~ 	c #182B39",
"4~ 	c #21333D",
"5~ 	c #1E2C35",
"6~ 	c #192229",
"7~ 	c #1D212A",
"8~ 	c #171A23",
"9~ 	c #191D26",
"0~ 	c #1E222B",
"a~ 	c #1D242A",
"b~ 	c #1A1F25",
"c~ 	c #141B21",
"d~ 	c #131A20",
"e~ 	c #101920",
"f~ 	c #212E37",
"g~ 	c #202E3B",
"h~ 	c #1E2E3B",
"i~ 	c #2A3748",
"j~ 	c #20263C",
"k~ 	c #232941",
"l~ 	c #1E2841",
"m~ 	c #16263F",
"n~ 	c #182C45",
"o~ 	c #1F3A54",
"p~ 	c #102A3B",
"q~ 	c #182E3B",
"r~ 	c #162731",
"s~ 	c #101E29",
"t~ 	c #1C2939",
"u~ 	c #192636",
"v~ 	c #19232F",
"w~ 	c #212936",
"x~ 	c #272F3C",
"y~ 	c #313B47",
"z~ 	c #222F40",
"A~ 	c #1D3041",
"B~ 	c #1F3243",
"C~ 	c #253847",
"D~ 	c #293C4A",
"E~ 	c #334553",
"F~ 	c #455763",
"G~ 	c #5E7178",
"H~ 	c #63747B",
"I~ 	c #778689",
"J~ 	c #3B4949",
"K~ 	c #434E4A",
"L~ 	c #394039",
"M~ 	c #454E49",
"N~ 	c #58615E",
"O~ 	c #4D5152",
"P~ 	c #363A3B",
"Q~ 	c #202423",
"R~ 	c #333E38",
"S~ 	c #35403A",
"T~ 	c #212C26",
"U~ 	c #202924",
"V~ 	c #232927",
"W~ 	c #272D29",
"X~ 	c #292E2A",
"Y~ 	c #2F3430",
"Z~ 	c #333834",
"`~ 	c #353A36",
" { 	c #2F342E",
".{ 	c #171C16",
"+{ 	c #282B24",
"@{ 	c #2A2D24",
"#{ 	c #2E302B",
"${ 	c #717773",
"%{ 	c #ABB5B6",
"&{ 	c #9DAFBD",
"*{ 	c #394962",
"={ 	c #19324B",
"-{ 	c #264E67",
";{ 	c #32748A",
">{ 	c #51B4C7",
",{ 	c #59DBEB",
"'{ 	c #45E2F1",
"){ 	c #41EDFB",
"!{ 	c #42EDFE",
"~{ 	c #41E8FA",
"{{ 	c #33CEE4",
"]{ 	c #2EBBCF",
"^{ 	c #22A0AC",
"/{ 	c #0C7F86",
"({ 	c #1A818A",
"_{ 	c #146C78",
":{ 	c #0E5765",
"<{ 	c #195361",
"[{ 	c #265161",
"}{ 	c #305160",
"|{ 	c #2F4958",
"1{ 	c #2F4250",
"2{ 	c #2B3D49",
"3{ 	c #263741",
"4{ 	c #21313E",
"5{ 	c #212F3A",
"6{ 	c #1A2833",
"7{ 	c #1B2733",
"8{ 	c #16242D",
"9{ 	c #142129",
"0{ 	c #17242C",
"a{ 	c #1B262C",
"b{ 	c #192227",
"c{ 	c #1B2228",
"d{ 	c #24292F",
"e{ 	c #292E34",
"f{ 	c #23282E",
"g{ 	c #192026",
"h{ 	c #182128",
"i{ 	c #17242D",
"j{ 	c #13212A",
"k{ 	c #11222C",
"l{ 	c #14222D",
"m{ 	c #272D3B",
"n{ 	c #253545",
"o{ 	c #203546",
"p{ 	c #1C3647",
"q{ 	c #1A3749",
"r{ 	c #193648",
"s{ 	c #223F4F",
"t{ 	c #223E4C",
"u{ 	c #183140",
"v{ 	c #192738",
"w{ 	c #0D1A2A",
"x{ 	c #131F2F",
"y{ 	c #111D2D",
"z{ 	c #253447",
"A{ 	c #1D2A3B",
"B{ 	c #202C3C",
"C{ 	c #24303E",
"D{ 	c #273444",
"E{ 	c #2C3C4C",
"F{ 	c #2B3C4E",
"G{ 	c #283B4C",
"H{ 	c #263B4C",
"I{ 	c #283B4A",
"J{ 	c #253846",
"K{ 	c #677983",
"L{ 	c #2F4249",
"M{ 	c #3C4B50",
"N{ 	c #333D3C",
"O{ 	c #4B5650",
"P{ 	c #3F4843",
"Q{ 	c #5D6663",
"R{ 	c #59625F",
"S{ 	c #5A5E5D",
"T{ 	c #434746",
"U{ 	c #2E3231",
"V{ 	c #2D3834",
"W{ 	c #26322E",
"X{ 	c #35413D",
"Y{ 	c #28312E",
"Z{ 	c #222B28",
"`{ 	c #343935",
" ] 	c #282D29",
".] 	c #2A2C29",
"+] 	c #3D3F3C",
"@] 	c #40423F",
"#] 	c #363835",
"$] 	c #2B302C",
"%] 	c #1E201B",
"&] 	c #2D2E28",
"*] 	c #37372F",
"=] 	c #C0C5C1",
"-] 	c #D5DFE0",
";] 	c #849398",
">] 	c #C1D5E1",
",] 	c #1D2C43",
"'] 	c #21374E",
")] 	c #3C6579",
"!] 	c #216978",
"~] 	c #2E9CA9",
"{] 	c #54E7EF",
"]] 	c #37EAEF",
"^] 	c #23E8EE",
"/] 	c #29F4FB",
"(] 	c #2DF6FF",
"_] 	c #28E6F4",
":] 	c #38ECFA",
"<] 	c #2FD8DF",
"[] 	c #2AC9CD",
"}] 	c #2EC1C8",
"|] 	c #22A7AE",
"1] 	c #1D8F99",
"2] 	c #066871",
"3] 	c #00525D",
"4] 	c #175B66",
"5] 	c #225B66",
"6] 	c #285663",
"7] 	c #224855",
"8] 	c #22424F",
"9] 	c #213848",
"0] 	c #162B3E",
"a] 	c #1C2D3D",
"b] 	c #192936",
"c] 	c #14222B",
"d] 	c #111F28",
"e] 	c #121F27",
"f] 	c #111C22",
"g] 	c #111A1F",
"h] 	c #151A1E",
"i] 	c #13181C",
"j] 	c #1E2327",
"k] 	c #191E22",
"l] 	c #1A2127",
"m] 	c #1F282F",
"n] 	c #1F2932",
"o] 	c #1D2A33",
"p] 	c #19262F",
"q] 	c #151E25",
"r] 	c #141D24",
"s] 	c #14252F",
"t] 	c #142735",
"u] 	c #162C3A",
"v] 	c #1C3341",
"w] 	c #263C4A",
"x] 	c #142632",
"y] 	c #2A3A47",
"z] 	c #253642",
"A] 	c #273949",
"B] 	c #06182C",
"C] 	c #112337",
"D] 	c #26384C",
"E] 	c #233343",
"F] 	c #1E2B3B",
"G] 	c #2A3F50",
"H] 	c #293C4B",
"I] 	c #243745",
"J] 	c #2B3D47",
"K] 	c #5D717C",
"L] 	c #687C85",
"M] 	c #586970",
"N] 	c #3E4D50",
"O] 	c #344040",
"P] 	c #3A4541",
"Q] 	c #313A35",
"R] 	c #606966",
"S] 	c #4C504F",
"T] 	c #404443",
"U] 	c #252B29",
"V] 	c #2A3531",
"W] 	c #273631",
"X] 	c #313D39",
"Y] 	c #3B4642",
"Z] 	c #323836",
"`] 	c #2A2F2B",
" ^ 	c #262825",
".^ 	c #272926",
"+^ 	c #2B2D2A",
"@^ 	c #242623",
"#^ 	c #222421",
"$^ 	c #242621",
"%^ 	c #1C1B16",
"&^ 	c #2A2924",
"*^ 	c #23241F",
"=^ 	c #969B97",
"-^ 	c #DEE8E7",
";^ 	c #78878A",
">^ 	c #C6DAE5",
",^ 	c #18273C",
"'^ 	c #364B5E",
")^ 	c #4B7281",
"!^ 	c #2B6D79",
"~^ 	c #339BA4",
"{^ 	c #4CD7DC",
"]^ 	c #34E1E5",
"^^ 	c #31F4F6",
"/^ 	c #29F9FD",
"(^ 	c #22F5FC",
"_^ 	c #1DEEF5",
":^ 	c #2DF9FF",
"<^ 	c #35FFFF",
"[^ 	c #32FCFF",
"}^ 	c #2EEFF4",
"|^ 	c #2DE6E9",
"1^ 	c #41EEF2",
"2^ 	c #32D4D7",
"3^ 	c #19ADB1",
"4^ 	c #0F9598",
"5^ 	c #00696D",
"6^ 	c #006069",
"7^ 	c #01535E",
"8^ 	c #135563",
"9^ 	c #1D4D61",
"0^ 	c #25495F",
"a^ 	c #243E59",
"b^ 	c #283A52",
"c^ 	c #1F2933",
"d^ 	c #172027",
"e^ 	c #182126",
"f^ 	c #1B2527",
"g^ 	c #192325",
"h^ 	c #121C1E",
"i^ 	c #0D1719",
"j^ 	c #0C151A",
"k^ 	c #0D161D",
"l^ 	c #101823",
"m^ 	c #171F2C",
"n^ 	c #2C353A",
"o^ 	c #263135",
"p^ 	c #1D2C33",
"q^ 	c #152630",
"r^ 	c #0F212F",
"s^ 	c #0C1E2C",
"t^ 	c #10202F",
"u^ 	c #162333",
"v^ 	c #1C2834",
"w^ 	c #222F38",
"x^ 	c #28363F",
"y^ 	c #132732",
"z^ 	c #194054",
"A^ 	c #02273A",
"B^ 	c #233C50",
"C^ 	c #1F3241",
"D^ 	c #1F3040",
"E^ 	c #2C3F50",
"F^ 	c #2F4457",
"G^ 	c #344B5D",
"H^ 	c #324758",
"I^ 	c #324554",
"J^ 	c #3E505E",
"K^ 	c #3E525D",
"L^ 	c #526875",
"M^ 	c #586E79",
"N^ 	c #92A5AC",
"O^ 	c #617075",
"P^ 	c #374244",
"Q^ 	c #3C4645",
"R^ 	c #38413E",
"S^ 	c #27302D",
"T^ 	c #252E2B",
"U^ 	c #3F4845",
"V^ 	c #4E5251",
"W^ 	c #3B3F3E",
"X^ 	c #373D39",
"Y^ 	c #212C28",
"Z^ 	c #31403B",
"`^ 	c #2E3A36",
" / 	c #323D39",
"./ 	c #3E4442",
"+/ 	c #2E302D",
"@/ 	c #2C2C2A",
"#/ 	c #272725",
"$/ 	c #21221D",
"%/ 	c #25221D",
"&/ 	c #33302B",
"*/ 	c #252420",
"=/ 	c #C4CECD",
"-/ 	c #A5B5B5",
";/ 	c #C7DAE3",
">/ 	c #31475D",
",/ 	c #132436",
"'/ 	c #536977",
")/ 	c #4E6F7E",
"!/ 	c #1F5561",
"~/ 	c #2F838E",
"{/ 	c #23939E",
"]/ 	c #129FA8",
"^/ 	c #29CDD6",
"// 	c #23D8E1",
"(/ 	c #31EDF6",
"_/ 	c #37F8FF",
":/ 	c #27EDF6",
"</ 	c #21F2F9",
"[/ 	c #1FF4FA",
"}/ 	c #21F6FA",
"|/ 	c #20F4F7",
"1/ 	c #25F5F7",
"2/ 	c #27F1F1",
"3/ 	c #36F6F7",
"4/ 	c #37EBEC",
"5/ 	c #29CED0",
"6/ 	c #1AADB4",
"7/ 	c #06858E",
"8/ 	c #056F7D",
"9/ 	c #005165",
"0/ 	c #094D64",
"a/ 	c #124A65",
"b/ 	c #18425B",
"c/ 	c #254254",
"d/ 	c #233946",
"e/ 	c #1E323D",
"f/ 	c #122029",
"g/ 	c #111E26",
"h/ 	c #111A21",
"i/ 	c #131C23",
"j/ 	c #192028",
"k/ 	c #1A212B",
"l/ 	c #161C28",
"m/ 	c #141C29",
"n/ 	c #111828",
"o/ 	c #0A1420",
"p/ 	c #0E191D",
"q/ 	c #132122",
"r/ 	c #24353F",
"s/ 	c #273744",
"t/ 	c #253544",
"u/ 	c #18212A",
"v/ 	c #1F2831",
"w/ 	c #101F26",
"x/ 	c #142B33",
"y/ 	c #0C2E38",
"z/ 	c #16465A",
"A/ 	c #325160",
"B/ 	c #203644",
"C/ 	c #1C2F3E",
"D/ 	c #1A2D3B",
"E/ 	c #213341",
"F/ 	c #2C3E4C",
"G/ 	c #293A4A",
"H/ 	c #2B3E4F",
"I/ 	c #2A3F52",
"J/ 	c #2E4358",
"K/ 	c #2A4055",
"L/ 	c #2C4257",
"M/ 	c #273C4F",
"N/ 	c #3A4B5B",
"O/ 	c #3B4E5D",
"P/ 	c #516774",
"Q/ 	c #576D78",
"R/ 	c #8EA1A8",
"S/ 	c #4B5A5F",
"T/ 	c #4E5756",
"U/ 	c #3C4542",
"V/ 	c #242D2A",
"W/ 	c #1D2623",
"X/ 	c #2F3533",
"Y/ 	c #2C302F",
"Z/ 	c #393E3A",
"`/ 	c #25302A",
" ( 	c #283430",
".( 	c #3C4240",
"+( 	c #333736",
"@( 	c #373B3A",
"#( 	c #353736",
"$( 	c #282A29",
"%( 	c #2D2F2E",
"&( 	c #414342",
"*( 	c #3A3A3A",
"=( 	c #232522",
"-( 	c #252523",
";( 	c #2F2B28",
">( 	c #46423F",
",( 	c #3A3935",
"'( 	c #B3BCB9",
")( 	c #CAD8D9",
"!( 	c #C1D6DB",
"~( 	c #43596E",
"{( 	c #061928",
"]( 	c #475A69",
"^( 	c #46606D",
"/( 	c #204454",
"(( 	c #417283",
"_( 	c #317286",
":( 	c #2E8096",
"<( 	c #278DA4",
"[( 	c #1A91A7",
"}( 	c #27ACBF",
"|( 	c #2DBCCD",
"1( 	c #37D9E6",
"2( 	c #30E8F2",
"3( 	c #2CF3FA",
"4( 	c #2CF7FD",
"5( 	c #25F6FA",
"6( 	c #1DF2F6",
"7( 	c #1BF2F5",
"8( 	c #1FF6F8",
"9( 	c #25F9FC",
"0( 	c #23EDF1",
"a( 	c #36F1F8",
"b( 	c #3BE6EE",
"c( 	c #2BC3D0",
"d( 	c #169BAA",
"e( 	c #087D8F",
"f( 	c #00667B",
"g( 	c #005468",
"h( 	c #034858",
"i( 	c #0D4554",
"j( 	c #104150",
"k( 	c #123C4C",
"l( 	c #193A49",
"m( 	c #20303F",
"n( 	c #1C2534",
"o( 	c #1D202F",
"p( 	c #20222F",
"q( 	c #212330",
"r( 	c #212531",
"s( 	c #202634",
"t( 	c #1B2735",
"u( 	c #111F22",
"v( 	c #14232A",
"w( 	c #13212C",
"x( 	c #12202D",
"y( 	c #242D36",
"z( 	c #293038",
"A( 	c #162125",
"B( 	c #2C3E42",
"C( 	c #082428",
"D( 	c #001F28",
"E( 	c #184A55",
"F( 	c #357080",
"G( 	c #5E96A5",
"H( 	c #70939F",
"I( 	c #1B313C",
"J( 	c #182C37",
"K( 	c #1F333E",
"L( 	c #172935",
"M( 	c #2D4257",
"N( 	c #30465D",
"O( 	c #2E445C",
"P( 	c #32465E",
"Q( 	c #2B4055",
"R( 	c #28394D",
"S( 	c #516775",
"T( 	c #314754",
"U( 	c #62767F",
"V( 	c #26373E",
"W( 	c #172528",
"X( 	c #3D4748",
"Y( 	c #646D6C",
"Z( 	c #525856",
"`( 	c #474D4B",
" _ 	c #303634",
"._ 	c #383E3C",
"+_ 	c #313735",
"@_ 	c #212524",
"#_ 	c #28332D",
"$_ 	c #394241",
"%_ 	c #363C3C",
"&_ 	c #2C3232",
"*_ 	c #33373A",
"=_ 	c #222629",
"-_ 	c #222627",
";_ 	c #272B2C",
">_ 	c #222325",
",_ 	c #1A1E1D",
"'_ 	c #1D2120",
")_ 	c #1E1D1B",
"!_ 	c #302C29",
"~_ 	c #1B1A16",
"{_ 	c #3F413E",
"]_ 	c #666F6C",
"^_ 	c #4D5B5B",
"/_ 	c #9DB0B4",
"(_ 	c #4A5F74",
"__ 	c #0F2231",
":_ 	c #4D606E",
"<_ 	c #495F6D",
"[_ 	c #527287",
"}_ 	c #4E768F",
"|_ 	c #40718F",
"1_ 	c #306D8C",
"2_ 	c #2F7A97",
"3_ 	c #1D748F",
"4_ 	c #197D94",
"5_ 	c #13889A",
"6_ 	c #1FABB8",
"7_ 	c #27C4CD",
"8_ 	c #33DAE2",
"9_ 	c #34E7EE",
"0_ 	c #2FEFF4",
"a_ 	c #2AF5FB",
"b_ 	c #21F5F9",
"c_ 	c #19F0F5",
"d_ 	c #1EF3F9",
"e_ 	c #20EFF5",
"f_ 	c #2AEFF7",
"g_ 	c #39F1FB",
"h_ 	c #42EEF8",
"i_ 	c #3CDCE8",
"j_ 	c #2AC2CF",
"k_ 	c #21ABB8",
"l_ 	c #0F8893",
"m_ 	c #06717B",
"n_ 	c #005A66",
"o_ 	c #004E5C",
"p_ 	c #004454",
"q_ 	c #033B4C",
"r_ 	c #0E3749",
"s_ 	c #1D3A4C",
"t_ 	c #2F4253",
"u_ 	c #2D3A4B",
"v_ 	c #273343",
"w_ 	c #252E3D",
"x_ 	c #23313E",
"y_ 	c #1B2D39",
"z_ 	c #1D2A30",
"A_ 	c #182329",
"B_ 	c #1B2831",
"C_ 	c #101922",
"D_ 	c #0F161E",
"E_ 	c #1D2226",
"F_ 	c #162427",
"G_ 	c #183034",
"H_ 	c #0A2D33",
"I_ 	c #1A464F",
"J_ 	c #5E929F",
"K_ 	c #588896",
"L_ 	c #34545F",
"M_ 	c #233A42",
"N_ 	c #1D313A",
"O_ 	c #263844",
"P_ 	c #2B3D4B",
"Q_ 	c #30455A",
"R_ 	c #2D435B",
"S_ 	c #283D58",
"T_ 	c #2B405B",
"U_ 	c #354962",
"V_ 	c #30445C",
"W_ 	c #25354E",
"X_ 	c #1E3044",
"Y_ 	c #566B7C",
"Z_ 	c #2E404A",
"`_ 	c #33444B",
" : 	c #1D2B2E",
".: 	c #232D2E",
"+: 	c #393F3F",
"@: 	c #3F4543",
"#: 	c #242A28",
"$: 	c #272D2B",
"%: 	c #2B312F",
"&: 	c #2C322E",
"*: 	c #30352F",
"=: 	c #2B352D",
"-: 	c #1F2823",
";: 	c #3A4443",
">: 	c #3E4849",
",: 	c #495257",
"': 	c #3D464B",
"): 	c #222B32",
"!: 	c #0D141A",
"~: 	c #091114",
"{: 	c #0D1215",
"]: 	c #131718",
"^: 	c #121212",
"/: 	c #171614",
"(: 	c #11110F",
"_: 	c #494B48",
":: 	c #525854",
"<: 	c #434F4D",
"[: 	c #BBCBCB",
"}: 	c #495A71",
"|: 	c #051628",
"1: 	c #3E5160",
"2: 	c #415868",
"3: 	c #001727",
"4: 	c #58788D",
"5: 	c #5E829A",
"6: 	c #386383",
"7: 	c #416F90",
"8: 	c #326786",
"9: 	c #326E88",
"0: 	c #397D92",
"a: 	c #348090",
"b: 	c #257D8B",
"c: 	c #1C848F",
"d: 	c #209AA5",
"e: 	c #2BB9C3",
"f: 	c #31D4DB",
"g: 	c #32E7EE",
"h: 	c #30F3F9",
"i: 	c #2CF7FE",
"j: 	c #24F3F9",
"k: 	c #21F0F6",
"l: 	c #24F0F7",
"m: 	c #28F2F6",
"n: 	c #2BF2F5",
"o: 	c #2EF1F5",
"p: 	c #32EFF3",
"q: 	c #36ECEF",
"r: 	c #29D6DA",
"s: 	c #12B4B9",
"t: 	c #009199",
"u: 	c #007480",
"v: 	c #00626F",
"w: 	c #005263",
"x: 	c #014656",
"y: 	c #073C4E",
"z: 	c #174052",
"A: 	c #234455",
"B: 	c #24404E",
"C: 	c #1F3A45",
"D: 	c #1F3741",
"E: 	c #223A44",
"F: 	c #283C45",
"G: 	c #233039",
"H: 	c #1E2631",
"I: 	c #1D2530",
"J: 	c #1E2430",
"K: 	c #1F2630",
"L: 	c #22262F",
"M: 	c #212429",
"N: 	c #101115",
"O: 	c #1C2023",
"P: 	c #181D20",
"Q: 	c #172226",
"R: 	c #11242A",
"S: 	c #0A222C",
"T: 	c #16343F",
"U: 	c #001D28",
"V: 	c #152D37",
"W: 	c #21353C",
"X: 	c #1A2E35",
"Y: 	c #22353C",
"Z: 	c #283A44",
"`: 	c #233541",
" < 	c #273A49",
".< 	c #253A4D",
"+< 	c #293D55",
"@< 	c #2D425D",
"#< 	c #2A3F5A",
"$< 	c #2A3E57",
"%< 	c #263A52",
"&< 	c #293952",
"*< 	c #2F4157",
"=< 	c #44596A",
"-< 	c #293F4C",
";< 	c #253741",
">< 	c #24333A",
",< 	c #343E3F",
"'< 	c #404646",
")< 	c #1F2322",
"!< 	c #282E2C",
"~< 	c #434947",
"{< 	c #545A56",
"]< 	c #2E3430",
"^< 	c #363B37",
"/< 	c #616660",
"(< 	c #585D56",
"_< 	c #3F463E",
":< 	c #5E6762",
"<< 	c #414B4A",
"[< 	c #556062",
"}< 	c #414E54",
"|< 	c #3A4750",
"1< 	c #1C2A35",
"2< 	c #000E1B",
"3< 	c #091722",
"4< 	c #04121B",
"5< 	c #031018",
"6< 	c #0C171D",
"7< 	c #040F13",
"8< 	c #050D10",
"9< 	c #080C0D",
"0< 	c #0D0D0D",
"a< 	c #131512",
"b< 	c #141613",
"c< 	c #414743",
"d< 	c #646D68",
"e< 	c #8C9896",
"f< 	c #889797",
"g< 	c #819399",
"h< 	c #7D949B",
"i< 	c #889EAA",
"j< 	c #A9BFCA",
"k< 	c #A7BBC2",
"l< 	c #B1C2C9",
"m< 	c #ABBABF",
"n< 	c #90A2A6",
"o< 	c #97A9AD",
"p< 	c #94A6A8",
"q< 	c #8B9D9F",
"r< 	c #9BADB0",
"s< 	c #4C5D73",
"t< 	c #031426",
"u< 	c #405364",
"v< 	c #627E8C",
"w< 	c #294D5D",
"x< 	c #1E4759",
"y< 	c #254F65",
"z< 	c #224A64",
"A< 	c #1F4663",
"B< 	c #264B68",
"C< 	c #315671",
"D< 	c #224761",
"E< 	c #2A5065",
"F< 	c #1E4457",
"G< 	c #2A5867",
"H< 	c #346F7D",
"I< 	c #2D7987",
"J< 	c #167885",
"K< 	c #0A808C",
"L< 	c #149EA9",
"M< 	c #25BFCB",
"N< 	c #38E0EB",
"O< 	c #39EEF7",
"P< 	c #36F5FD",
"Q< 	c #2BF2F7",
"R< 	c #22EFF2",
"S< 	c #1FF3F4",
"T< 	c #20F6F4",
"U< 	c #1DF5F2",
"V< 	c #22F8F8",
"W< 	c #28FAFB",
"X< 	c #2BF5F7",
"Y< 	c #29E6EA",
"Z< 	c #25D3DA",
"`< 	c #1EBCC5",
" [ 	c #109DA7",
".[ 	c #07818E",
"+[ 	c #026978",
"@[ 	c #0A6270",
"#[ 	c #0F5966",
"$[ 	c #0F4D58",
"%[ 	c #104650",
"&[ 	c #12414B",
"*[ 	c #143C46",
"=[ 	c #163641",
"-[ 	c #283E4C",
";[ 	c #2A3A4A",
">[ 	c #17212D",
",[ 	c #172029",
"'[ 	c #181F27",
")[ 	c #14191F",
"![ 	c #1F2227",
"~[ 	c #10171D",
"{[ 	c #162127",
"][ 	c #04151F",
"^[ 	c #051721",
"/[ 	c #12242E",
"([ 	c #1D3138",
"_[ 	c #1A2C36",
":[ 	c #263842",
"<[ 	c #1D2F3B",
"[[ 	c #2A3C50",
"}[ 	c #2A4058",
"|[ 	c #293E59",
"1[ 	c #283E56",
"2[ 	c #283C55",
"3[ 	c #273951",
"4[ 	c #25364A",
"5[ 	c #1C2F3D",
"6[ 	c #253640",
"7[ 	c #2D3C43",
"8[ 	c #212B2D",
"9[ 	c #323B3A",
"0[ 	c #454948",
"a[ 	c #252928",
"b[ 	c #555958",
"c[ 	c #656B69",
"d[ 	c #373D3B",
"e[ 	c #4A504C",
"f[ 	c #2E332D",
"g[ 	c #31362F",
"h[ 	c #121710",
"i[ 	c #2E3734",
"j[ 	c #1A272D",
"k[ 	c #7C8D97",
"l[ 	c #637484",
"m[ 	c #3E5366",
"n[ 	c #273E50",
"o[ 	c #0D2235",
"p[ 	c #021728",
"q[ 	c #00111F",
"r[ 	c #000A16",
"s[ 	c #000911",
"t[ 	c #061319",
"u[ 	c #020A0D",
"v[ 	c #101415",
"w[ 	c #212322",
"x[ 	c #777C78",
"y[ 	c #929791",
"z[ 	c #3F463F",
"A[ 	c #4B544F",
"B[ 	c #798583",
"C[ 	c #809090",
"D[ 	c #5D6F73",
"E[ 	c #506168",
"F[ 	c #405256",
"G[ 	c #394949",
"H[ 	c #556363",
"I[ 	c #586462",
"J[ 	c #4A5858",
"K[ 	c #758383",
"L[ 	c #43524F",
"M[ 	c #455552",
"N[ 	c #5B6B68",
"O[ 	c #7A8C8C",
"P[ 	c #8A9BA2",
"Q[ 	c #53647C",
"R[ 	c #081A2E",
"S[ 	c #3F5668",
"T[ 	c #769AAA",
"U[ 	c #548291",
"V[ 	c #3F7786",
"W[ 	c #377083",
"X[ 	c #255C71",
"Y[ 	c #23536A",
"Z[ 	c #18425A",
"`[ 	c #21475E",
" } 	c #24495C",
".} 	c #1E3F50",
"+} 	c #142F40",
"@} 	c #112D3B",
"#} 	c #0E3242",
"$} 	c #174555",
"%} 	c #255D6E",
"&} 	c #286D7D",
"*} 	c #1E6F82",
"=} 	c #0D6C7E",
"-} 	c #0E7D90",
";} 	c #209FB0",
">} 	c #34C6D3",
",} 	c #3ADEE7",
"'} 	c #34EBEF",
")} 	c #2DF3F2",
"!} 	c #26F7F4",
"~} 	c #1EF6F3",
"{} 	c #1AF4F5",
"]} 	c #15F0F2",
"^} 	c #18F2F4",
"/} 	c #22F9FB",
"(} 	c #26FCFE",
"_} 	c #26F6F8",
":} 	c #29F0F3",
"<} 	c #33EFF1",
"[} 	c #22CED2",
"}} 	c #1EB7BD",
"|} 	c #10959C",
"1} 	c #03767D",
"2} 	c #02606A",
"3} 	c #065661",
"4} 	c #0D515E",
"5} 	c #134B5A",
"6} 	c #184157",
"7} 	c #1C3C53",
"8} 	c #223E53",
"9} 	c #274152",
"0} 	c #28353E",
"a} 	c #27313A",
"b} 	c #131C25",
"c} 	c #161F28",
"d} 	c #19222B",
"e} 	c #151E27",
"f} 	c #202A33",
"g} 	c #1A2730",
"h} 	c #1A2B35",
"i} 	c #11212E",
"j} 	c #0C1C29",
"k} 	c #283A4E",
"l} 	c #273C51",
"m} 	c #253951",
"n} 	c #233951",
"o} 	c #243A52",
"p} 	c #273B53",
"q} 	c #2C3E54",
"r} 	c #2D3E52",
"s} 	c #394C5B",
"t} 	c #293B47",
"u} 	c #27353E",
"v} 	c #212E34",
"w} 	c #141C1F",
"x} 	c #3F4342",
"y} 	c #0F1410",
"z} 	c #222723",
"A} 	c #333937",
"B} 	c #404644",
"C} 	c #151B17",
"D} 	c #222721",
"E} 	c #10150F",
"F} 	c #43463F",
"G} 	c #818680",
"H} 	c #343D3C",
"I} 	c #5F6A6E",
"J} 	c #4F606A",
"K} 	c #566C7A",
"L} 	c #577086",
"M} 	c #5E7A92",
"N} 	c #87A5C1",
"O} 	c #7493AF",
"P} 	c #6886A0",
"Q} 	c #5C7A92",
"R} 	c #557085",
"S} 	c #3B5566",
"T} 	c #01151E",
"U} 	c #152024",
"V} 	c #262B2E",
"W} 	c #6B6F6E",
"X} 	c #727773",
"Y} 	c #2A2F28",
"Z} 	c #1C211A",
"`} 	c #353A34",
" | 	c #27322E",
".| 	c #2B3735",
"+| 	c #2E3A3A",
"@| 	c #404C4A",
"#| 	c #44504E",
"$| 	c #717C76",
"%| 	c #7D877F",
"&| 	c #677169",
"*| 	c #7A857F",
"=| 	c #8C9791",
"-| 	c #849188",
";| 	c #859289",
">| 	c #6B786F",
",| 	c #6D7C77",
"'| 	c #667676",
")| 	c #53697C",
"!| 	c #03182B",
"~| 	c #294457",
"{| 	c #5D8495",
"]| 	c #487789",
"^| 	c #6BA2B6",
"/| 	c #578EA3",
"(| 	c #427289",
"_| 	c #447089",
":| 	c #456981",
"<| 	c #3A5D71",
"[| 	c #476B7B",
"}| 	c #1C3C4B",
"|| 	c #0C2335",
"1| 	c #0F2A3D",
"2| 	c #1A394D",
"3| 	c #1A3D51",
"4| 	c #133E51",
"5| 	c #1F4F63",
"6| 	c #316B7F",
"7| 	c #297084",
"8| 	c #166D80",
"9| 	c #097383",
"0| 	c #0E8A96",
"a| 	c #18ABB3",
"b| 	c #26C9CE",
"c| 	c #30E2E4",
"d| 	c #36F3F5",
"e| 	c #29F3F7",
"f| 	c #24F4F8",
"g| 	c #1FF4F8",
"h| 	c #1CF6F8",
"i| 	c #16F6F8",
"j| 	c #13F4F6",
"k| 	c #12F3F5",
"l| 	c #15F3F4",
"m| 	c #21F5F8",
"n| 	c #2DF3F6",
"o| 	c #34D6DB",
"p| 	c #2AB9C1",
"q| 	c #1A99A2",
"r| 	c #0A7C87",
"s| 	c #036776",
"t| 	c #095E72",
"u| 	c #00465C",
"v| 	c #003D4F",
"w| 	c #0A4251",
"x| 	c #103E4B",
"y| 	c #103440",
"z| 	c #17353F",
"A| 	c #2F434E",
"B| 	c #273945",
"C| 	c #1C2C39",
"D| 	c #1A2835",
"E| 	c #111B27",
"F| 	c #19202A",
"G| 	c #13212E",
"H| 	c #293948",
"I| 	c #3D4D5C",
"J| 	c #243444",
"K| 	c #28374A",
"L| 	c #1C2E44",
"M| 	c #1C3048",
"N| 	c #22384F",
"O| 	c #283C54",
"P| 	c #293B51",
"Q| 	c #213141",
"R| 	c #3A4C5A",
"S| 	c #4C5A63",
"T| 	c #2D383E",
"U| 	c #1E2629",
"V| 	c #45494A",
"W| 	c #595B5A",
"X| 	c #656764",
"Y| 	c #626461",
"Z| 	c #5F6460",
"`| 	c #676D6B",
" 1 	c #636967",
".1 	c #474D49",
"+1 	c #292E28",
"@1 	c #414642",
"#1 	c #283032",
"$1 	c #27343C",
"%1 	c #2A3D4B",
"&1 	c #355063",
"*1 	c #3B5A76",
"=1 	c #345777",
"-1 	c #2D5173",
";1 	c #355C7D",
">1 	c #3E6586",
",1 	c #486D8A",
"'1 	c #577994",
")1 	c #5F7F94",
"!1 	c #5C7B8F",
"~1 	c #58727F",
"{1 	c #424F57",
"]1 	c #2B3336",
"^1 	c #1D2323",
"/1 	c #181D19",
"(1 	c #1D2019",
"_1 	c #26271F",
":1 	c #303129",
"<1 	c #3C3F38",
"[1 	c #343933",
"}1 	c #3D443D",
"|1 	c #737B70",
"11 	c #909688",
"21 	c #8A9283",
"31 	c #A0A89D",
"41 	c #919B90",
"51 	c #97A196",
"61 	c #8F9B8D",
"71 	c #8B978B",
"81 	c #7B887F",
"91 	c #5D6C69",
"01 	c #95A4AC",
"a1 	c #011A2E",
"b1 	c #1D3C50",
"c1 	c #4D7386",
"d1 	c #446E84",
"e1 	c #4D758F",
"f1 	c #517291",
"g1 	c #5B7395",
"h1 	c #475B7C",
"i1 	c #203552",
"j1 	c #163047",
"k1 	c #416271",
"l1 	c #486C7A",
"m1 	c #16354A",
"n1 	c #011F37",
"o1 	c #001B32",
"p1 	c #0C2F45",
"q1 	c #163B4E",
"r1 	c #103649",
"s1 	c #0F384A",
"t1 	c #184656",
"u1 	c #15485B",
"v1 	c #1E596B",
"w1 	c #276B7E",
"x1 	c #217285",
"y1 	c #006E7F",
"z1 	c #0C8494",
"A1 	c #17A1AE",
"B1 	c #35D8E1",
"C1 	c #33E6ED",
"D1 	c #34ECF4",
"E1 	c #2AECF5",
"F1 	c #23EFF8",
"G1 	c #21F7FF",
"H1 	c #1DFAFF",
"I1 	c #17F8FE",
"J1 	c #14F4FC",
"K1 	c #14F1F9",
"L1 	c #23EFF6",
"M1 	c #2FF2F8",
"N1 	c #34EDF2",
"O1 	c #2ADDE2",
"P1 	c #25CCD4",
"Q1 	c #13A7B5",
"R1 	c #068B9A",
"S1 	c #007883",
"T1 	c #056D76",
"U1 	c #065D66",
"V1 	c #064C54",
"W1 	c #0E4752",
"X1 	c #1B4754",
"Y1 	c #1A3E4E",
"Z1 	c #274054",
"`1 	c #071425",
" 2 	c #0D1A2B",
".2 	c #172435",
"+2 	c #1F2C3D",
"@2 	c #394959",
"#2 	c #4E5D70",
"$2 	c #415266",
"%2 	c #3D4F65",
"&2 	c #2E425A",
"*2 	c #23374F",
"=2 	c #1B3045",
"-2 	c #172A3B",
";2 	c #1A2D3C",
">2 	c #1D2D3C",
",2 	c #152532",
"'2 	c #1E303C",
")2 	c #354650",
"!2 	c #3F4D56",
"~2 	c #2C373D",
"{2 	c #212629",
"]2 	c #1C2021",
"^2 	c #262827",
"/2 	c #161815",
"(2 	c #131814",
"_2 	c #0B110F",
":2 	c #080E0C",
"<2 	c #444A46",
"[2 	c #232822",
"}2 	c #3D3F3A",
"|2 	c #404541",
"12 	c #353F41",
"22 	c #32434B",
"32 	c #263D4D",
"42 	c #48667E",
"52 	c #315575",
"62 	c #476F93",
"72 	c #436F96",
"82 	c #426F96",
"92 	c #27537A",
"02 	c #285376",
"a2 	c #224968",
"b2 	c #1D425C",
"c2 	c #20445C",
"d2 	c #537080",
"e2 	c #394A54",
"f2 	c #1D2729",
"g2 	c #282E2E",
"h2 	c #2C2D25",
"i2 	c #212117",
"j2 	c #303026",
"k2 	c #4F4F45",
"l2 	c #72736B",
"m2 	c #40433C",
"n2 	c #3E433C",
"o2 	c #3B4137",
"p2 	c #686E62",
"q2 	c #606757",
"r2 	c #707561",
"s2 	c #606453",
"t2 	c #7E8274",
"u2 	c #9AA092",
"v2 	c #92988A",
"w2 	c #99A291",
"x2 	c #99A494",
"y2 	c #697569",
"z2 	c #55645F",
"A2 	c #7C8A8D",
"B2 	c #001A2B",
"C2 	c #1B3A4C",
"D2 	c #4D7187",
"E2 	c #4F748E",
"F2 	c #577899",
"G2 	c #4F698E",
"H2 	c #637397",
"I2 	c #3B486A",
"J2 	c #030E2A",
"K2 	c #0C1E32",
"L2 	c #14323D",
"M2 	c #375B69",
"N2 	c #5C7C93",
"O2 	c #4E708B",
"P2 	c #2F5771",
"Q2 	c #0D3B53",
"R2 	c #00324A",
"S2 	c #003D52",
"T2 	c #064759",
"U2 	c #054859",
"V2 	c #054658",
"W2 	c #0B4E61",
"X2 	c #11556A",
"Y2 	c #135E73",
"Z2 	c #166880",
"`2 	c #136D87",
" 3 	c #0B6985",
".3 	c #00657F",
"+3 	c #006E7E",
"@3 	c #008694",
"#3 	c #16ACBA",
"$3 	c #30D0DC",
"%3 	c #39E5F1",
"&3 	c #31EBF7",
"*3 	c #28EEF9",
"=3 	c #20F3FC",
"-3 	c #1AF7FF",
";3 	c #16FBFF",
">3 	c #12FAFE",
",3 	c #13F8FB",
"'3 	c #17F5F8",
")3 	c #1EF5F8",
"!3 	c #22F2F6",
"~3 	c #2FF1FA",
"{3 	c #33EAF2",
"]3 	c #34DDE4",
"^3 	c #28C3C8",
"/3 	c #17A0A6",
"(3 	c #0B8288",
"_3 	c #026771",
":3 	c #00515F",
"<3 	c #03475A",
"[3 	c #0A4357",
"}3 	c #0B3950",
"|3 	c #183C52",
"13 	c #0D283B",
"23 	c #253340",
"33 	c #132235",
"43 	c #0F1F2F",
"53 	c #000E1E",
"63 	c #08172A",
"73 	c #142537",
"83 	c #2D3F53",
"93 	c #394E61",
"03 	c #4E6376",
"a3 	c #4D6275",
"b3 	c #384B5C",
"c3 	c #1B2D3B",
"d3 	c #102230",
"e3 	c #18262F",
"f3 	c #303B41",
"g3 	c #11161A",
"h3 	c #13171A",
"i3 	c #1D1D1F",
"j3 	c #212121",
"k3 	c #222423",
"l3 	c #242A2A",
"m3 	c #2A3332",
"n3 	c #131C1B",
"o3 	c #29322F",
"p3 	c #25363E",
"q3 	c #0F2638",
"r3 	c #47657D",
"s3 	c #294D6D",
"t3 	c #366287",
"u3 	c #285981",
"v3 	c #4E82AA",
"w3 	c #2E5F87",
"x3 	c #28587C",
"y3 	c #2C5779",
"z3 	c #456C89",
"A3 	c #355973",
"B3 	c #5A768B",
"C3 	c #68767F",
"D3 	c #232B2D",
"E3 	c #2E3432",
"F3 	c #323731",
"G3 	c #23251A",
"H3 	c #1F1F15",
"I3 	c #4B4B41",
"J3 	c #696B60",
"K3 	c #41423A",
"L3 	c #2E3128",
"M3 	c #55584D",
"N3 	c #4D5143",
"O3 	c #4A4C3E",
"P3 	c #3F4231",
"Q3 	c #5A5D4A",
"R3 	c #656958",
"S3 	c #5C6353",
"T3 	c #858C7A",
"U3 	c #959E8B",
"V3 	c #949F8F",
"W3 	c #919D91",
"X3 	c #56625E",
"Y3 	c #808E90",
"Z3 	c #162D3D",
"`3 	c #506F84",
" 4 	c #517490",
".4 	c #5B7FA3",
"+4 	c #507297",
"@4 	c #4F6686",
"#4 	c #35455F",
"$4 	c #1A2537",
"%4 	c #162C37",
"&4 	c #2E4A56",
"*4 	c #3D5C70",
"=4 	c #335872",
"-4 	c #356782",
";4 	c #3E819E",
">4 	c #3C97B2",
",4 	c #32A0B9",
"'4 	c #229AB2",
")4 	c #209AAF",
"!4 	c #006F83",
"~4 	c #006E82",
"{4 	c #0C768C",
"]4 	c #147C95",
"^4 	c #0E7794",
"/4 	c #0C7595",
"(4 	c #147CA3",
"_4 	c #1E85A8",
":4 	c #117992",
"<4 	c #056E81",
"[4 	c #006477",
"}4 	c #006C7D",
"|4 	c #098996",
"14 	c #1FADB7",
"24 	c #34D2DB",
"34 	c #3AEDF2",
"44 	c #27F1F3",
"54 	c #19F3F2",
"64 	c #10F6F4",
"74 	c #11FAF7",
"84 	c #1BFBFB",
"94 	c #1CFAFB",
"04 	c #17F7F7",
"a4 	c #13F3F5",
"b4 	c #1CFAFF",
"c4 	c #1CF5FC",
"d4 	c #1EF1F8",
"e4 	c #24EFF5",
"f4 	c #2CEDF4",
"g4 	c #32E5EC",
"h4 	c #25C6D0",
"i4 	c #12A0AC",
"j4 	c #027A8A",
"k4 	c #006577",
"l4 	c #055669",
"m4 	c #0D4E62",
"n4 	c #0D4053",
"o4 	c #0B3144",
"p4 	c #0B2C3D",
"q4 	c #0E293A",
"r4 	c #0D263A",
"s4 	c #1B3448",
"t4 	c #21384A",
"u4 	c #1B3041",
"v4 	c #223544",
"w4 	c #0A1C2A",
"x4 	c #011321",
"y4 	c #000A18",
"z4 	c #00101F",
"A4 	c #16293A",
"B4 	c #314357",
"C4 	c #495B6F",
"D4 	c #4D5D74",
"E4 	c #435569",
"F4 	c #485F6D",
"G4 	c #475D68",
"H4 	c #030A12",
"I4 	c #15181F",
"J4 	c #19181E",
"K4 	c #0B0C11",
"L4 	c #080D10",
"M4 	c #0D1718",
"N4 	c #1C2729",
"O4 	c #2C3A3B",
"P4 	c #364447",
"Q4 	c #2F3D40",
"R4 	c #2A3537",
"S4 	c #243030",
"T4 	c #131F1F",
"U4 	c #03141C",
"V4 	c #051827",
"W4 	c #597489",
"X4 	c #557993",
"Y4 	c #2F5C7B",
"Z4 	c #2B6082",
"`4 	c #40789B",
" 5 	c #366E91",
".5 	c #43789A",
"+5 	c #3D6A8B",
"@5 	c #335777",
"#5 	c #345370",
"$5 	c #8599B1",
"%5 	c #ABB6BC",
"&5 	c #1B201C",
"*5 	c #1D221C",
"=5 	c #21261F",
"-5 	c #292C23",
";5 	c #282B22",
">5 	c #383B32",
",5 	c #383B30",
"'5 	c #54574C",
")5 	c #7E8176",
"!5 	c #5B5E55",
"~5 	c #44473E",
"{5 	c #292B20",
"]5 	c #38382E",
"^5 	c #48483E",
"/5 	c #606153",
"(5 	c #505541",
"_5 	c #444C37",
":5 	c #49503E",
"<5 	c #57604F",
"[5 	c #6A7567",
"}5 	c #69746C",
"|5 	c #5F6B69",
"15 	c #8C999C",
"25 	c #0E2334",
"35 	c #1D3444",
"45 	c #668298",
"55 	c #50738F",
"65 	c #577FA3",
"75 	c #3C6287",
"85 	c #425D7B",
"95 	c #3B4D63",
"05 	c #162029",
"a5 	c #38525F",
"b5 	c #3E5D71",
"c5 	c #2A576E",
"d5 	c #24617D",
"e5 	c #388FAB",
"f5 	c #34ADC8",
"g5 	c #2ABFD7",
"h5 	c #1BC0D4",
"i5 	c #24CDE0",
"j5 	c #27C6D9",
"k5 	c #23BACB",
"l5 	c #26B5C6",
"m5 	c #2DB8CD",
"n5 	c #2DB7D1",
"o5 	c #2BB0CF",
"p5 	c #24A4CB",
"q5 	c #2199BE",
"r5 	c #2493AF",
"s5 	c #2C94AD",
"t5 	c #3090A9",
"u5 	c #23869D",
"v5 	c #0D788C",
"w5 	c #007182",
"x5 	c #007A87",
"y5 	c #008994",
"z5 	c #0DB1BA",
"A5 	c #1DD4DA",
"B5 	c #2BF8FD",
"C5 	c #23F0F5",
"D5 	c #1DEEF3",
"E5 	c #19F4F6",
"F5 	c #15F9FA",
"G5 	c #0AF3F7",
"H5 	c #0EF9FD",
"I5 	c #17FFFF",
"J5 	c #19FCFF",
"K5 	c #17F5FA",
"L5 	c #1DF2F8",
"M5 	c #27F0F8",
"N5 	c #32EAF4",
"O5 	c #30D8E3",
"P5 	c #27BEC9",
"Q5 	c #1B9DAA",
"R5 	c #0D7D89",
"S5 	c #026270",
"T5 	c #025462",
"U5 	c #064E5D",
"V5 	c #094857",
"W5 	c #003244",
"X5 	c #043144",
"Y5 	c #073042",
"Z5 	c #082B3E",
"`5 	c #193445",
" 6 	c #203342",
".6 	c #213442",
"+6 	c #1E3441",
"@6 	c #112735",
"#6 	c #001222",
"$6 	c #000719",
"%6 	c #000F24",
"&6 	c #0F2139",
"*6 	c #1A2F44",
"=6 	c #3A515F",
"-6 	c #3C545E",
";6 	c #000D16",
">6 	c #080F19",
",6 	c #0D1019",
"'6 	c #101018",
")6 	c #101116",
"!6 	c #0D1216",
"~6 	c #070F12",
"{6 	c #0F1A1C",
"]6 	c #192728",
"^6 	c #283639",
"/6 	c #38454B",
"(6 	c #546265",
"_6 	c #515F62",
":6 	c #3B4A4F",
"<6 	c #071822",
"[6 	c #0E2130",
"}6 	c #657E92",
"|6 	c #597B94",
"16 	c #325B79",
"26 	c #316384",
"36 	c #3A7092",
"46 	c #467CA0",
"56 	c #4F84A6",
"66 	c #497798",
"76 	c #3F6888",
"86 	c #2F506F",
"96 	c #90A9BF",
"06 	c #A7B2B6",
"a6 	c #1D221E",
"b6 	c #293029",
"c6 	c #222921",
"d6 	c #3B423A",
"e6 	c #666D65",
"f6 	c #555C54",
"g6 	c #6E766B",
"h6 	c #2F342D",
"i6 	c #444942",
"j6 	c #31342D",
"k6 	c #2F302A",
"l6 	c #3C3B36",
"m6 	c #3F4038",
"n6 	c #4C503F",
"o6 	c #3D4530",
"p6 	c #414838",
"q6 	c #4F5748",
"r6 	c #636B60",
"s6 	c #8C9695",
"t6 	c #97A2A5",
"u6 	c #071E2E",
"v6 	c #061D2F",
"w6 	c #5F7B91",
"x6 	c #567995",
"y6 	c #497195",
"z6 	c #4C7297",
"A6 	c #5A7593",
"B6 	c #4C5E74",
"C6 	c #0D1723",
"D6 	c #061019",
"E6 	c #426578",
"F6 	c #31657B",
"G6 	c #236D86",
"H6 	c #38A2BA",
"I6 	c #33C6DA",
"J6 	c #30E1F1",
"K6 	c #1FE5F2",
"L6 	c #28F4FD",
"M6 	c #2FF4FC",
"N6 	c #33EFF8",
"O6 	c #35ECF4",
"P6 	c #2DDFE9",
"Q6 	c #1DCFDD",
"R6 	c #18C4D8",
"S6 	c #1AC2DC",
"T6 	c #21C0DE",
"U6 	c #23B8D9",
"V6 	c #1FA8CA",
"W6 	c #1D98BA",
"X6 	c #1E90B2",
"Y6 	c #1E8FAD",
"Z6 	c #1A88A3",
"`6 	c #117B95",
" 7 	c #08728C",
".7 	c #006F89",
"+7 	c #007B93",
"@7 	c #0793AA",
"#7 	c #1AB2C7",
"$7 	c #31D2E6",
"%7 	c #38EAF8",
"&7 	c #2AF0F9",
"*7 	c #15EFF1",
"=7 	c #18FEFE",
"-7 	c #0FFBF9",
";7 	c #10F8FA",
">7 	c #14F8FB",
",7 	c #1BF6FA",
"'7 	c #1EF9FD",
")7 	c #21F8FB",
"!7 	c #1DF1F2",
"~7 	c #26F4F2",
"{7 	c #2EF0F0",
"]7 	c #2DE1E2",
"^7 	c #24C8CA",
"/7 	c #1AAFB5",
"(7 	c #0A9099",
"_7 	c #00727C",
":7 	c #046673",
"<7 	c #055667",
"[7 	c #05495C",
"}7 	c #033A4F",
"|7 	c #0D334A",
"17 	c #153149",
"27 	c #152941",
"37 	c #182A40",
"47 	c #22394B",
"57 	c #223C4B",
"67 	c #254250",
"77 	c #223F4D",
"87 	c #173243",
"97 	c #051C2E",
"07 	c #000B1C",
"a7 	c #000510",
"b7 	c #00080F",
"c7 	c #000B13",
"d7 	c #040E17",
"e7 	c #0D141C",
"f7 	c #0C0F16",
"g7 	c #0B0F12",
"h7 	c #0F1417",
"i7 	c #0C1416",
"j7 	c #0E1819",
"k7 	c #040E10",
"l7 	c #000709",
"m7 	c #071015",
"n7 	c #171C22",
"o7 	c #212830",
"p7 	c #4D5C63",
"q7 	c #3C4D55",
"r7 	c #3B4D59",
"s7 	c #74899A",
"t7 	c #7992A8",
"u7 	c #2D4B67",
"v7 	c #3B5F7F",
"w7 	c #5785A9",
"x7 	c #5484AA",
"y7 	c #45779A",
"z7 	c #3B6D8E",
"A7 	c #386989",
"B7 	c #1D4C68",
"C7 	c #7297AA",
"D7 	c #83949B",
"E7 	c #3C4544",
"F7 	c #68736D",
"G7 	c #4F5A54",
"H7 	c #45504A",
"I7 	c #55605A",
"J7 	c #5B6461",
"K7 	c #5A605E",
"L7 	c #5D6361",
"M7 	c #353938",
"N7 	c #2F312E",
"O7 	c #5F6259",
"P7 	c #A6A99E",
"Q7 	c #74776C",
"R7 	c #BBBEB5",
"S7 	c #B8BDB7",
"T7 	c #BCC2BE",
"U7 	c #ABB1B1",
"V7 	c #B6C0C1",
"W7 	c #A9B4B8",
"X7 	c #95A7B6",
"Y7 	c #8399A8",
"Z7 	c #011B2C",
"`7 	c #527186",
" 8 	c #698CA8",
".8 	c #446C8F",
"+8 	c #487093",
"@8 	c #577492",
"#8 	c #5E7388",
"$8 	c #131D26",
"%8 	c #0C1D27",
"&8 	c #2E4857",
"*8 	c #3C6275",
"=8 	c #397389",
"-8 	c #2C7E96",
";8 	c #30A4BB",
">8 	c #2DCEE0",
",8 	c #2CEEFA",
"'8 	c #19F6FE",
")8 	c #12F7FC",
"!8 	c #18F8FA",
"~8 	c #1CF8F8",
"{8 	c #24F8F9",
"]8 	c #22F4F5",
"^8 	c #1AEBF0",
"/8 	c #18E4ED",
"(8 	c #13DBEA",
"_8 	c #0FCDE3",
":8 	c #0EC3E2",
"<8 	c #16BDE1",
"[8 	c #21B5D9",
"}8 	c #24ADD1",
"|8 	c #22A1C4",
"18 	c #2196B9",
"28 	c #2890B3",
"38 	c #2D8FB2",
"48 	c #2485A8",
"58 	c #127698",
"68 	c #006C8B",
"78 	c #00708C",
"88 	c #007C95",
"98 	c #0390A2",
"08 	c #11B3BE",
"a8 	c #21D4D9",
"b8 	c #2BECF1",
"c8 	c #24EEF2",
"d8 	c #27F2F6",
"e8 	c #27F7FB",
"f8 	c #1BF6F8",
"g8 	c #16F8F7",
"h8 	c #0DF6F3",
"i8 	c #10FAF7",
"j8 	c #12FBF7",
"k8 	c #18FAF6",
"l8 	c #1AF4F3",
"m8 	c #21EFEF",
"n8 	c #2CEFF1",
"o8 	c #30E9EE",
"p8 	c #31D8E0",
"q8 	c #25B5BE",
"r8 	c #148F9E",
"s8 	c #016F80",
"t8 	c #005A6C",
"u8 	c #0B566D",
"v8 	c #19556D",
"w8 	c #13435A",
"x8 	c #083248",
"y8 	c #042A3F",
"z8 	c #062B3E",
"A8 	c #0F3444",
"B8 	c #1F4353",
"C8 	c #2D4E5D",
"D8 	c #2F4F5E",
"E8 	c #2C4758",
"F8 	c #28424F",
"G8 	c #233B45",
"H8 	c #0F262C",
"I8 	c #001219",
"J8 	c #07161D",
"K8 	c #000A10",
"L8 	c #070E14",
"M8 	c #0E1619",
"N8 	c #161E20",
"O8 	c #242C2E",
"P8 	c #0F191A",
"Q8 	c #0A1415",
"R8 	c #0A1215",
"S8 	c #0C1115",
"T8 	c #07070F",
"U8 	c #010109",
"V8 	c #0B121A",
"W8 	c #00090F",
"X8 	c #08151E",
"Y8 	c #1E2F39",
"Z8 	c #2D3F4D",
"`8 	c #374C5F",
" 9 	c #213951",
".9 	c #233E5B",
"+9 	c #395779",
"@9 	c #486A8D",
"#9 	c #42668A",
"$9 	c #3E6689",
"%9 	c #3D6888",
"&9 	c #396683",
"*9 	c #2A5870",
"=9 	c #6E95A6",
"-9 	c #1C2628",
";9 	c #131D1E",
">9 	c #0A1616",
",9 	c #3F4B49",
"'9 	c #64706E",
")9 	c #5E6A68",
"!9 	c #384744",
"~9 	c #31403D",
"{9 	c #485754",
"]9 	c #616D6D",
"^9 	c #636D6E",
"/9 	c #566062",
"(9 	c #50585B",
"_9 	c #858A8D",
":9 	c #8C918D",
"<9 	c #6A6C67",
"[9 	c #62645F",
"}9 	c #696B68",
"|9 	c #5D6160",
"19 	c #BFC5C3",
"29 	c #B2B8B8",
"39 	c #C7CFD1",
"49 	c #6E797D",
"59 	c #606D72",
"69 	c #99A8AF",
"79 	c #A5B6BE",
"89 	c #A4B6C0",
"99 	c #91A5AE",
"09 	c #879DA8",
"a9 	c #5E7682",
"b9 	c #627D90",
"c9 	c #708BA1",
"d9 	c #839FB5",
"e9 	c #809CB1",
"f9 	c #172E40",
"g9 	c #051F30",
"h9 	c #6388A2",
"i9 	c #457090",
"j9 	c #476F92",
"k9 	c #5B7A97",
"l9 	c #4D637A",
"m9 	c #03111E",
"n9 	c #0D1A23",
"o9 	c #162633",
"p9 	c #334D5C",
"q9 	c #345E74",
"r9 	c #38768F",
"s9 	c #3086A1",
"t9 	c #28A0B9",
"u9 	c #2FD4E8",
"v9 	c #24EEFC",
"w9 	c #19FDFF",
"x9 	c #06FAFB",
"y9 	c #0CFEFF",
"z9 	c #0CFCF9",
"A9 	c #10FCF8",
"B9 	c #14FEFB",
"C9 	c #19FFFF",
"D9 	c #1EFFFF",
"E9 	c #1CF6FF",
"F9 	c #11E6F6",
"G9 	c #16E7FD",
"H9 	c #12D4EF",
"I9 	c #12BFDF",
"J9 	c #18B6D9",
"K9 	c #20B4D8",
"L9 	c #24B0D4",
"M9 	c #239AC2",
"N9 	c #2D9DC5",
"O9 	c #2995BB",
"P9 	c #248FAF",
"Q9 	c #2388A4",
"R9 	c #16768E",
"S9 	c #056677",
"T9 	c #006C76",
"U9 	c #067B84",
"V9 	c #1B95A4",
"W9 	c #2BB0C1",
"X9 	c #3CD2E0",
"Y9 	c #3CE7EF",
"Z9 	c #2DEDF0",
"`9 	c #23F5F4",
" 0 	c #1CFCFB",
".0 	c #15FEFB",
"+0 	c #13FDFC",
"@0 	c #0FF7F7",
"#0 	c #10F5F8",
"$0 	c #14F5F9",
"%0 	c #15F4F9",
"&0 	c #19F7FC",
"*0 	c #1BEEF5",
"=0 	c #2FEBF4",
"-0 	c #32E0E9",
";0 	c #30D4DE",
">0 	c #20B8C5",
",0 	c #139BAB",
"'0 	c #0F8798",
")0 	c #096E80",
"!0 	c #075C70",
"~0 	c #0F5368",
"{0 	c #0E475B",
"]0 	c #0B3B4F",
"^0 	c #0C3549",
"/0 	c #0C3144",
"(0 	c #0D3043",
"_0 	c #153647",
":0 	c #1F3F4C",
"<0 	c #2B4953",
"[0 	c #29464C",
"}0 	c #162F36",
"|0 	c #152930",
"10 	c #203138",
"20 	c #202F34",
"30 	c #0A181B",
"40 	c #0B1618",
"50 	c #101B1D",
"60 	c #081315",
"70 	c #0E181A",
"80 	c #11191C",
"90 	c #101519",
"00 	c #14151A",
"a0 	c #19161D",
"b0 	c #221F26",
"c0 	c #131218",
"d0 	c #0E1116",
"e0 	c #091016",
"f0 	c #05121A",
"g0 	c #0E1C27",
"h0 	c #091B29",
"i0 	c #112435",
"j0 	c #0A1C34",
"k0 	c #162743",
"l0 	c #1C2F4D",
"m0 	c #2A425E",
"n0 	c #324C65",
"o0 	c #2D4C61",
"p0 	c #36576A",
"q0 	c #89A6B4",
"r0 	c #53646C",
"s0 	c #404B4F",
"t0 	c #2D3B3E",
"u0 	c #485657",
"v0 	c #263435",
"w0 	c #142424",
"x0 	c #172629",
"y0 	c #505F62",
"z0 	c #425156",
"A0 	c #5A696E",
"B0 	c #68757B",
"C0 	c #66737B",
"D0 	c #849199",
"E0 	c #A3AEB4",
"F0 	c #646A6A",
"G0 	c #5E6464",
"H0 	c #868B8E",
"I0 	c #979FA1",
"J0 	c #899394",
"K0 	c #8D9799",
"L0 	c #A3AEB2",
"M0 	c #B8C6C9",
"N0 	c #AAB9BE",
"O0 	c #75868D",
"P0 	c #7E9198",
"Q0 	c #718890",
"R0 	c #3F585F",
"S0 	c #1E3640",
"T0 	c #17333E",
"U0 	c #6D8C9E",
"V0 	c #81A2B5",
"W0 	c #7394A7",
"X0 	c #9EBFD2",
"Y0 	c #7898AD",
"Z0 	c #364F63",
"`0 	c #001B2E",
" a 	c #658499",
".a 	c #6186A0",
"+a 	c #4E7999",
"@a 	c #477292",
"#a 	c #698BA7",
"$a 	c #516A80",
"%a 	c #000E1D",
"&a 	c #04121D",
"*a 	c #365162",
"=a 	c #376179",
"-a 	c #32728D",
";a 	c #2A819D",
">a 	c #259EB9",
",a 	c #31D7ED",
"'a 	c #1AE5F4",
")a 	c #13FCFF",
"!a 	c #08FFFF",
"~a 	c #0BFFFF",
"{a 	c #0DFFFF",
"]a 	c #0BFEFA",
"^a 	c #06F9F7",
"/a 	c #0DFBFD",
"(a 	c #19FEFF",
"_a 	c #1AFCFF",
":a 	c #18FAFF",
"<a 	c #1CEFFF",
"[a 	c #24DDFB",
"}a 	c #28CFF1",
"|a 	c #26C4E7",
"1a 	c #25BADB",
"2a 	c #29B3D8",
"3a 	c #30AED4",
"4a 	c #36A6CC",
"5a 	c #359CBF",
"6a 	c #3491B0",
"7a 	c #3C8DA8",
"8a 	c #478BA2",
"9a 	c #458698",
"0a 	c #387C85",
"aa 	c #29727B",
"ba 	c #196678",
"ca 	c #12697D",
"da 	c #0F788B",
"ea 	c #1694A2",
"fa 	c #25BCC3",
"ga 	c #36E2E6",
"ha 	c #1BF2F7",
"ia 	c #17F2F8",
"ja 	c #17F6FD",
"ka 	c #13F6FD",
"la 	c #10F7FF",
"ma 	c #11FBFF",
"na 	c #13FAFF",
"oa 	c #21FAFF",
"pa 	c #25F6FB",
"qa 	c #28F3F9",
"ra 	c #29EBF4",
"sa 	c #32E8F3",
"ta 	c #28C0CD",
"ua 	c #20A5B4",
"va 	c #0C7F91",
"wa 	c #0B6E81",
"xa 	c #0B6074",
"ya 	c #10596C",
"za 	c #125365",
"Aa 	c #114A5D",
"Ba 	c #0E4355",
"Ca 	c #103F4F",
"Da 	c #0A3440",
"Ea 	c #163B44",
"Fa 	c #20404B",
"Ga 	c #122E39",
"Ha 	c #273F49",
"Ia 	c #30434A",
"Ja 	c #283940",
"Ka 	c #27363B",
"La 	c #122126",
"Ma 	c #09171A",
"Na 	c #050E13",
"Oa 	c #040B11",
"Pa 	c #0B0E15",
"Qa 	c #0F0F17",
"Ra 	c #16151B",
"Sa 	c #1D1B1E",
"Ta 	c #1A181B",
"Ua 	c #191A1C",
"Va 	c #1A2020",
"Wa 	c #11191B",
"Xa 	c #071113",
"Ya 	c #071017",
"Za 	c #111924",
"`a 	c #070E1E",
" b 	c #030A1D",
".b 	c #0A1026",
"+b 	c #051024",
"@b 	c #061528",
"#b 	c #102834",
"$b 	c #546A75",
"%b 	c #45545B",
"&b 	c #77848A",
"*b 	c #9CA9AF",
"=b 	c #616E74",
"-b 	c #3F4D50",
";b 	c #38474A",
">b 	c #3D4C4F",
",b 	c #4E6064",
"'b 	c #56676E",
")b 	c #2B3C43",
"!b 	c #172830",
"~b 	c #515F6A",
"{b 	c #78868F",
"]b 	c #A2AFB5",
"^b 	c #9FAAAE",
"/b 	c #9EA9AD",
"(b 	c #8D989C",
"_b 	c #4C5A5D",
":b 	c #344147",
"<b 	c #617077",
"[b 	c #61747B",
"}b 	c #536770",
"|b 	c #536974",
"1b 	c #445F6A",
"2b 	c #415D69",
"3b 	c #47636F",
"4b 	c #607D8B",
"5b 	c #4A6B7C",
"6b 	c #406474",
"7b 	c #305366",
"8b 	c #46697C",
"9b 	c #375A6D",
"0b 	c #325568",
"ab 	c #173145",
"bb 	c #61859D",
"cb 	c #6793B0",
"db 	c #55819E",
"eb 	c #4C718B",
"fb 	c #536F85",
"gb 	c #122534",
"hb 	c #061625",
"ib 	c #1D2E3E",
"jb 	c #3B5669",
"kb 	c #3A647D",
"lb 	c #2F6F8B",
"mb 	c #1F7694",
"nb 	c #219DB7",
"ob 	c #2BD4E9",
"pb 	c #10DBEA",
"qb 	c #08EFF9",
"rb 	c #07FAFF",
"sb 	c #0AFBFF",
"tb 	c #0CFAFD",
"ub 	c #11FCFF",
"vb 	c #14FFFF",
"wb 	c #11FFFF",
"xb 	c #13FEFF",
"yb 	c #0EF5FF",
"zb 	c #10F6FF",
"Ab 	c #1DF4FF",
"Bb 	c #35EFFF",
"Cb 	c #43E8FF",
"Db 	c #42DDF9",
"Eb 	c #3CCDE8",
"Fb 	c #3BBEDA",
"Gb 	c #42B5D2",
"Hb 	c #40A1C1",
"Ib 	c #4A9BB9",
"Jb 	c #488DAA",
"Kb 	c #3E7691",
"Lb 	c #336077",
"Mb 	c #2C5567",
"Nb 	c #265461",
"Ob 	c #225661",
"Pb 	c #2B6573",
"Qb 	c #276979",
"Rb 	c #266A7D",
"Sb 	c #176476",
"Tb 	c #086173",
"Ub 	c #0B7585",
"Vb 	c #219CAB",
"Wb 	c #2CBAC8",
"Xb 	c #38DCE6",
"Yb 	c #2DE3EE",
"Zb 	c #2AF1F8",
"`b 	c #26F9FF",
" c 	c #1DF6FD",
".c 	c #15F4FB",
"+c 	c #15F5FD",
"@c 	c #14F7FE",
"#c 	c #14F9FE",
"$c 	c #15FAFD",
"%c 	c #17F8FC",
"&c 	c #15F3F8",
"*c 	c #22F9FE",
"=c 	c #2AFBFF",
"-c 	c #2BF2F9",
";c 	c #34F0F9",
">c 	c #38E9F1",
",c 	c #31D3DE",
"'c 	c #25B7C4",
")c 	c #199BA9",
"!c 	c #0F8090",
"~c 	c #066C7B",
"{c 	c #055E70",
"]c 	c #0A5666",
"^c 	c #175061",
"/c 	c #254E60",
"(c 	c #0E3345",
"_c 	c #0C2D3E",
":c 	c #122F3F",
"<c 	c #243E4B",
"[c 	c #253B48",
"}c 	c #384C57",
"|c 	c #384A54",
"1c 	c #394A52",
"2c 	c #2A3940",
"3c 	c #0B181E",
"4c 	c #061117",
"5c 	c #051012",
"6c 	c #060F0E",
"7c 	c #0C120E",
"8c 	c #101612",
"9c 	c #141A16",
"0c 	c #111514",
"ac 	c #161719",
"bc 	c #111016",
"cc 	c #0E0C17",
"dc 	c #0F0D1A",
"ec 	c #100F1D",
"fc 	c #060815",
"gc 	c #020814",
"hc 	c #08121C",
"ic 	c #0A1B22",
"jc 	c #0C191F",
"kc 	c #0D181E",
"lc 	c #283339",
"mc 	c #435056",
"nc 	c #364349",
"oc 	c #8F9EA3",
"pc 	c #8D9CA1",
"qc 	c #637279",
"rc 	c #34434A",
"sc 	c #3D4E58",
"tc 	c #2B3C46",
"uc 	c #2E3E4B",
"vc 	c #40505D",
"wc 	c #30404D",
"xc 	c #31444B",
"yc 	c #21343A",
"zc 	c #3F5258",
"Ac 	c #566970",
"Bc 	c #6B7E85",
"Cc 	c #6D7F89",
"Dc 	c #8DA1AA",
"Ec 	c #5C727F",
"Fc 	c #4D6472",
"Gc 	c #66808F",
"Hc 	c #4F6A7D",
"Ic 	c #516D82",
"Jc 	c #426176",
"Kc 	c #3B5B70",
"Lc 	c #4F6F84",
"Mc 	c #466778",
"Nc 	c #537483",
"Oc 	c #527384",
"Pc 	c #58798A",
"Qc 	c #597A8B",
"Rc 	c #5A7B8C",
"Sc 	c #6B8B9F",
"Tc 	c #2F4D63",
"Uc 	c #395D73",
"Vc 	c #204C67",
"Wc 	c #75A2BF",
"Xc 	c #638BA5",
"Yc 	c #031625",
"Zc 	c #0F2437",
"`c 	c #3C586E",
" d 	c #416A86",
".d 	c #3A7796",
"+d 	c #1F7896",
"@d 	c #26A4BD",
"#d 	c #2DD8EA",
"$d 	c #15E5F1",
"%d 	c #09F2F9",
"&d 	c #09FCFF",
"*d 	c #10FDFF",
"=d 	c #10F9FF",
"-d 	c #15FAFF",
";d 	c #15FDFF",
">d 	c #10FEFF",
",d 	c #13FFFF",
"'d 	c #15FEFF",
")d 	c #18FBFF",
"!d 	c #1AE9F9",
"~d 	c #22CEE6",
"{d 	c #21B7D2",
"]d 	c #14A1BC",
"^d 	c #0688A0",
"/d 	c #007088",
"(d 	c #005F77",
"_d 	c #004F6A",
":d 	c #00415D",
"<d 	c #003752",
"[d 	c #07334E",
"}d 	c #112F49",
"|d 	c #122B41",
"1d 	c #112C3D",
"2d 	c #12323F",
"3d 	c #0F3743",
"4d 	c #093542",
"5d 	c #143F4F",
"6d 	c #285666",
"7d 	c #356579",
"8d 	c #326C80",
"9d 	c #206B80",
"0d 	c #0C697B",
"ad 	c #057A8B",
"bd 	c #0F99A6",
"cd 	c #34E5ED",
"dd 	c #2DF2FA",
"ed 	c #29F2FA",
"fd 	c #1FF3F7",
"gd 	c #14F4F6",
"hd 	c #12FAFC",
"id 	c #14F9FC",
"jd 	c #0DF1F4",
"kd 	c #1CFAFD",
"ld 	c #1EF5FA",
"md 	c #2DEEF7",
"nd 	c #3AECF6",
"od 	c #3FE1EC",
"pd 	c #33C9D7",
"qd 	c #1FA9B6",
"rd 	c #158D9D",
"sd 	c #0A6A7A",
"td 	c #0E5D6E",
"ud 	c #0E576A",
"vd 	c #0C4F62",
"wd 	c #134D61",
"xd 	c #0B3E51",
"yd 	c #022B3F",
"zd 	c #15384B",
"Ad 	c #142F42",
"Bd 	c #1F3646",
"Cd 	c #283A46",
"Dd 	c #283B42",
"Ed 	c #1F3236",
"Fd 	c #1E3030",
"Gd 	c #142421",
"Hd 	c #071311",
"Id 	c #0C1713",
"Jd 	c #131917",
"Kd 	c #0C100F",
"Ld 	c #191A1E",
"Md 	c #15161B",
"Nd 	c #1E1E26",
"Od 	c #12151E",
"Pd 	c #1A1E27",
"Qd 	c #0B141B",
"Rd 	c #0B1419",
"Sd 	c #050E15",
"Td 	c #040D12",
"Ud 	c #010A11",
"Vd 	c #00040A",
"Wd 	c #0F1C22",
"Xd 	c #1F2C32",
"Yd 	c #334249",
"Zd 	c #4F5D66",
"`d 	c #8795A0",
" e 	c #5A6875",
".e 	c #465663",
"+e 	c #243141",
"@e 	c #2F414D",
"#e 	c #41555E",
"$e 	c #4A6169",
"%e 	c #2F464E",
"&e 	c #283F47",
"*e 	c #536A72",
"=e 	c #6F868E",
"-e 	c #718792",
";e 	c #889EA9",
">e 	c #849BA9",
",e 	c #7B95A4",
"'e 	c #516C7F",
")e 	c #557186",
"!e 	c #69889D",
"~e 	c #54748B",
"{e 	c #61839C",
"]e 	c #6B8EA4",
"^e 	c #698A9B",
"/e 	c #698996",
"(e 	c #81A1AE",
"_e 	c #60808D",
":e 	c #5A7A87",
"<e 	c #597684",
"[e 	c #6D8A98",
"}e 	c #6B8694",
"|e 	c #617D8B",
"1e 	c #698292",
"2e 	c #708A99",
"3e 	c #728A98",
"4e 	c #889FAD",
"5e 	c #8EA5B3",
"6e 	c #8BA0B1",
"7e 	c #B2C5D6",
"8e 	c #BACBDD",
"9e 	c #9BADBB",
"0e 	c #74878E",
"ae 	c #8FA1A5",
"be 	c #839295",
"ce 	c #7D8A90",
"de 	c #7C878D",
"ee 	c #626A71",
"fe 	c #848C91",
"ge 	c #889495",
"he 	c #3E6277",
"ie 	c #36627D",
"je 	c #4F7C99",
"ke 	c #6591AA",
"le 	c #668CA3",
"me 	c #112D42",
"ne 	c #001627",
"oe 	c #10293F",
"pe 	c #28465E",
"qe 	c #446B8A",
"re 	c #417C9C",
"se 	c #2C87A4",
"te 	c #21A3B9",
"ue 	c #22D4E2",
"ve 	c #18EEF6",
"we 	c #0EFDFF",
"xe 	c #0EFBFF",
"ye 	c #16F9FF",
"ze 	c #0FFDFF",
"Ae 	c #0EFFFF",
"Be 	c #0CFFFF",
"Ce 	c #1CF2FA",
"De 	c #15CCDA",
"Ee 	c #18A8C0",
"Fe 	c #3EB7D4",
"Ge 	c #32A4BF",
"He 	c #2591AB",
"Ie 	c #137C92",
"Je 	c #02627A",
"Ke 	c #004C64",
"Le 	c #003953",
"Me 	c #08415C",
"Ne 	c #14405B",
"Oe 	c #1E3853",
"Pe 	c #25354F",
"Qe 	c #1C2B42",
"Re 	c #202F42",
"Se 	c #192F3C",
"Te 	c #19313D",
"Ue 	c #102B36",
"Ve 	c #031F2B",
"We 	c #163343",
"Xe 	c #315467",
"Ye 	c #376273",
"Ze 	c #366E7F",
"`e 	c #2A6E81",
" f 	c #0D6374",
".f 	c #056C7B",
"+f 	c #007984",
"@f 	c #0C99A2",
"#f 	c #2CC7CC",
"$f 	c #38DDE1",
"%f 	c #35EDEF",
"&f 	c #28F4F5",
"*f 	c #1AF4F6",
"=f 	c #1CF7FB",
"-f 	c #1AFBFF",
";f 	c #14FCFF",
">f 	c #11FAFE",
",f 	c #14FDFF",
"'f 	c #17FEFF",
")f 	c #13F3FB",
"!f 	c #1DF7FF",
"~f 	c #24EFF6",
"{f 	c #2AEFF8",
"]f 	c #34E9F2",
"^f 	c #25BFC9",
"/f 	c #2AB4BF",
"(f 	c #1594A3",
"_f 	c #017486",
":f 	c #03687A",
"<f 	c #075C71",
"[f 	c #094C66",
"}f 	c #124862",
"|f 	c #143E56",
"1f 	c #1A3A51",
"2f 	c #1F3950",
"3f 	c #182E43",
"4f 	c #24394A",
"5f 	c #2B4250",
"6f 	c #2E4650",
"7f 	c #3F565C",
"8f 	c #31444A",
"9f 	c #213035",
"0f 	c #081317",
"af 	c #041215",
"bf 	c #041318",
"cf 	c #08171E",
"df 	c #000D14",
"ef 	c #0D1C23",
"ff 	c #020F18",
"gf 	c #0F131E",
"hf 	c #131720",
"if 	c #10181B",
"jf 	c #0B1218",
"kf 	c #0A1318",
"lf 	c #091217",
"mf 	c #000409",
"nf 	c #000A0E",
"of 	c #020D13",
"pf 	c #101A23",
"qf 	c #212B35",
"rf 	c #313E47",
"sf 	c #424E5A",
"tf 	c #33414C",
"uf 	c #44505E",
"vf 	c #344451",
"wf 	c #4E646F",
"xf 	c #708892",
"yf 	c #718993",
"zf 	c #8199A3",
"Af 	c #7D939E",
"Bf 	c #8CA3AB",
"Cf 	c #C7DDE8",
"Df 	c #C2D8E3",
"Ef 	c #93ABB7",
"Ff 	c #839DAC",
"Gf 	c #7994A5",
"Hf 	c #6E8B9D",
"If 	c #7291A5",
"Jf 	c #6F8EA3",
"Kf 	c #7895A3",
"Lf 	c #8CA8B3",
"Mf 	c #91ACB7",
"Nf 	c #8EA9B4",
"Of 	c #89A4AD",
"Pf 	c #99B1BB",
"Qf 	c #A1B9C3",
"Rf 	c #ABC2CA",
"Sf 	c #B8CFD7",
"Tf 	c #AABEC5",
"Uf 	c #B4C8CF",
"Vf 	c #CADDE3",
"Wf 	c #B0C3C9",
"Xf 	c #A2B5BB",
"Yf 	c #A0B3B9",
"Zf 	c #A2B3BB",
"`f 	c #9AA6B2",
" g 	c #7B8891",
".g 	c #5E6C6F",
"+g 	c #73827F",
"@g 	c #81908D",
"#g 	c #737F7D",
"$g 	c #707A7B",
"%g 	c #6B7375",
"&g 	c #7D847D",
"*g 	c #9FA7A2",
"=g 	c #355F78",
"-g 	c #52819B",
";g 	c #517F99",
">g 	c #5F89A1",
",g 	c #46697F",
"'g 	c #405C72",
")g 	c #59758D",
"!g 	c #567591",
"~g 	c #4A7192",
"{g 	c #407899",
"]g 	c #368BA8",
"^g 	c #259FB6",
"/g 	c #2DD7E6",
"(g 	c #19E5EC",
"_g 	c #09FBFC",
":g 	c #12FDFF",
"<g 	c #13FBFF",
"[g 	c #13F8FD",
"}g 	c #10F9FD",
"|g 	c #0FFFFF",
"1g 	c #0FFAFD",
"2g 	c #32E0E7",
"3g 	c #23A4BA",
"4g 	c #3699B8",
"5g 	c #48A1C1",
"6g 	c #5AB1CF",
"7g 	c #54AEC9",
"8g 	c #52A9C4",
"9g 	c #2C7B99",
"0g 	c #1F6682",
"ag 	c #064662",
"bg 	c #114461",
"cg 	c #1D3F5B",
"dg 	c #1E3350",
"eg 	c #263650",
"fg 	c #1D283E",
"gg 	c #2C3942",
"hg 	c #16242F",
"ig 	c #1C2D37",
"jg 	c #11232F",
"kg 	c #132634",
"lg 	c #223947",
"mg 	c #274454",
"ng 	c #305565",
"og 	c #366776",
"pg 	c #2E6D7C",
"qg 	c #22707C",
"rg 	c #07656D",
"sg 	c #006469",
"tg 	c #0C8387",
"ug 	c #0E989A",
"vg 	c #26C8CB",
"wg 	c #30E2E6",
"xg 	c #35EEF1",
"yg 	c #2AEBF0",
"zg 	c #23F0F3",
"Ag 	c #25FFFF",
"Bg 	c #22FFFF",
"Cg 	c #11F9FD",
"Dg 	c #0BF9FC",
"Eg 	c #0AF7FF",
"Fg 	c #12FCFF",
"Gg 	c #18FFFF",
"Hg 	c #14FBFF",
"Ig 	c #1AF3FA",
"Jg 	c #3BF3FB",
"Kg 	c #3CEDF5",
"Lg 	c #34DBE4",
"Mg 	c #2CC4D1",
"Ng 	c #1CA4B4",
"Og 	c #0A8293",
"Pg 	c #096E82",
"Qg 	c #0F6479",
"Rg 	c #0F566C",
"Sg 	c #195168",
"Tg 	c #1C4A61",
"Ug 	c #163F55",
"Vg 	c #16394D",
"Wg 	c #17384B",
"Xg 	c #1F3E50",
"Yg 	c #0E2E3D",
"Zg 	c #193644",
"`g 	c #223C49",
" h 	c #404E59",
".h 	c #424F58",
"+h 	c #2E3B44",
"@h 	c #1A2D34",
"#h 	c #04181F",
"$h 	c #00131A",
"%h 	c #071A21",
"&h 	c #05121B",
"*h 	c #040D16",
"=h 	c #0B0D19",
"-h 	c #0E0E18",
";h 	c #0E1118",
">h 	c #12171B",
",h 	c #0D1518",
"'h 	c #1C2329",
")h 	c #171E24",
"!h 	c #161F24",
"~h 	c #010914",
"{h 	c #000610",
"]h 	c #000814",
"^h 	c #030F1B",
"/h 	c #22303D",
"(h 	c #0E212F",
"_h 	c #213846",
":h 	c #2F4552",
"<h 	c #3F5260",
"[h 	c #576B76",
"}h 	c #798B95",
"|h 	c #93A6AD",
"1h 	c #B9CCD2",
"2h 	c #A6B9C0",
"3h 	c #B0C4CD",
"4h 	c #ABC1CC",
"5h 	c #A8C0CC",
"6h 	c #ABC6D1",
"7h 	c #AEC8D5",
"8h 	c #B6D0DD",
"9h 	c #ABC3CD",
"0h 	c #B7CED6",
"ah 	c #AEC5CD",
"bh 	c #A5B9C0",
"ch 	c #A6B9BF",
"dh 	c #81949A",
"eh 	c #8A9A9A",
"fh 	c #748484",
"gh 	c #576766",
"hh 	c #6E7C7C",
"ih 	c #637370",
"jh 	c #4F5F5C",
"kh 	c #4F5D5D",
"lh 	c #757E85",
"mh 	c #71787E",
"nh 	c #65706C",
"oh 	c #727D75",
"ph 	c #737F75",
"qh 	c #68736B",
"rh 	c #767C7A",
"sh 	c #717370",
"th 	c #70736C",
"uh 	c #606358",
"vh 	c #5C6256",
"wh 	c #99A49F",
"xh 	c #2B546E",
"yh 	c #54839D",
"zh 	c #477692",
"Ah 	c #507E98",
"Bh 	c #587D97",
"Ch 	c #5F819A",
"Dh 	c #6C8EA9",
"Eh 	c #6285A1",
"Fh 	c #608BAD",
"Gh 	c #5288AA",
"Hh 	c #3B86A5",
"Ih 	c #339BB4",
"Jh 	c #32C1D2",
"Kh 	c #25F5F9",
"Lh 	c #12F8F6",
"Mh 	c #11FFFD",
"Nh 	c #0DFFFE",
"Oh 	c #0AFFFF",
"Ph 	c #17FDFD",
"Qh 	c #17ECE6",
"Rh 	c #31E1E1",
"Sh 	c #2DA6B9",
"Th 	c #4095B4",
"Uh 	c #488DB4",
"Vh 	c #498DB4",
"Wh 	c #4791B6",
"Xh 	c #57A5CB",
"Yh 	c #65B3D9",
"Zh 	c #52A0C4",
"`h 	c #3A86A6",
" i 	c #1F6481",
".i 	c #114763",
"+i 	c #0D3750",
"@i 	c #103049",
"#i 	c #1D3247",
"$i 	c #293243",
"%i 	c #171D29",
"&i 	c #1C222E",
"*i 	c #1C242F",
"=i 	c #17212B",
"-i 	c #1F2C35",
";i 	c #182631",
">i 	c #22343E",
",i 	c #273D48",
"'i 	c #223E49",
")i 	c #193B45",
"!i 	c #2B565F",
"~i 	c #3C6E77",
"{i 	c #377077",
"]i 	c #2F6E75",
"^i 	c #17646C",
"/i 	c #086A75",
"(i 	c #097F8B",
"_i 	c #1CA2AB",
":i 	c #32CBD1",
"<i 	c #38E5E9",
"[i 	c #24F4F6",
"}i 	c #1FF9FB",
"|i 	c #1CFCFE",
"1i 	c #1DFFFF",
"2i 	c #15F8FF",
"3i 	c #11F5FE",
"4i 	c #0DF5FF",
"5i 	c #11F9FF",
"6i 	c #11F0F5",
"7i 	c #18F1F6",
"8i 	c #1BF5F7",
"9i 	c #1FF6F9",
"0i 	c #23EEF2",
"ai 	c #24E4E7",
"bi 	c #2BDADF",
"ci 	c #15AFB7",
"di 	c #068C97",
"ei 	c #037381",
"fi 	c #076274",
"gi 	c #10586E",
"hi 	c #18526A",
"ii 	c #184761",
"ji 	c #1A445C",
"ki 	c #153F55",
"li 	c #12384B",
"mi 	c #0F2E42",
"ni 	c #081F31",
"oi 	c #121F32",
"pi 	c #252D40",
"qi 	c #333A4C",
"ri 	c #404958",
"si 	c #2A3845",
"ti 	c #3E4E5B",
"ui 	c #374955",
"vi 	c #1B2C36",
"wi 	c #0B0F1A",
"xi 	c #06040F",
"yi 	c #0A0710",
"zi 	c #070A11",
"Ai 	c #080F15",
"Bi 	c #01080E",
"Ci 	c #151C22",
"Di 	c #222931",
"Ei 	c #212934",
"Fi 	c #16202A",
"Gi 	c #071424",
"Hi 	c #0D1D2D",
"Ii 	c #1E2F41",
"Ji 	c #162636",
"Ki 	c #142431",
"Li 	c #4A5662",
"Mi 	c #9AA4AD",
"Ni 	c #B0BBBF",
"Oi 	c #ADB7B8",
"Pi 	c #BCC6C7",
"Qi 	c #A1ADAB",
"Ri 	c #A5B1B1",
"Si 	c #9BA9A9",
"Ti 	c #8F9D9D",
"Ui 	c #718180",
"Vi 	c #6D7D7D",
"Wi 	c #7F9193",
"Xi 	c #6E8084",
"Yi 	c #75878B",
"Zi 	c #697B7F",
"`i 	c #617073",
" j 	c #5E6D70",
".j 	c #6B797A",
"+j 	c #667173",
"@j 	c #5E6A6A",
"#j 	c #5D6967",
"$j 	c #5E6965",
"%j 	c #56615B",
"&j 	c #707A72",
"*j 	c #606B63",
"=j 	c #57625A",
"-j 	c #67706B",
";j 	c #797D80",
">j 	c #888C8D",
",j 	c #858C84",
"'j 	c #7D8578",
")j 	c #6D786A",
"!j 	c #9CA19B",
"~j 	c #B9BBB8",
"{j 	c #9B9A96",
"]j 	c #787870",
"^j 	c #7D7E70",
"/j 	c #565A4B",
"(j 	c #3A443B",
"_j 	c #788686",
":j 	c #527F9C",
"<j 	c #5182A0",
"[j 	c #497A98",
"}j 	c #4D7994",
"|j 	c #6991AB",
"1j 	c #688FAC",
"2j 	c #6790AE",
"3j 	c #1E4B6C",
"4j 	c #2C6181",
"5j 	c #5493B2",
"6j 	c #4094B0",
"7j 	c #38A8BE",
"8j 	c #0C9BAB",
"9j 	c #25D2D9",
"0j 	c #29ECEE",
"aj 	c #27F9F8",
"bj 	c #1AF9F6",
"cj 	c #0FF8F4",
"dj 	c #0AFAF7",
"ej 	c #0BFFFD",
"fj 	c #10FFFF",
"gj 	c #19F7FA",
"hj 	c #27F8F3",
"ij 	c #2FDBDD",
"jj 	c #39A9BF",
"kj 	c #5FABCD",
"lj 	c #5E9CC3",
"mj 	c #5590B8",
"nj 	c #478BB0",
"oj 	c #448EB3",
"pj 	c #4C96BB",
"qj 	c #56A2C6",
"rj 	c #65B1D1",
"sj 	c #589FBF",
"tj 	c #437E9C",
"uj 	c #306380",
"vj 	c #1D4964",
"wj 	c #23455E",
"xj 	c #233647",
"yj 	c #182430",
"zj 	c #1A242E",
"Aj 	c #353E47",
"Bj 	c #333D46",
"Cj 	c #2B3840",
"Dj 	c #24373E",
"Ej 	c #182C33",
"Fj 	c #1B343B",
"Gj 	c #28454B",
"Hj 	c #304F54",
"Ij 	c #416971",
"Jj 	c #26606E",
"Kj 	c #155E6D",
"Lj 	c #08626D",
"Mj 	c #006A74",
"Nj 	c #038289",
"Oj 	c #14A8AC",
"Pj 	c #34E3E8",
"Qj 	c #2BE4E9",
"Rj 	c #2FF0F9",
"Sj 	c #2BF4FE",
"Tj 	c #23F3FD",
"Uj 	c #1BF4FD",
"Vj 	c #18F7FF",
"Wj 	c #17FCFF",
"Xj 	c #12FEFE",
"Yj 	c #12FFFF",
"Zj 	c #0EFFFD",
"`j 	c #0EFDFA",
" k 	c #17F1F0",
".k 	c #2EF8FA",
"+k 	c #34EAEE",
"@k 	c #37D8E0",
"#k 	c #29B5C2",
"$k 	c #1D97A6",
"%k 	c #198496",
"&k 	c #0C6D80",
"*k 	c #035A6D",
"=k 	c #00495B",
"-k 	c #024556",
";k 	c #10495C",
">k 	c #103D50",
",k 	c #0F2E43",
"'k 	c #19283F",
")k 	c #1B273D",
"!k 	c #142134",
"~k 	c #162334",
"{k 	c #32404D",
"]k 	c #273039",
"^k 	c #2C2F38",
"/k 	c #23262D",
"(k 	c #141B23",
"_k 	c #0E171E",
":k 	c #020B12",
"<k 	c #040D14",
"[k 	c #030C13",
"}k 	c #09121B",
"|k 	c #2C3846",
"1k 	c #0F1C2C",
"2k 	c #132030",
"3k 	c #1F2C3F",
"4k 	c #2C3949",
"5k 	c #596571",
"6k 	c #959EA7",
"7k 	c #9BA2A8",
"8k 	c #6A7070",
"9k 	c #535854",
"0k 	c #5E635D",
"ak 	c #5A5F58",
"bk 	c #5F645D",
"ck 	c #4D544C",
"dk 	c #596058",
"ek 	c #535D54",
"fk 	c #555F57",
"gk 	c #5E6869",
"hk 	c #5D686A",
"ik 	c #4D5959",
"jk 	c #4B5556",
"kk 	c #5C6665",
"lk 	c #77807F",
"mk 	c #707676",
"nk 	c #5F6563",
"ok 	c #797F7B",
"pk 	c #878D89",
"qk 	c #8F948E",
"rk 	c #8C918B",
"sk 	c #868B84",
"tk 	c #A5ABA1",
"uk 	c #A5ADA2",
"vk 	c #8B908A",
"wk 	c #939395",
"xk 	c #7C7C7C",
"yk 	c #50534A",
"zk 	c #343A2C",
"Ak 	c #2C3425",
"Bk 	c #2D3329",
"Ck 	c #313330",
"Dk 	c #16120F",
"Ek 	c #6B6861",
"Fk 	c #6C6D5D",
"Gk 	c #565A49",
"Hk 	c #4A5547",
"Ik 	c #576663",
"Jk 	c #53809D",
"Kk 	c #5F92B1",
"Lk 	c #4C81A0",
"Mk 	c #5283A1",
"Nk 	c #6794B1",
"Ok 	c #709DBC",
"Pk 	c #6996B7",
"Qk 	c #4F80A0",
"Rk 	c #1B4E6D",
"Sk 	c #1C4E6F",
"Tk 	c #367191",
"Uk 	c #418EAA",
"Vk 	c #0A6E85",
"Wk 	c #1291A0",
"Xk 	c #25BDC8",
"Yk 	c #2BD8DE",
"Zk 	c #27E9E9",
"`k 	c #22F7F5",
" l 	c #19FBF9",
".l 	c #10F8F8",
"+l 	c #11F6F9",
"@l 	c #27F7FF",
"#l 	c #28EAF3",
"$l 	c #39D9E9",
"%l 	c #3FA8C6",
"&l 	c #59A1C7",
"*l 	c #5D9CBF",
"=l 	c #65A4C5",
"-l 	c #569DB9",
";l 	c #468DA9",
">l 	c #4C8FAC",
",l 	c #5594B3",
"'l 	c #4F8CAB",
")l 	c #66A1C1",
"!l 	c #76ACCE",
"~l 	c #71A3C6",
"{l 	c #6C9EC1",
"]l 	c #507F9B",
"^l 	c #2F586A",
"/l 	c #133745",
"(l 	c #0B2836",
"_l 	c #061D2B",
":l 	c #112331",
"<l 	c #313944",
"[l 	c #262F38",
"}l 	c #212C32",
"|l 	c #2A373D",
"1l 	c #203337",
"2l 	c #213639",
"3l 	c #0E2628",
"4l 	c #09262C",
"5l 	c #1D454F",
"6l 	c #2B5B67",
"7l 	c #3E727F",
"8l 	c #336D79",
"9l 	c #1F616F",
"0l 	c #166471",
"al 	c #106C7B",
"bl 	c #127C8A",
"cl 	c #2EA8B5",
"dl 	c #32BECB",
"el 	c #38D6E1",
"fl 	c #35E6EE",
"gl 	c #32F3F8",
"hl 	c #2CF9FC",
"il 	c #1EF5F7",
"jl 	c #16F6F6",
"kl 	c #16FCFC",
"ll 	c #10FCFC",
"ml 	c #10FEFE",
"nl 	c #0CFFFD",
"ol 	c #07FBF9",
"pl 	c #07FAF8",
"ql 	c #10FFFC",
"rl 	c #1CF0F3",
"sl 	c #29EBED",
"tl 	c #3FF2F6",
"ul 	c #2FDEE1",
"vl 	c #1FC1C4",
"wl 	c #169FA7",
"xl 	c #067C86",
"yl 	c #006572",
"zl 	c #005261",
"Al 	c #07485C",
"Bl 	c #18485E",
"Cl 	c #183851",
"Dl 	c #0F243F",
"El 	c #1C2C46",
"Fl 	c #0F1E33",
"Gl 	c #061824",
"Hl 	c #0E2128",
"Il 	c #122529",
"Jl 	c #17292D",
"Kl 	c #1F2E35",
"Ll 	c #24313A",
"Ml 	c #26333C",
"Nl 	c #26303A",
"Ol 	c #0A141E",
"Pl 	c #101A24",
"Ql 	c #07111D",
"Rl 	c #06121E",
"Sl 	c #000C1A",
"Tl 	c #000D1A",
"Ul 	c #091626",
"Vl 	c #192938",
"Wl 	c #1D2D3D",
"Xl 	c #182838",
"Yl 	c #0C192A",
"Zl 	c #6F7B89",
"`l 	c #9FA9B3",
" m 	c #B3BAC0",
".m 	c #5F6467",
"+m 	c #474946",
"@m 	c #4C4D47",
"#m 	c #494A42",
"$m 	c #47473D",
"%m 	c #3D3F32",
"&m 	c #56584B",
"*m 	c #595D4F",
"=m 	c #5C5F54",
"-m 	c #585E54",
";m 	c #6C726E",
">m 	c #696F6D",
",m 	c #7C8280",
"'m 	c #A8ACAB",
")m 	c #A7ABAA",
"!m 	c #888A87",
"~m 	c #737572",
"{m 	c #848683",
"]m 	c #858681",
"^m 	c #757671",
"/m 	c #60615C",
"(m 	c #555651",
"_m 	c #3E413A",
":m 	c #343730",
"<m 	c #21241D",
"[m 	c #12130E",
"}m 	c #0D0B0E",
"|m 	c #0D0B0C",
"1m 	c #040700",
"2m 	c #000400",
"3m 	c #000300",
"4m 	c #030305",
"5m 	c #030000",
"6m 	c #7D7A75",
"7m 	c #6B6C5C",
"8m 	c #646857",
"9m 	c #4B5749",
"0m 	c #5E6E6B",
"am 	c #5986A3",
"bm 	c #6499B9",
"cm 	c #5389AB",
"dm 	c #598EAD",
"em 	c #5083A2",
"fm 	c #72A3C4",
"gm 	c #6092B3",
"hm 	c #6DA0BD",
"im 	c #75A6C4",
"jm 	c #4A7595",
"km 	c #2B5879",
"lm 	c #013856",
"mm 	c #175D77",
"nm 	c #0E6A7F",
"om 	c #037486",
"pm 	c #169CA8",
"qm 	c #1FBCC5",
"rm 	c #2AE0E4",
"sm 	c #2AF4F6",
"tm 	c #1EF7FF",
"um 	c #25E7F1",
"vm 	c #47E6F9",
"wm 	c #48AFCE",
"xm 	c #579FC5",
"ym 	c #61A0C3",
"zm 	c #67A7C3",
"Am 	c #569CB5",
"Bm 	c #5195AC",
"Cm 	c #508CA6",
"Dm 	c #588EAA",
"Em 	c #5588A7",
"Fm 	c #578AA9",
"Gm 	c #4A7C9D",
"Hm 	c #487A9B",
"Im 	c #5B92B1",
"Jm 	c #598FAB",
"Km 	c #6EA1B6",
"Lm 	c #507E8E",
"Mm 	c #4D7485",
"Nm 	c #3D5E6F",
"Om 	c #1D3746",
"Pm 	c #192C3A",
"Qm 	c #232C35",
"Rm 	c #232E34",
"Sm 	c #182629",
"Tm 	c #142326",
"Um 	c #122426",
"Vm 	c #182A2C",
"Wm 	c #0C1F23",
"Xm 	c #041B23",
"Ym 	c #08202A",
"Zm 	c #324E5A",
"`m 	c #486877",
" n 	c #517889",
".n 	c #3A6B7A",
"+n 	c #256372",
"@n 	c #125F6F",
"#n 	c #127280",
"$n 	c #1B8F9C",
"%n 	c #25AEB6",
"&n 	c #35D0D5",
"*n 	c #3EE7EA",
"=n 	c #38ECED",
"-n 	c #31F5F4",
";n 	c #22F6F7",
">n 	c #19F7F8",
",n 	c #13F7F8",
"'n 	c #11F9F9",
")n 	c #0BFBFA",
"!n 	c #09F7F7",
"~n 	c #12FCFD",
"{n 	c #15FBFB",
"]n 	c #1BF9FA",
"^n 	c #17F3F3",
"/n 	c #1DF7F6",
"(n 	c #1EF9F5",
"_n 	c #34EDF0",
":n 	c #34DBE1",
"<n 	c #33CCD4",
"[n 	c #1DA6B0",
"}n 	c #027886",
"|n 	c #005A6B",
"1n 	c #00495F",
"2n 	c #024057",
"3n 	c #002D46",
"4n 	c #1F4760",
"5n 	c #12354B",
"6n 	c #001B2F",
"7n 	c #14313F",
"8n 	c #0C2A34",
"9n 	c #00191F",
"0n 	c #0B262D",
"an 	c #112530",
"bn 	c #12222F",
"cn 	c #62707D",
"dn 	c #33414E",
"en 	c #1C2A37",
"fn 	c #011224",
"gn 	c #000F21",
"hn 	c #07192D",
"in 	c #08192B",
"jn 	c #485865",
"kn 	c #95A2AB",
"ln 	c #A4AFB5",
"mn 	c #323C3E",
"nn 	c #2B3131",
"on 	c #545651",
"pn 	c #585953",
"qn 	c #7A7A70",
"rn 	c #74746A",
"sn 	c #7E7C70",
"tn 	c #88887C",
"un 	c #95958B",
"vn 	c #797B70",
"wn 	c #6A6B63",
"xn 	c #686B64",
"yn 	c #636560",
"zn 	c #5D5F5A",
"An 	c #4A4C47",
"Bn 	c #40413C",
"Cn 	c #2E2F2A",
"Dn 	c #21201C",
"En 	c #0F0E0A",
"Fn 	c #0D0C08",
"Gn 	c #070602",
"Hn 	c #010000",
"In 	c #030200",
"Jn 	c #060702",
"Kn 	c #0B0C07",
"Ln 	c #070604",
"Mn 	c #0E090D",
"Nn 	c #0E0C0D",
"On 	c #0F1008",
"Pn 	c #0C1206",
"Qn 	c #080E02",
"Rn 	c #030802",
"Sn 	c #030408",
"Tn 	c #040309",
"Un 	c #030004",
"Vn 	c #817D7A",
"Wn 	c #737466",
"Xn 	c #555948",
"Yn 	c #4E5A4E",
"Zn 	c #596C6A",
"`n 	c #5985A2",
" o 	c #5E93B3",
".o 	c #5991B2",
"+o 	c #5B91B3",
"@o 	c #679CBE",
"#o 	c #659ABA",
"$o 	c #5F95B1",
"%o 	c #5D8FAA",
"&o 	c #638CAA",
"*o 	c #6891AF",
"=o 	c #45728F",
"-o 	c #073F5A",
";o 	c #003E58",
">o 	c #126279",
",o 	c #126E85",
"'o 	c #0F7F93",
")o 	c #0F9CAD",
"!o 	c #18C0CB",
"~o 	c #1FE4EC",
"{o 	c #22F7FD",
"]o 	c #15F0F4",
"^o 	c #26F3F6",
"/o 	c #34DFE7",
"(o 	c #37A5C0",
"_o 	c #59A2C5",
":o 	c #66A5C6",
"<o 	c #6AA5C3",
"[o 	c #599BB5",
"}o 	c #5797B2",
"|o 	c #659BB7",
"1o 	c #5D8CAA",
"2o 	c #6594B2",
"3o 	c #6493AF",
"4o 	c #507F99",
"5o 	c #44768F",
"6o 	c #386C82",
"7o 	c #25596F",
"8o 	c #507C95",
"9o 	c #527A93",
"0o 	c #7296AC",
"ao 	c #648397",
"bo 	c #4D6879",
"co 	c #354B59",
"do 	c #0B1922",
"eo 	c #1C2931",
"fo 	c #1F2A30",
"go 	c #19262C",
"ho 	c #18252B",
"io 	c #17242A",
"jo 	c #171E28",
"ko 	c #1B222C",
"lo 	c #0A1D24",
"mo 	c #142C36",
"no 	c #36545E",
"oo 	c #3A6069",
"po 	c #396570",
"qo 	c #417582",
"ro 	c #2C6A77",
"so 	c #17616E",
"to 	c #055B68",
"uo 	c #0A6F7B",
"vo 	c #1E909A",
"wo 	c #31ADB5",
"xo 	c #3ED1D8",
"yo 	c #3AEBF1",
"zo 	c #2DF2F8",
"Ao 	c #21ECF2",
"Bo 	c #15EBED",
"Co 	c #15FDFD",
"Do 	c #0BF6F9",
"Eo 	c #0FF8FC",
"Fo 	c #16FAFD",
"Go 	c #18FCFD",
"Ho 	c #14F8F9",
"Io 	c #15F7F6",
"Jo 	c #18F3F7",
"Ko 	c #1AEFF3",
"Lo 	c #2EF5F8",
"Mo 	c #2EE7EC",
"No 	c #27D2D9",
"Oo 	c #18B0BB",
"Po 	c #1398A7",
"Qo 	c #097A8C",
"Ro 	c #005469",
"So 	c #00384F",
"To 	c #003449",
"Uo 	c #003044",
"Vo 	c #063040",
"Wo 	c #092D3B",
"Xo 	c #0E2B39",
"Yo 	c #0D202F",
"Zo 	c #081B2A",
"`o 	c #102332",
" p 	c #394A5A",
".p 	c #152636",
"+p 	c #213242",
"@p 	c #3C4D5D",
"#p 	c #415262",
"$p 	c #495A6A",
"%p 	c #728596",
"&p 	c #4E6172",
"*p 	c #516679",
"=p 	c #788DA0",
"-p 	c #5B7085",
";p 	c #2D4255",
">p 	c #596C7A",
",p 	c #8B9FA6",
"'p 	c #708188",
")p 	c #263232",
"!p 	c #5D625E",
"~p 	c #5C5F58",
"{p 	c #52534D",
"]p 	c #4F5048",
"^p 	c #3F3E39",
"/p 	c #292A24",
"(p 	c #20211C",
"_p 	c #161614",
":p 	c #0F0F0F",
"<p 	c #050706",
"[p 	c #000100",
"}p 	c #050600",
"|p 	c #010200",
"1p 	c #060500",
"2p 	c #090803",
"3p 	c #130F0C",
"4p 	c #0D0906",
"5p 	c #0C0805",
"6p 	c #130F0E",
"7p 	c #0E0A09",
"8p 	c #191514",
"9p 	c #110F10",
"0p 	c #0C0A0B",
"ap 	c #0B090A",
"bp 	c #151316",
"cp 	c #0C0A0D",
"dp 	c #0F0A10",
"ep 	c #0B060A",
"fp 	c #060701",
"gp 	c #010700",
"hp 	c #000500",
"ip 	c #020605",
"jp 	c #04040C",
"kp 	c #080613",
"lp 	c #030007",
"mp 	c #6D696A",
"np 	c #6F6F65",
"op 	c #53594B",
"pp 	c #4F5C52",
"qp 	c #6D8180",
"rp 	c #55829F",
"sp 	c #5587A8",
"tp 	c #5C92B4",
"up 	c #5D93B5",
"vp 	c #4F85A9",
"wp 	c #6298BA",
"xp 	c #568DAB",
"yp 	c #5A8DA8",
"zp 	c #517E9B",
"Ap 	c #5C88A5",
"Bp 	c #77A4C1",
"Cp 	c #6E9FBD",
"Dp 	c #3F7694",
"Ep 	c #0F4C69",
"Fp 	c #0D526F",
"Gp 	c #085E77",
"Hp 	c #027185",
"Ip 	c #018A9C",
"Jp 	c #04AAB8",
"Kp 	c #11CDD8",
"Lp 	c #1EE6F3",
"Mp 	c #29F3FD",
"Np 	c #2FCFDB",
"Op 	c #3AA4BC",
"Pp 	c #5CA3C3",
"Qp 	c #548DAB",
"Rp 	c #5C92AE",
"Sp 	c #69A3BB",
"Tp 	c #6DA5BE",
"Up 	c #6FA1BC",
"Vp 	c #6895B2",
"Wp 	c #5C89A6",
"Xp 	c #6896B0",
"Yp 	c #54849B",
"Zp 	c #48788E",
"`p 	c #59899D",
" q 	c #416F86",
".q 	c #2E5670",
"+q 	c #375B73",
"@q 	c #4A6D81",
"#q 	c #6C8B9D",
"$q 	c #7793A1",
"%q 	c #728997",
"&q 	c #394B57",
"*q 	c #273842",
"=q 	c #22303B",
"-q 	c #12202B",
";q 	c #0E1C25",
">q 	c #1C2A33",
",q 	c #1A2831",
"'q 	c #1B252E",
")q 	c #2B2E37",
"!q 	c #1A1D26",
"~q 	c #1D242C",
"{q 	c #1D3036",
"]q 	c #1C3339",
"^q 	c #0F2A31",
"/q 	c #17353D",
"(q 	c #294A53",
"_q 	c #305460",
":q 	c #416B79",
"<q 	c #3E6F7D",
"[q 	c #326D7B",
"}q 	c #236975",
"|q 	c #12606C",
"1q 	c #0E707B",
"2q 	c #088B95",
"3q 	c #1EB5BE",
"4q 	c #32D5DC",
"5q 	c #35E7EB",
"6q 	c #32F2F5",
"7q 	c #26F4F4",
"8q 	c #19F3F4",
"9q 	c #19FAFC",
"0q 	c #0EF8F9",
"aq 	c #12FBFF",
"bq 	c #0FFEFF",
"cq 	c #0AF9FC",
"dq 	c #0EFCFE",
"eq 	c #10FAFB",
"fq 	c #18F9FB",
"gq 	c #20FAFC",
"hq 	c #24EFF3",
"iq 	c #2FEAF1",
"jq 	c #32DAE5",
"kq 	c #25B9C7",
"lq 	c #1594A5",
"mq 	c #1A8899",
"nq 	c #005768",
"oq 	c #065768",
"pq 	c #004453",
"qq 	c #002F40",
"rq 	c #002C40",
"sq 	c #002539",
"tq 	c #002336",
"uq 	c #1C4154",
"vq 	c #203F53",
"wq 	c #072235",
"xq 	c #081E33",
"yq 	c #0B2035",
"zq 	c #0D2237",
"Aq 	c #0E2439",
"Bq 	c #465F73",
"Cq 	c #2D465A",
"Dq 	c #4A6377",
"Eq 	c #678094",
"Fq 	c #586E85",
"Gq 	c #8398A9",
"Hq 	c #94A7AE",
"Iq 	c #728488",
"Jq 	c #283637",
"Kq 	c #1F2B29",
"Lq 	c #212622",
"Mq 	c #020300",
"Nq 	c #050601",
"Oq 	c #030301",
"Pq 	c #080808",
"Qq 	c #0D0D0F",
"Rq 	c #101113",
"Sq 	c #0D0E10",
"Tq 	c #141510",
"Uq 	c #191A14",
"Vq 	c #13120D",
"Wq 	c #12110C",
"Xq 	c #0E0D08",
"Yq 	c #14110C",
"Zq 	c #110D0A",
"`q 	c #15110E",
" r 	c #161211",
".r 	c #120E0D",
"+r 	c #0A0607",
"@r 	c #121013",
"#r 	c #0E0C0F",
"$r 	c #0F0D10",
"%r 	c #0A050B",
"&r 	c #080307",
"*r 	c #070803",
"=r 	c #040601",
"-r 	c #040905",
";r 	c #070B0C",
">r 	c #06060E",
",r 	c #080611",
"'r 	c #050209",
")r 	c #6C6A6B",
"!r 	c #676860",
"~r 	c #575F52",
"{r 	c #445148",
"]r 	c #677B7A",
"^r 	c #517897",
"/r 	c #5B88A9",
"(r 	c #5D8EAF",
"_r 	c #6799BA",
":r 	c #568BAB",
"<r 	c #5D92B4",
"[r 	c #518AA7",
"}r 	c #5D96B3",
"|r 	c #4D82A1",
"1r 	c #5489A8",
"2r 	c #6D9FC0",
"3r 	c #71A6C6",
"4r 	c #72A8CA",
"5r 	c #5B96B6",
"6r 	c #347593",
"7r 	c #07536D",
"8r 	c #00596E",
"9r 	c #087387",
"0r 	c #048298",
"ar 	c #0896AC",
"br 	c #009BB2",
"cr 	c #25C5DB",
"dr 	c #4DE5FA",
"er 	c #4FD1E7",
"fr 	c #49A4C1",
"gr 	c #5596B4",
"hr 	c #6392AC",
"ir 	c #6B95AD",
"jr 	c #74A3B5",
"kr 	c #6798A9",
"lr 	c #73A1B8",
"mr 	c #6D99B2",
"nr 	c #57859F",
"or 	c #6593AD",
"pr 	c #3C6883",
"qr 	c #5B839D",
"rr 	c #547993",
"sr 	c #446882",
"tr 	c #3F637B",
"ur 	c #34576D",
"vr 	c #375A6E",
"wr 	c #224354",
"xr 	c #244453",
"yr 	c #405C6A",
"zr 	c #3D5766",
"Ar 	c #516878",
"Br 	c #6B8091",
"Cr 	c #728798",
"Dr 	c #526576",
"Er 	c #2A3D4C",
"Fr 	c #031624",
"Gr 	c #0F1F2C",
"Hr 	c #27313B",
"Ir 	c #252F39",
"Jr 	c #2E3B43",
"Kr 	c #26333B",
"Lr 	c #17262D",
"Mr 	c #1B2C33",
"Nr 	c #182930",
"Or 	c #14272E",
"Pr 	c #10242D",
"Qr 	c #132B35",
"Rr 	c #25414C",
"Sr 	c #53737E",
"Tr 	c #5C808C",
"Ur 	c #4C7480",
"Vr 	c #2F6370",
"Wr 	c #165C68",
"Xr 	c #005660",
"Yr 	c #046B72",
"Zr 	c #189297",
"`r 	c #24B3B7",
" s 	c #2BCFD0",
".s 	c #3DF5F5",
"+s 	c #26F1EE",
"@s 	c #20F6F6",
"#s 	c #19F9F8",
"$s 	c #13FDFE",
"%s 	c #0FFAFE",
"&s 	c #0CFBFE",
"*s 	c #0BFDFF",
"=s 	c #09FBFF",
"-s 	c #08FAFC",
";s 	c #0BFAFD",
">s 	c #15F6F8",
",s 	c #20F7FA",
"'s 	c #25F2F5",
")s 	c #2DEDF2",
"!s 	c #36E7ED",
"~s 	c #36D9E0",
"{s 	c #26BFC7",
"]s 	c #0E9CA6",
"^s 	c #02808E",
"/s 	c #086B82",
"(s 	c #004560",
"_s 	c #003850",
":s 	c #13556D",
"<s 	c #134961",
"[s 	c #00263E",
"}s 	c #06263F",
"|s 	c #0B253E",
"1s 	c #0D2740",
"2s 	c #021E34",
"3s 	c #3F5F74",
"4s 	c #26465B",
"5s 	c #26475A",
"6s 	c #1C384D",
"7s 	c #11263B",
"8s 	c #677787",
"9s 	c #738184",
"0s 	c #6A7473",
"as 	c #0E1716",
"bs 	c #2D2F2C",
"cs 	c #060604",
"ds 	c #0D0D0B",
"es 	c #0E0E0C",
"fs 	c #0F0F0D",
"gs 	c #0E100D",
"hs 	c #0D0F0C",
"is 	c #10110C",
"js 	c #0F100B",
"ks 	c #0D0E08",
"ls 	c #11100C",
"ms 	c #11100E",
"ns 	c #0A0A0A",
"os 	c #0B0B0B",
"ps 	c #0A0907",
"qs 	c #0C0B07",
"rs 	c #060503",
"ss 	c #050304",
"ts 	c #060606",
"us 	c #0A0A0C",
"vs 	c #0C0B10",
"ws 	c #0B0A0F",
"xs 	c #040300",
"ys 	c #60615B",
"zs 	c #484E42",
"As 	c #5A6257",
"Bs 	c #45524B",
"Cs 	c #507999",
"Ds 	c #5A87A8",
"Es 	c #6697B8",
"Fs 	c #6496B7",
"Gs 	c #5B90B2",
"Hs 	c #5C93B2",
"Is 	c #568FAC",
"Js 	c #5D99B5",
"Ks 	c #5891AF",
"Ls 	c #5E95B4",
"Ms 	c #659BBD",
"Ns 	c #5F94B6",
"Os 	c #639AB9",
"Ps 	c #69A2BF",
"Qs 	c #5698B2",
"Rs 	c #4791AA",
"Ss 	c #30869F",
"Ts 	c #0C728B",
"Us 	c #057893",
"Vs 	c #0483A3",
"Ws 	c #1598B6",
"Xs 	c #3BBBD8",
"Ys 	c #3FAECC",
"Zs 	c #3D8EAC",
"`s 	c #4782A0",
" t 	c #638FA8",
".t 	c #62889B",
"+t 	c #638D9D",
"@t 	c #749FAF",
"#t 	c #719CAF",
"$t 	c #628CA4",
"%t 	c #56829D",
"&t 	c #527E99",
"*t 	c #5D89A4",
"=t 	c #3F6884",
"-t 	c #577A96",
";t 	c #5F819C",
">t 	c #456780",
",t 	c #476A80",
"'t 	c #406174",
")t 	c #3B5C6D",
"!t 	c #496978",
"~t 	c #3A5765",
"{t 	c #3E5A68",
"]t 	c #3F5B69",
"^t 	c #365061",
"/t 	c #3C5667",
"(t 	c #5D7388",
"_t 	c #5F758A",
":t 	c #6A8193",
"<t 	c #71889A",
"[t 	c #5D7484",
"}t 	c #0E202E",
"|t 	c #132330",
"1t 	c #1D2B36",
"2t 	c #081621",
"3t 	c #0D1A22",
"4t 	c #091720",
"5t 	c #0A1B23",
"6t 	c #2A3E49",
"7t 	c #3B4F5A",
"8t 	c #47626D",
"9t 	c #527682",
"0t 	c #3C6B75",
"at 	c #29636E",
"bt 	c #125C65",
"ct 	c #04626A",
"dt 	c #00737A",
"et 	c #149BA1",
"ft 	c #15AEB3",
"gt 	c #34E0E4",
"ht 	c #31EAED",
"it 	c #2CF1F7",
"jt 	c #22F3F7",
"kt 	c #1BF4F9",
"lt 	c #17F6FB",
"mt 	c #0BF9FB",
"nt 	c #0AFEFF",
"ot 	c #0CFCFB",
"pt 	c #12FCFB",
"qt 	c #19FBFA",
"rt 	c #1CF6F7",
"st 	c #26EBF1",
"tt 	c #2BEBF0",
"ut 	c #39E7F2",
"vt 	c #43D9EA",
"wt 	c #2CB1C4",
"xt 	c #108FA0",
"yt 	c #148799",
"zt 	c #05687B",
"At 	c #00465A",
"Bt 	c #004459",
"Ct 	c #064056",
"Dt 	c #00344C",
"Et 	c #02364C",
"Ft 	c #31687D",
"Gt 	c #265A6F",
"Ht 	c #1B4659",
"It 	c #0F2F46",
"Jt 	c #627989",
"Kt 	c #7F8A8C",
"Lt 	c #7B817D",
"Mt 	c #1C211D",
"Nt 	c #191B1A",
"Ot 	c #313332",
"Pt 	c #2D2D2B",
"Qt 	c #000000",
"Rt 	c #070705",
"St 	c #080806",
"Tt 	c #0A0B06",
"Ut 	c #0A0C07",
"Vt 	c #0A0C09",
"Wt 	c #0E0E0E",
"Xt 	c #10100E",
"Yt 	c #0E0F0A",
"Zt 	c #0D0E09",
"`t 	c #090909",
" u 	c #080703",
".u 	c #070601",
"+u 	c #060405",
"@u 	c #070508",
"#u 	c #09070C",
"$u 	c #0A080D",
"%u 	c #0C0B09",
"&u 	c #040400",
"*u 	c #45483D",
"=u 	c #585E52",
"-u 	c #4B554A",
";u 	c #4A5551",
">u 	c #6A7577",
",u 	c #517A9A",
"'u 	c #5986A7",
")u 	c #6597B8",
"!u 	c #578EAD",
"~u 	c #6AA2BD",
"{u 	c #5C94AF",
"]u 	c #6EA5C3",
"^u 	c #69A0BF",
"/u 	c #6193B4",
"(u 	c #5C8DAD",
"_u 	c #73A0BF",
":u 	c #7CAAC4",
"<u 	c #73A2BC",
"[u 	c #6BA1BB",
"}u 	c #63A5BF",
"|u 	c #61AECA",
"1u 	c #4BA6C3",
"2u 	c #39A0BF",
"3u 	c #2394B4",
"4u 	c #1186A7",
"5u 	c #1384A4",
"6u 	c #1C7F9F",
"7u 	c #2D7697",
"8u 	c #356A8A",
"9u 	c #547E97",
"0u 	c #55798F",
"au 	c #5C8295",
"bu 	c #76A0B0",
"cu 	c #5E8499",
"du 	c #587E95",
"eu 	c #628AA4",
"fu 	c #5C849E",
"gu 	c #5E88A1",
"hu 	c #3D657E",
"iu 	c #40627B",
"ju 	c #597990",
"ku 	c #416178",
"lu 	c #57778C",
"mu 	c #416275",
"nu 	c #416273",
"ou 	c #3C5C6B",
"pu 	c #53707E",
"qu 	c #466270",
"ru 	c #4C6876",
"su 	c #516C7D",
"tu 	c #405B6C",
"uu 	c #50697D",
"vu 	c #496276",
"wu 	c #546E7F",
"xu 	c #4A6475",
"yu 	c #496372",
"zu 	c #5A7483",
"Au 	c #738997",
"Bu 	c #485E6C",
"Cu 	c #304351",
"Du 	c #162836",
"Eu 	c #00101A",
"Fu 	c #0F1D26",
"Gu 	c #0B1820",
"Hu 	c #1D2A32",
"Iu 	c #12232D",
"Ju 	c #132730",
"Ku 	c #273D4A",
"Lu 	c #435D6A",
"Mu 	c #456574",
"Nu 	c #2A4F5F",
"Ou 	c #295669",
"Pu 	c #275E72",
"Qu 	c #185C71",
"Ru 	c #0C5E73",
"Su 	c #086D7F",
"Tu 	c #178F9F",
"Uu 	c #2AB6C5",
"Vu 	c #33D1DC",
"Wu 	c #30E3EA",
"Xu 	c #2DF0F4",
"Yu 	c #27F7F7",
"Zu 	c #1EF8F7",
"`u 	c #18FAF9",
" v 	c #15FFFE",
".v 	c #08FBF9",
"+v 	c #08FCFA",
"@v 	c #09FCFA",
"#v 	c #15F9FC",
"$v 	c #17F7F9",
"%v 	c #1AF5F9",
"&v 	c #25F0F4",
"*v 	c #2BEEF0",
"=v 	c #2CEDEC",
"-v 	c #37EDEE",
";v 	c #29D1D2",
">v 	c #11A9AE",
",v 	c #0B8E96",
"'v 	c #006E7C",
")v 	c #005E6F",
"!v 	c #004D5F",
"~v 	c #1B7387",
"{v 	c #16687D",
"]v 	c #146175",
"^v 	c #13576C",
"/v 	c #114B61",
"(v 	c #4A7484",
"_v 	c #708284",
":v 	c #101511",
"<v 	c #101211",
"[v 	c #252525",
"}v 	c #020202",
"|v 	c #0B0B09",
"1v 	c #0A0A08",
"2v 	c #090907",
"3v 	c #070906",
"4v 	c #060805",
"5v 	c #0E0F09",
"6v 	c #111111",
"7v 	c #161616",
"8v 	c #0C0D08",
"9v 	c #090A04",
"0v 	c #0A0809",
"av 	c #0A080B",
"bv 	c #0C070B",
"cv 	c #110D0E",
"dv 	c #12110D",
"ev 	c #13130B",
"fv 	c #3D3F34",
"gv 	c #575A4F",
"hv 	c #384035",
"iv 	c #586365",
"jv 	c #637078",
"kv 	c #547D9B",
"lv 	c #527F9E",
"mv 	c #5384A4",
"nv 	c #497EA0",
"ov 	c #4F86A5",
"pv 	c #6093B0",
"qv 	c #5D90AB",
"rv 	c #74A9C8",
"sv 	c #70A5C5",
"tv 	c #89BADB",
"uv 	c #6D9AB9",
"vv 	c #688DA8",
"wv 	c #2E526A",
"xv 	c #678DA2",
"yv 	c #85B2C9",
"zv 	c #7DB5D0",
"Av 	c #5C9EBE",
"Bv 	c #57A7C8",
"Cv 	c #60BADC",
"Dv 	c #4AABCE",
"Ev 	c #3799BC",
"Fv 	c #3395B8",
"Gv 	c #267FA1",
"Hv 	c #36769A",
"Iv 	c #3C6D8E",
"Jv 	c #466A82",
"Kv 	c #4E7487",
"Lv 	c #51778A",
"Mv 	c #597D93",
"Nv 	c #6B8DA6",
"Ov 	c #6E92AC",
"Pv 	c #577B95",
"Qv 	c #51778E",
"Rv 	c #4F7389",
"Sv 	c #4B6B80",
"Tv 	c #58798C",
"Uv 	c #5B7A8E",
"Vv 	c #47687B",
"Wv 	c #4A697B",
"Xv 	c #527281",
"Yv 	c #385661",
"Zv 	c #44606C",
"`v 	c #57737F",
" w 	c #516D7B",
".w 	c #4C6778",
"+w 	c #577084",
"@w 	c #4A6578",
"#w 	c #4B6677",
"$w 	c #395465",
"%w 	c #203C4A",
"&w 	c #2C4856",
"*w 	c #3F5A6B",
"=w 	c #314B5C",
"-w 	c #607787",
";w 	c #6B818F",
">w 	c #485B69",
",w 	c #324450",
"'w 	c #07151E",
")w 	c #0A171F",
"!w 	c #0E1B23",
"~w 	c #0F1C24",
"{w 	c #0C1921",
"]w 	c #05141B",
"^w 	c #15232C",
"/w 	c #2C3C4B",
"(w 	c #35475B",
"_w 	c #385167",
":w 	c #38566E",
"<w 	c #2E566F",
"[w 	c #275D75",
"}w 	c #196076",
"|w 	c #0D6579",
"1w 	c #097786",
"2w 	c #1397A3",
"3w 	c #27BCC3",
"4w 	c #33D6DB",
"5w 	c #32E4E6",
"6w 	c #25E7E7",
"7w 	c #23F1F1",
"8w 	c #1AF6F4",
"9w 	c #12F7F4",
"0w 	c #10FBF6",
"aw 	c #0EFFF9",
"bw 	c #0CFFFB",
"cw 	c #0AFAFB",
"dw 	c #0AF8FA",
"ew 	c #0CF7FB",
"fw 	c #0FF8FD",
"gw 	c #11FAFF",
"hw 	c #0EF6FA",
"iw 	c #15FCF6",
"jw 	c #16FBF4",
"kw 	c #1BFCF4",
"lw 	c #1DF2EC",
"mw 	c #22EAE7",
"nw 	c #2FE5E6",
"ow 	c #2ED3D9",
"pw 	c #26BEC9",
"qw 	c #008C9B",
"rw 	c #24A6B6",
"sw 	c #29A1B2",
"tw 	c #1E879C",
"uw 	c #167289",
"vw 	c #1D6D86",
"ww 	c #2F687B",
"xw 	c #486064",
"yw 	c #5F6561",
"zw 	c #0B100C",
"Aw 	c #161B17",
"Bw 	c #131514",
"Cw 	c #010101",
"Dw 	c #050503",
"Ew 	c #101010",
"Fw 	c #141412",
"Gw 	c #161712",
"Hw 	c #171812",
"Iw 	c #171813",
"Jw 	c #1A1A1A",
"Kw 	c #191919",
"Lw 	c #1D1D1D",
"Mw 	c #171717",
"Nw 	c #121210",
"Ow 	c #12130D",
"Pw 	c #14150F",
"Qw 	c #191718",
"Rw 	c #1B161A",
"Sw 	c #1E1A1B",
"Tw 	c #211D1C",
"Uw 	c #24201D",
"Vw 	c #25251D",
"Ww 	c #4F5146",
"Xw 	c #4C4F44",
"Yw 	c #353E3B",
"Zw 	c #7A848D",
"`w 	c #546473",
" x 	c #4C637D",
".x 	c #5E87A5",
"+x 	c #5582A1",
"@x 	c #6192B2",
"#x 	c #6FA4C3",
"$x 	c #6297B7",
"%x 	c #5D92B1",
"&x 	c #6799B4",
"*x 	c #5587A2",
"=x 	c #6B9EBD",
"-x 	c #75A7C8",
";x 	c #719FC0",
">x 	c #6087A4",
",x 	c #66859A",
"'x 	c #000C1F",
")x 	c #001223",
"!x 	c #37576C",
"~x 	c #9AC8E2",
"{x 	c #83BBDC",
"]x 	c #35799E",
"^x 	c #4A95BC",
"/x 	c #6EBCE2",
"(x 	c #60B0D5",
"_x 	c #4A9EC3",
":x 	c #4490B4",
"<x 	c #4C86AB",
"[x 	c #5785A7",
"}x 	c #5C83A0",
"|x 	c #3E637D",
"1x 	c #3F687C",
"2x 	c #395F74",
"3x 	c #4B6B82",
"4x 	c #4E6C86",
"5x 	c #4F6D87",
"6x 	c #65859E",
"7x 	c #608397",
"8x 	c #456979",
"9x 	c #365665",
"0x 	c #4E6E7D",
"ax 	c #587585",
"bx 	c #3B5B6A",
"cx 	c #4A6775",
"dx 	c #5D7B86",
"ex 	c #3D5B65",
"fx 	c #38545F",
"gx 	c #435F6A",
"hx 	c #4E6A76",
"ix 	c #4D6977",
"jx 	c #3D5967",
"kx 	c #435E6F",
"lx 	c #476273",
"mx 	c #456071",
"nx 	c #567383",
"ox 	c #3F5F6E",
"px 	c #335264",
"qx 	c #425D70",
"rx 	c #465D6D",
"sx 	c #596F7D",
"tx 	c #667884",
"ux 	c #42535D",
"vx 	c #020F17",
"wx 	c #0C161F",
"xx 	c #132028",
"yx 	c #19262E",
"zx 	c #222F37",
"Ax 	c #34424D",
"Bx 	c #334350",
"Cx 	c #334C60",
"Dx 	c #2A495D",
"Ex 	c #2C5267",
"Fx 	c #2B5B6F",
"Gx 	c #215E71",
"Hx 	c #125B6E",
"Ix 	c #0A5D6D",
"Jx 	c #116E7D",
"Kx 	c #168491",
"Lx 	c #30BBC2",
"Mx 	c #2FCED2",
"Nx 	c #34E0E2",
"Ox 	c #2FEBEA",
"Px 	c #24F1EC",
"Qx 	c #18F5EE",
"Rx 	c #0DF7EE",
"Sx 	c #05F6EF",
"Tx 	c #09FEF9",
"Ux 	c #0CFFFE",
"Vx 	c #0AF9FF",
"Wx 	c #0BF8FF",
"Xx 	c #0DF7FF",
"Yx 	c #0EF7FE",
"Zx 	c #0DF7F8",
"`x 	c #0FF9F6",
" y 	c #0BFAF5",
".y 	c #0AFBF4",
"+y 	c #0EFBF5",
"@y 	c #13FCF8",
"#y 	c #1DFCFB",
"$y 	c #1EF2F5",
"%y 	c #32EEF9",
"&y 	c #26D3E1",
"*y 	c #25C2D3",
"=y 	c #30B7CD",
"-y 	c #2B9EB9",
";y 	c #0F6E8C",
">y 	c #3D7F97",
",y 	c #456165",
"'y 	c #565F5C",
")y 	c #111715",
"!y 	c #131716",
"~y 	c #1B1F1E",
"{y 	c #141615",
"]y 	c #0D0F0E",
"^y 	c #070707",
"/y 	c #090B0A",
"(y 	c #0B0D0C",
"_y 	c #0C0E0D",
":y 	c #181913",
"<y 	c #1A1B16",
"[y 	c #1C1D18",
"}y 	c #202020",
"|y 	c #1E1E1C",
"1y 	c #1D1D1B",
"2y 	c #1A1D16",
"3y 	c #1B1C16",
"4y 	c #1D1E18",
"5y 	c #201F1D",
"6y 	c #22211F",
"7y 	c #262223",
"8y 	c #282425",
"9y 	c #2B2726",
"0y 	c #2D2926",
"ay 	c #56574F",
"by 	c #474A41",
"cy 	c #424942",
"dy 	c #7C868F",
"ey 	c #50606D",
"fy 	c #4F657C",
"gy 	c #4C667F",
"hy 	c #486078",
"iy 	c #425A72",
"jy 	c #495F76",
"ky 	c #51657A",
"ly 	c #5B84A0",
"my 	c #5683A0",
"ny 	c #5E8FAD",
"oy 	c #689BBA",
"py 	c #689DBD",
"qy 	c #5F94B3",
"ry 	c #5E8DA7",
"sy 	c #608FAB",
"ty 	c #7BADCE",
"uy 	c #6F9CBD",
"vy 	c #6B8FA9",
"wy 	c #4E6879",
"xy 	c #436B85",
"yy 	c #76A8CB",
"zy 	c #6EA9D1",
"Ay 	c #5293BB",
"By 	c #4283A9",
"Cy 	c #4E92B7",
"Dy 	c #65ADD3",
"Ey 	c #67A8CE",
"Fy 	c #497DA2",
"Gy 	c #3C688B",
"Hy 	c #4F7896",
"Iy 	c #3D657F",
"Jy 	c #264C63",
"Ky 	c #385670",
"Ly 	c #506B86",
"My 	c #536D88",
"Ny 	c #58748C",
"Oy 	c #517285",
"Py 	c #405E69",
"Qy 	c #46626E",
"Ry 	c #3C5866",
"Sy 	c #415D6B",
"Ty 	c #3A5662",
"Uy 	c #496570",
"Vy 	c #36515A",
"Wy 	c #46616A",
"Xy 	c #3E5962",
"Yy 	c #3C5762",
"Zy 	c #36505D",
"`y 	c #425E6C",
" z 	c #324D5E",
".z 	c #3C5969",
"+z 	c #3E5B69",
"@z 	c #507184",
"#z 	c #48697C",
"$z 	c #4D6A7C",
"%z 	c #3D5869",
"&z 	c #395364",
"*z 	c #273D4B",
"=z 	c #334654",
"-z 	c #3F515D",
";z 	c #455660",
">z 	c #515E67",
",z 	c #3B454E",
"'z 	c #17212A",
")z 	c #101B21",
"!z 	c #101D23",
"~z 	c #1B282E",
"{z 	c #2C3B42",
"]z 	c #36454C",
"^z 	c #32434A",
"/z 	c #36474F",
"(z 	c #34454F",
"_z 	c #3F5261",
":z 	c #374E5E",
"<z 	c #355061",
"[z 	c #38576B",
"}z 	c #33596C",
"|z 	c #265366",
"1z 	c #1E4E62",
"2z 	c #115363",
"3z 	c #005662",
"4z 	c #02747E",
"5z 	c #1C9BA2",
"6z 	c #31BFC3",
"7z 	c #38D7DA",
"8z 	c #35E7E7",
"9z 	c #2EF2F0",
"0z 	c #26F8F5",
"az 	c #13F2EF",
"bz 	c #10F9F6",
"cz 	c #0FFBFB",
"dz 	c #0CF9FF",
"ez 	c #0FFCFF",
"fz 	c #10FAFF",
"gz 	c #0DFBFE",
"hz 	c #06FCF9",
"iz 	c #04FDF9",
"jz 	c #06FFFB",
"kz 	c #07FDFC",
"lz 	c #09F9FA",
"mz 	c #0BF4F9",
"nz 	c #11F4FB",
"oz 	c #1AF2FD",
"pz 	c #19E3F1",
"qz 	c #17CCDD",
"rz 	c #23BBD2",
"sz 	c #32B2CF",
"tz 	c #298DAF",
"uz 	c #367C96",
"vz 	c #415E64",
"wz 	c #48514E",
"xz 	c #161C1A",
"yz 	c #1E2422",
"zz 	c #171B1A",
"Az 	c #0F1110",
"Bz 	c #000201",
"Cz 	c #0C0C0C",
"Dz 	c #0A0C0B",
"Ez 	c #131311",
"Fz 	c #151611",
"Gz 	c #191A15",
"Hz 	c #1C1C1C",
"Iz 	c #232323",
"Jz 	c #212320",
"Kz 	c #232520",
"Lz 	c #22251E",
"Mz 	c #262523",
"Nz 	c #282627",
"Oz 	c #292728",
"Pz 	c #2E2A2B",
"Qz 	c #2E2D2B",
"Rz 	c #35342F",
"Sz 	c #54554F",
"Tz 	c #555A54",
"Uz 	c #494F4B",
"Vz 	c #4C5456",
"Wz 	c #697478",
"Xz 	c #7A878F",
"Yz 	c #5A6A77",
"Zz 	c #485D70",
"`z 	c #50667D",
" A 	c #53697E",
".A 	c #4F6477",
"+A 	c #536579",
"@A 	c #5C6D7F",
"#A 	c #4F6070",
"$A 	c #344556",
"%A 	c #5F88A4",
"&A 	c #6A97B4",
"*A 	c #6998B6",
"=A 	c #6396B3",
"-A 	c #6A9FBE",
";A 	c #6194B1",
">A 	c #709DBA",
",A 	c #5988A4",
"'A 	c #5D8FB2",
")A 	c #78AACD",
"!A 	c #5F8CAB",
"~A 	c #7496AF",
"{A 	c #324553",
"]A 	c #00030C",
"^A 	c #0A1720",
"/A 	c #41657F",
"(A 	c #5182A3",
"_A 	c #6CA6CE",
":A 	c #7EB9E3",
"<A 	c #6098BD",
"[A 	c #2A6489",
"}A 	c #317195",
"|A 	c #528EB3",
"1A 	c #5B8DB2",
"2A 	c #5682A5",
"3A 	c #406E88",
"4A 	c #39657E",
"5A 	c #3E667F",
"6A 	c #314F6B",
"7A 	c #3A546F",
"8A 	c #4C6480",
"9A 	c #4A647B",
"0A 	c #4B6A7C",
"aA 	c #2A4A57",
"bA 	c #2F4B56",
"cA 	c #324D58",
"dA 	c #3B5562",
"eA 	c #354D59",
"fA 	c #2F4751",
"gA 	c #364E58",
"hA 	c #284148",
"iA 	c #375057",
"jA 	c #405862",
"kA 	c #425967",
"lA 	c #678190",
"mA 	c #627C8D",
"nA 	c #4E697A",
"oA 	c #365363",
"pA 	c #33505E",
"qA 	c #355667",
"rA 	c #364C5A",
"sA 	c #364957",
"tA 	c #223440",
"uA 	c #2D3B44",
"vA 	c #2F3D46",
"wA 	c #38454E",
"xA 	c #414E57",
"yA 	c #55626A",
"zA 	c #435059",
"AA 	c #102128",
"BA 	c #001017",
"CA 	c #4B5E62",
"DA 	c #304548",
"EA 	c #283D40",
"FA 	c #33484B",
"GA 	c #2A3F44",
"HA 	c #33464D",
"IA 	c #2F434C",
"JA 	c #2E4452",
"KA 	c #2B4856",
"LA 	c #2D4D5C",
"MA 	c #295562",
"NA 	c #13535F",
"OA 	c #09535E",
"PA 	c #05535F",
"QA 	c #095C6A",
"RA 	c #126F7E",
"SA 	c #238F9C",
"TA 	c #35B8C2",
"UA 	c #3FD8DE",
"VA 	c #36E8EC",
"WA 	c #2CF2F3",
"XA 	c #21F7F7",
"YA 	c #0EF6F8",
"ZA 	c #10F9FE",
"`A 	c #07FCFD",
" B 	c #02FCFA",
".B 	c #04FCFC",
"+B 	c #10F8FF",
"@B 	c #13F2FF",
"#B 	c #16EAF8",
"$B 	c #0DCADD",
"%B 	c #22C0D9",
"&B 	c #2EAECB",
"*B 	c #2C8DB0",
"=B 	c #347490",
"-B 	c #39545D",
";B 	c #3B4443",
">B 	c #363C3A",
",B 	c #181C1B",
"'B 	c #030706",
")B 	c #080A09",
"!B 	c #070908",
"~B 	c #060709",
"{B 	c #07080A",
"]B 	c #08090B",
"^B 	c #0A0B0D",
"/B 	c #0B0C0E",
"(B 	c #181A17",
"_B 	c #1A1C17",
":B 	c #1B1D18",
"<B 	c #1D1F1A",
"[B 	c #22231E",
"}B 	c #252726",
"|B 	c #242625",
"1B 	c #272C28",
"2B 	c #282D27",
"3B 	c #2B302A",
"4B 	c #2C312B",
"5B 	c #2E302F",
"6B 	c #2E2E30",
"7B 	c #2F2F2F",
"8B 	c #353334",
"9B 	c #393937",
"0B 	c #30302E",
"aB 	c #474944",
"bB 	c #545955",
"cB 	c #49524F",
"dB 	c #515B5D",
"eB 	c #687379",
"fB 	c #717E87",
"gB 	c #506374",
"hB 	c #52677A",
"iB 	c #576C7D",
"jB 	c #586B7A",
"kB 	c #495968",
"lB 	c #425261",
"mB 	c #3A4A59",
"nB 	c #30414F",
"oB 	c #5A839D",
"pB 	c #78A7C3",
"qB 	c #6D9EBC",
"rB 	c #6EA1C0",
"sB 	c #5A8DAA",
"tB 	c #5B8AA8",
"uB 	c #72A7C9",
"vB 	c #6D9FC2",
"wB 	c #65889C",
"xB 	c #0A1C26",
"yB 	c #243843",
"zB 	c #50748C",
"AB 	c #5289B0",
"BB 	c #5A91B8",
"CB 	c #6DA1C6",
"DB 	c #699EC0",
"EB 	c #5590B2",
"FB 	c #3F779A",
"GB 	c #4A7A9E",
"HB 	c #6896B8",
"IB 	c #6C9DBB",
"JB 	c #5A8CA7",
"KB 	c #4C7B95",
"LB 	c #57819A",
"MB 	c #4D6C89",
"NB 	c #324B69",
"OB 	c #39516D",
"PB 	c #273F57",
"QB 	c #3E5B6D",
"RB 	c #213E4C",
"SB 	c #314C57",
"TB 	c #28404C",
"UB 	c #3D5360",
"VB 	c #324853",
"WB 	c #2B414C",
"XB 	c #21353E",
"YB 	c #293D46",
"ZB 	c #4A5E67",
"`B 	c #415764",
" C 	c #39505E",
".C 	c #334A5A",
"+C 	c #405A6B",
"@C 	c #385263",
"#C 	c #294352",
"$C 	c #365260",
"%C 	c #395563",
"&C 	c #234050",
"*C 	c #274456",
"=C 	c #304B5C",
"-C 	c #435D6E",
";C 	c #5E7585",
">C 	c #4B616F",
",C 	c #2C3F4D",
"'C 	c #364653",
")C 	c #2D3E48",
"!C 	c #364751",
"~C 	c #41525C",
"{C 	c #304149",
"]C 	c #2F4047",
"^C 	c #172A30",
"/C 	c #25383C",
"(C 	c #293E41",
"_C 	c #1C2F33",
":C 	c #15282C",
"<C 	c #25373B",
"[C 	c #1E2F36",
"}C 	c #25343B",
"|C 	c #2E404C",
"1C 	c #2F4550",
"2C 	c #2E4652",
"3C 	c #294752",
"4C 	c #254D59",
"5C 	c #1D4B58",
"6C 	c #1D4B5A",
"7C 	c #1E4D5D",
"8C 	c #174C5E",
"9C 	c #0E4D5F",
"0C 	c #085768",
"aC 	c #1995A1",
"bC 	c #25B8C0",
"cC 	c #34DDE2",
"dC 	c #28F2F4",
"eC 	c #1EF2F3",
"fC 	c #1CF3F5",
"gC 	c #08FEFD",
"hC 	c #09FFFE",
"iC 	c #09FDFD",
"jC 	c #0BFAFF",
"kC 	c #07F3FE",
"lC 	c #0EF8FF",
"mC 	c #0FF8FF",
"nC 	c #16FAFF",
"oC 	c #17ECFA",
"pC 	c #1EDDEF",
"qC 	c #1FBBD2",
"rC 	c #2BA7C3",
"sC 	c #237C9E",
"tC 	c #447B99",
"uC 	c #38535C",
"vC 	c #1C2625",
"wC 	c #0E1618",
"xC 	c #313A39",
"yC 	c #2E3434",
"zC 	c #181E1C",
"AC 	c #222625",
"BC 	c #1E201F",
"CC 	c #1B1D1C",
"DC 	c #17181A",
"EC 	c #131416",
"FC 	c #0F1012",
"GC 	c #0C0D0F",
"HC 	c #090A0C",
"IC 	c #121413",
"JC 	c #1A1C19",
"KC 	c #1C1E19",
"LC 	c #292A2C",
"MC 	c #2B2F30",
"NC 	c #323637",
"OC 	c #343A38",
"PC 	c #2D3130",
"QC 	c #2B342F",
"RC 	c #2C2D2F",
"SC 	c #2E2F31",
"TC 	c #363739",
"UC 	c #3D3E40",
"VC 	c #3D3F3E",
"WC 	c #585C5B",
"XC 	c #5D6363",
"YC 	c #586369",
"ZC 	c #5E6B74",
"`C 	c #616F7A",
" D 	c #5B6B7A",
".D 	c #516475",
"+D 	c #526778",
"@D 	c #566978",
"#D 	c #526472",
"$D 	c #414F5C",
"%D 	c #27394B",
"&D 	c #557C96",
"*D 	c #88B4CF",
"=D 	c #719EBB",
"-D 	c #8DBFDA",
";D 	c #80B3D0",
">D 	c #709FBD",
",D 	c #6495B5",
"'D 	c #6FA3C8",
")D 	c #6499BB",
"!D 	c #6592AF",
"~D 	c #4B6E81",
"{D 	c #000E15",
"]D 	c #000B0D",
"^D 	c #0A1819",
"/D 	c #2A3E47",
"(D 	c #53788B",
"_D 	c #4A7997",
":D 	c #4E84A8",
"<D 	c #5890B3",
"[D 	c #588AAB",
"}D 	c #5C8FAE",
"|D 	c #6EA5C4",
"1D 	c #5E94B6",
"2D 	c #5385A6",
"3D 	c #4B7C9C",
"4D 	c #5487A4",
"5D 	c #6DA0BB",
"6D 	c #83B5CE",
"7D 	c #6692AB",
"8D 	c #557491",
"9D 	c #546D8B",
"0D 	c #3F5974",
"aD 	c #223C53",
"bD 	c #436276",
"cD 	c #2A4757",
"dD 	c #324C59",
"eD 	c #3E5461",
"fD 	c #3A4D5B",
"gD 	c #2C404B",
"hD 	c #354751",
"iD 	c #2C3E48",
"jD 	c #3B4D5B",
"kD 	c #364B5C",
"lD 	c #314657",
"mD 	c #27414E",
"nD 	c #2A4451",
"oD 	c #273E4C",
"pD 	c #344B59",
"qD 	c #4B616E",
"rD 	c #4C5F6D",
"sD 	c #334551",
"tD 	c #354552",
"uD 	c #2F3F4C",
"vD 	c #354753",
"wD 	c #4B5D6B",
"xD 	c #3A4A57",
"yD 	c #0F1E25",
"zD 	c #16232B",
"AD 	c #141E27",
"BD 	c #2E3841",
"CD 	c #1D2B34",
"DD 	c #1F3239",
"ED 	c #273E46",
"FD 	c #29414B",
"GD 	c #28434C",
"HD 	c #28434E",
"ID 	c #294751",
"JD 	c #254550",
"KD 	c #214551",
"LD 	c #234956",
"MD 	c #214B5B",
"ND 	c #1C4B5D",
"OD 	c #194D62",
"PD 	c #084759",
"QD 	c #075466",
"RD 	c #0C6C7C",
"SD 	c #158B97",
"TD 	c #25B5BD",
"UD 	c #44E9EB",
"VD 	c #33ECE7",
"WD 	c #2AF5F1",
"XD 	c #18F4F4",
"YD 	c #11F7F7",
"ZD 	c #0CF4F4",
"`D 	c #0DF8FB",
" E 	c #0AF7FD",
".E 	c #0DFAFF",
"+E 	c #13F8FE",
"@E 	c #1FF4FC",
"#E 	c #2AE4F1",
"$E 	c #33C9DA",
"%E 	c #30A2BA",
"&E 	c #4D9AB8",
"*E 	c #5C8BA5",
"=E 	c #344A55",
"-E 	c #152121",
";E 	c #3E4444",
">E 	c #070D0D",
",E 	c #191D1E",
"'E 	c #272928",
")E 	c #28292B",
"!E 	c #25262A",
"~E 	c #202123",
"{E 	c #171B1C",
"]E 	c #121615",
"^E 	c #1E231F",
"/E 	c #242925",
"(E 	c #2C2E2B",
"_E 	c #23272A",
":E 	c #292D30",
"<E 	c #2E3336",
"[E 	c #2F3437",
"}E 	c #2B3433",
"|E 	c #363F3C",
"1E 	c #40484A",
"2E 	c #3D4547",
"3E 	c #3A3F42",
"4E 	c #4A4F52",
"5E 	c #474B4E",
"6E 	c #4C5053",
"7E 	c #4A4E51",
"8E 	c #656A6D",
"9E 	c #60686B",
"0E 	c #5B646B",
"aE 	c #59666E",
"bE 	c #4E5C67",
"cE 	c #4D5D6A",
"dE 	c #506270",
"eE 	c #4A5D6E",
"fE 	c #3F5465",
"gE 	c #485B6A",
"hE 	c #566876",
"iE 	c #4F5F6C",
"jE 	c #475862",
"kE 	c #536370",
"lE 	c #485867",
"mE 	c #517691",
"nE 	c #77A1BA",
"oE 	c #7AA8C2",
"pE 	c #7DACC8",
"qE 	c #88B9D7",
"rE 	c #699AB8",
"sE 	c #6596B4",
"tE 	c #5B8DAE",
"uE 	c #6E9AB3",
"vE 	c #476879",
"wE 	c #071313",
"xE 	c #3F4D4E",
"yE 	c #576B72",
"zE 	c #4A6D80",
"AE 	c #44728C",
"BE 	c #477C9B",
"CE 	c #3F7494",
"DE 	c #4A7995",
"EE 	c #3C6F8C",
"FE 	c #79AAC8",
"GE 	c #6698B3",
"HE 	c #4D8199",
"IE 	c #487C94",
"JE 	c #51839A",
"KE 	c #739DB6",
"LE 	c #708DAB",
"ME 	c #4A647D",
"NE 	c #2E4D5F",
"OE 	c #283F51",
"PE 	c #354859",
"QE 	c #3A4D5C",
"RE 	c #364856",
"SE 	c #1B2D37",
"TE 	c #263940",
"UE 	c #263643",
"VE 	c #324452",
"WE 	c #374858",
"XE 	c #344756",
"YE 	c #314752",
"ZE 	c #2E444F",
"`E 	c #30444F",
" F 	c #374B56",
".F 	c #475965",
"+F 	c #546672",
"@F 	c #495966",
"#F 	c #3F4F5C",
"$F 	c #3C4E5C",
"%F 	c #394C5A",
"&F 	c #3E5462",
"*F 	c #667988",
"=F 	c #5F6F7E",
"-F 	c #354350",
";F 	c #20303D",
">F 	c #0B1C26",
",F 	c #182933",
"'F 	c #15222B",
")F 	c #0E1621",
"!F 	c #21323A",
"~F 	c #273943",
"{F 	c #273B42",
"]F 	c #2B3F46",
"^F 	c #253E45",
"/F 	c #203B44",
"(F 	c #233E49",
"_F 	c #26404D",
":F 	c #284251",
"<F 	c #2A4558",
"[F 	c #2D4C60",
"}F 	c #23495C",
"|F 	c #114658",
"1F 	c #074F5E",
"2F 	c #005C66",
"3F 	c #03767B",
"4F 	c #149A9B",
"5F 	c #28C0C1",
"6F 	c #3BE6ED",
"7F 	c #36EEF6",
"8F 	c #2AF6F7",
"9F 	c #1AEEF1",
"0F 	c #1DF7F8",
"aF 	c #15F5F7",
"bF 	c #1AFBFD",
"cF 	c #16EDF0",
"dF 	c #35E0E8",
"eF 	c #22A7B6",
"fF 	c #005C71",
"gF 	c #0E4E69",
"hF 	c #385E75",
"iF 	c #4B5F68",
"jF 	c #242F33",
"kF 	c #222C2E",
"lF 	c #2E3638",
"mF 	c #090F0F",
"nF 	c #0E1213",
"oF 	c #111312",
"pF 	c #111214",
"qF 	c #0E0F11",
"rF 	c #16171B",
"sF 	c #191D20",
"tF 	c #161C1C",
"uF 	c #1E2424",
"vF 	c #141915",
"wF 	c #64686B",
"xF 	c #53585B",
"yF 	c #454A4E",
"zF 	c #3A4245",
"AF 	c #4E5659",
"BF 	c #515B5C",
"CF 	c #576160",
"DF 	c #626E6E",
"EF 	c #434E50",
"FF 	c #475153",
"GF 	c #51565A",
"HF 	c #52575B",
"IF 	c #54595D",
"JF 	c #596066",
"KF 	c #535C63",
"LF 	c #4B555E",
"MF 	c #56636C",
"NF 	c #5D6E78",
"OF 	c #576774",
"PF 	c #536573",
"QF 	c #4A5C6A",
"RF 	c #51616E",
"SF 	c #51636F",
"TF 	c #596B79",
"UF 	c #465968",
"VF 	c #2C4355",
"WF 	c #3B546A",
"XF 	c #78A0BA",
"YF 	c #709CB7",
"ZF 	c #84B2CC",
"`F 	c #6A9BB9",
" G 	c #6A9DBC",
".G 	c #4B80A0",
"+G 	c #71A2C0",
"@G 	c #739CB2",
"#G 	c #23404E",
"$G 	c #00060A",
"%G 	c #0C1816",
"&G 	c #172525",
"*G 	c #42575C",
"=G 	c #547E94",
"-G 	c #5D8CA6",
";G 	c #3E6B82",
">G 	c #426F86",
",G 	c #517F96",
"'G 	c #5F8DA5",
")G 	c #59859E",
"!G 	c #608EA5",
"~G 	c #6D9DB3",
"{G 	c #5A8AA0",
"]G 	c #346178",
"^G 	c #294F66",
"/G 	c #68839E",
"(G 	c #6D87A0",
"_G 	c #446479",
":G 	c #476A7E",
"<G 	c #254659",
"[G 	c #41576C",
"}G 	c #3B4D61",
"|G 	c #3E5162",
"1G 	c #2D404E",
"2G 	c #2D3F49",
"3G 	c #283943",
"4G 	c #283845",
"5G 	c #2F3F4E",
"6G 	c #1C2C3B",
"7G 	c #384857",
"8G 	c #1E2F37",
"9G 	c #273840",
"0G 	c #46575F",
"aG 	c #374852",
"bG 	c #283641",
"cG 	c #32424F",
"dG 	c #374957",
"eG 	c #243B49",
"fG 	c #324959",
"gG 	c #314453",
"hG 	c #4E606E",
"iG 	c #768997",
"jG 	c #677D8A",
"kG 	c #526A76",
"lG 	c #0B1D2B",
"mG 	c #121A27",
"nG 	c #0D111D",
"oG 	c #121622",
"pG 	c #1D212D",
"qG 	c #182B31",
"rG 	c #243C40",
"sG 	c #2F4449",
"tG 	c #304349",
"uG 	c #2E3F49",
"vG 	c #293D48",
"wG 	c #243C48",
"xG 	c #274550",
"yG 	c #1E444F",
"zG 	c #1A4855",
"AG 	c #154B57",
"BG 	c #08444E",
"CG 	c #12555E",
"DG 	c #0B5764",
"EG 	c #005B70",
"FG 	c #1E8BA0",
"GG 	c #39BBC9",
"HG 	c #4DE4EB",
"IG 	c #3CE8EC",
"JG 	c #36F0EF",
"KG 	c #26EAE9",
"LG 	c #25EDEB",
"MG 	c #28EEED",
"NG 	c #37F3F4",
"OG 	c #39E2E5",
"PG 	c #37C6CC",
"QG 	c #31A0AB",
"RG 	c #31808F",
"SG 	c #26596E",
"TG 	c #102F41",
"UG 	c #576872",
"VG 	c #242F35",
"WG 	c #343D42",
"XG 	c #2E3639",
"YG 	c #040C0E",
"ZG 	c #101616",
"`G 	c #090A0E",
" H 	c #070B0E",
".H 	c #171C1F",
"+H 	c #1B2423",
"@H 	c #292F2D",
"#H 	c #121816",
"$H 	c #222826",
"%H 	c #151B1B",
"&H 	c #2A2F32",
"*H 	c #4C5155",
"=H 	c #64696F",
"-H 	c #6E7679",
";H 	c #495355",
">H 	c #475353",
",H 	c #3E4A4A",
"'H 	c #425050",
")H 	c #455354",
"!H 	c #465457",
"~H 	c #202E31",
"{H 	c #051014",
"]H 	c #151E23",
"^H 	c #1A2328",
"/H 	c #5E656B",
"(H 	c #585F65",
"_H 	c #515860",
":H 	c #5C656E",
"<H 	c #616B75",
"[H 	c #616D79",
"}H 	c #5C6D77",
"|H 	c #566673",
"1H 	c #647684",
"2H 	c #516473",
"3H 	c #5B6E7D",
"4H 	c #516371",
"5H 	c #556773",
"6H 	c #566874",
"7H 	c #516472",
"8H 	c #4A5F70",
"9H 	c #41586A",
"0H 	c #455E74",
"aH 	c #3B566D",
"bH 	c #79A1BA",
"cH 	c #4C768F",
"dH 	c #6C98B3",
"eH 	c #74A1BE",
"fH 	c #74A5C3",
"gH 	c #679AB9",
"hH 	c #6196B6",
"iH 	c #7EB1D0",
"jH 	c #7FADC7",
"kH 	c #5E8396",
"lH 	c #031E29",
"mH 	c #071619",
"nH 	c #081414",
"oH 	c #415357",
"pH 	c #6A8691",
"qH 	c #487185",
"rH 	c #567F95",
"sH 	c #43697C",
"tH 	c #3C6173",
"uH 	c #3A6073",
"vH 	c #608699",
"wH 	c #52778A",
"xH 	c #537C8E",
"yH 	c #578092",
"zH 	c #5E8298",
"AH 	c #6A8A9F",
"BH 	c #4B657C",
"CH 	c #5F778F",
"DH 	c #53768A",
"EH 	c #53798C",
"FH 	c #35586C",
"GH 	c #385068",
"HH 	c #394D65",
"IH 	c #3D5265",
"JH 	c #485F6F",
"KH 	c #324856",
"LH 	c #2E4451",
"MH 	c #1F2F3C",
"NH 	c #24323F",
"OH 	c #212E3E",
"PH 	c #1F2C3C",
"QH 	c #263441",
"RH 	c #2D3947",
"SH 	c #32404B",
"TH 	c #2E3D44",
"UH 	c #303F46",
"VH 	c #414D59",
"WH 	c #2D3B48",
"XH 	c #2C3C49",
"YH 	c #283A48",
"ZH 	c #2B414E",
"`H 	c #2C4351",
" I 	c #364D5B",
".I 	c #465D6B",
"+I 	c #435A68",
"@I 	c #506A77",
"#I 	c #4F6976",
"$I 	c #587480",
"%I 	c #6F8B99",
"&I 	c #3C5260",
"*I 	c #0F2030",
"=I 	c #0B1828",
"-I 	c #222836",
";I 	c #232733",
">I 	c #191D29",
",I 	c #122428",
"'I 	c #1E2B31",
")I 	c #253036",
"!I 	c #2E3740",
"~I 	c #363F48",
"{I 	c #39434C",
"]I 	c #2A434A",
"^I 	c #223F45",
"/I 	c #1C3A42",
"(I 	c #284952",
"_I 	c #32505B",
":I 	c #1D3E4F",
"<I 	c #022A43",
"[I 	c #00364F",
"}I 	c #00495A",
"|I 	c #056B77",
"1I 	c #15949A",
"2I 	c #28B8B9",
"3I 	c #23BBBC",
"4I 	c #18B4B3",
"5I 	c #10A8AB",
"6I 	c #059397",
"7I 	c #00797F",
"8I 	c #07747B",
"9I 	c #0C5E69",
"0I 	c #195462",
"aI 	c #234A5B",
"bI 	c #2F4656",
"cI 	c #313C42",
"dI 	c #293237",
"eI 	c #0F171A",
"fI 	c #0C1212",
"gI 	c #0E1211",
"hI 	c #0D1110",
"iI 	c #0F1014",
"jI 	c #0A0E11",
"kI 	c #1B2325",
"lI 	c #1C2426",
"mI 	c #272F31",
"nI 	c #2F3837",
"oI 	c #131919",
"pI 	c #2D3236",
"qI 	c #2E353B",
"rI 	c #353C42",
"sI 	c #677075",
"tI 	c #596468",
"uI 	c #415151",
"vI 	c #3F4E51",
"wI 	c #060F14",
"xI 	c #0A1117",
"yI 	c #40474F",
"zI 	c #4B525A",
"AI 	c #5D666F",
"BI 	c #59636D",
"CI 	c #5C6A75",
"DI 	c #586973",
"EI 	c #50626E",
"FI 	c #637583",
"GI 	c #677987",
"HI 	c #4B5D69",
"II 	c #5A6E79",
"JI 	c #4F6270",
"KI 	c #607381",
"LI 	c #435869",
"MI 	c #4D6476",
"NI 	c #445D71",
"OI 	c #4C657B",
"PI 	c #415A70",
"QI 	c #38536A",
"RI 	c #415C74",
"SI 	c #8BB0CA",
"TI 	c #79A5BE",
"UI 	c #92BED9",
"VI 	c #73A8C7",
"WI 	c #72A7C6",
"XI 	c #6395B0",
"YI 	c #6D96AC",
"ZI 	c #547483",
"`I 	c #000F18",
" J 	c #0C1719",
".J 	c #111A19",
"+J 	c #091113",
"@J 	c #212C30",
"#J 	c #6C7E88",
"$J 	c #68828F",
"%J 	c #607D8D",
"&J 	c #5C7C8B",
"*J 	c #607C8A",
"=J 	c #4C6A75",
"-J 	c #64808C",
";J 	c #748E9D",
">J 	c #6C8896",
",J 	c #6E8B9B",
"'J 	c #7E9BAB",
")J 	c #6C879A",
"!J 	c #6F889C",
"~J 	c #7A8FA4",
"{J 	c #647A8F",
"]J 	c #486779",
"^J 	c #496E80",
"/J 	c #628B9D",
"(J 	c #466A80",
"_J 	c #3D5571",
":J 	c #536782",
"<J 	c #486177",
"[J 	c #385364",
"}J 	c #3B5564",
"|J 	c #344E5B",
"1J 	c #1E343F",
"2J 	c #1E323B",
"3J 	c #25313F",
"4J 	c #26323E",
"5J 	c #1E2B34",
"6J 	c #1B2830",
"7J 	c #243137",
"8J 	c #2B383E",
"9J 	c #2F3C44",
"0J 	c #2C3941",
"aJ 	c #3A444E",
"bJ 	c #2A3740",
"cJ 	c #273540",
"dJ 	c #30424E",
"eJ 	c #344853",
"fJ 	c #3B515E",
"gJ 	c #425865",
"hJ 	c #59717D",
"iJ 	c #3C5864",
"jJ 	c #4A6873",
"kJ 	c #506D7B",
"lJ 	c #476172",
"mJ 	c #607588",
"nJ 	c #768799",
"oJ 	c #5C6C7C",
"pJ 	c #313E4E",
"qJ 	c #0D1B28",
"rJ 	c #071520",
"sJ 	c #1A2B33",
"tJ 	c #0D1E25",
"uJ 	c #0B1A21",
"vJ 	c #0A131C",
"wJ 	c #111520",
"xJ 	c #11141D",
"yJ 	c #1D1D27",
"zJ 	c #22252E",
"AJ 	c #232A32",
"BJ 	c #2A3B42",
"CJ 	c #21393D",
"DJ 	c #2B4448",
"EJ 	c #244044",
"FJ 	c #2F4B4F",
"GJ 	c #2B464D",
"HJ 	c #3A535A",
"IJ 	c #374A58",
"JJ 	c #132237",
"KJ 	c #1B3146",
"LJ 	c #184252",
"MJ 	c #033F49",
"NJ 	c #00464B",
"OJ 	c #004F53",
"PJ 	c #036065",
"QJ 	c #0B656D",
"RJ 	c #116872",
"SJ 	c #1B6A77",
"TJ 	c #206876",
"UJ 	c #1E5E6A",
"VJ 	c #134452",
"WJ 	c #19414D",
"XJ 	c #1C3844",
"YJ 	c #233644",
"ZJ 	c #28323C",
"`J 	c #2A343D",
" K 	c #151A1D",
".K 	c #161A1D",
"+K 	c #182022",
"@K 	c #1F292A",
"#K 	c #212B2C",
"$K 	c #1E2726",
"%K 	c #2C3534",
"&K 	c #121A1C",
"*K 	c #434A52",
"=K 	c #3E474E",
"-K 	c #414C52",
";K 	c #748187",
">K 	c #435255",
",K 	c #2C3A3D",
"'K 	c #1E292D",
")K 	c #141F21",
"!K 	c #0B1014",
"~K 	c #060B11",
"{K 	c #11151E",
"]K 	c #2C333D",
"^K 	c #555E67",
"/K 	c #65727A",
"(K 	c #63717A",
"_K 	c #5E6C75",
":K 	c #546471",
"<K 	c #5D6D7A",
"[K 	c #4E606C",
"}K 	c #546775",
"|K 	c #5D707F",
"1K 	c #556B79",
"2K 	c #4D6371",
"3K 	c #556A7B",
"4K 	c #586D80",
"5K 	c #566B7E",
"6K 	c #5B7083",
"7K 	c #42576A",
"8K 	c #465C71",
"9K 	c #4D6378",
"0K 	c #455B72",
"aK 	c #415972",
"bK 	c #799EB8",
"cK 	c #83ABC5",
"dK 	c #84AEC7",
"eK 	c #8CB5D1",
"fK 	c #85B4D0",
"gK 	c #7FB4D3",
"hK 	c #6BA1BD",
"iK 	c #538199",
"jK 	c #759AAC",
"kK 	c #46616C",
"lK 	c #00040B",
"mK 	c #081013",
"nK 	c #0C1011",
"oK 	c #0F1316",
"pK 	c #04090D",
"qK 	c #1E2831",
"rK 	c #23313A",
"sK 	c #3F535E",
"tK 	c #091D28",
"uK 	c #0F232C",
"vK 	c #0D1F29",
"wK 	c #10212B",
"xK 	c #182835",
"yK 	c #1D303E",
"zK 	c #243746",
"AK 	c #182939",
"BK 	c #0D1E2E",
"CK 	c #5C7182",
"DK 	c #507180",
"EK 	c #305A68",
"FK 	c #3B6677",
"GK 	c #4B7188",
"HK 	c #6D84A3",
"IK 	c #7C91AE",
"JK 	c #577188",
"KK 	c #476678",
"LK 	c #385565",
"MK 	c #3B5763",
"NK 	c #3D5863",
"OK 	c #344C56",
"PK 	c #344652",
"QK 	c #293946",
"RK 	c #2B3541",
"SK 	c #222C36",
"TK 	c #243139",
"UK 	c #253238",
"VK 	c #222F35",
"WK 	c #29363C",
"XK 	c #353F48",
"YK 	c #242E38",
"ZK 	c #25333E",
"`K 	c #30414B",
" L 	c #364852",
".L 	c #384C55",
"+L 	c #425A64",
"@L 	c #3D5964",
"#L 	c #41616C",
"$L 	c #436370",
"%L 	c #5C7989",
"&L 	c #557282",
"*L 	c #536C80",
"=L 	c #40566B",
"-L 	c #415669",
";L 	c #637687",
">L 	c #6C7D8D",
",L 	c #60727E",
"'L 	c #32464F",
")L 	c #0D2529",
"!L 	c #072122",
"~L 	c #06191D",
"{L 	c #1D1F2B",
"]L 	c #191B27",
"^L 	c #262F34",
"/L 	c #223438",
"(L 	c #324549",
"_L 	c #26393F",
":L 	c #283B41",
"<L 	c #3A4B53",
"[L 	c #37444D",
"}L 	c #10121F",
"|L 	c #202332",
"1L 	c #243841",
"2L 	c #13343B",
"3L 	c #09363B",
"4L 	c #0C3F43",
"5L 	c #25565D",
"6L 	c #34636D",
"7L 	c #2A5565",
"8L 	c #284F60",
"9L 	c #274E5F",
"0L 	c #274B5B",
"aL 	c #284855",
"bL 	c #293B45",
"cL 	c #313F4C",
"dL 	c #26303C",
"eL 	c #475057",
"fL 	c #181E1E",
"gL 	c #181A19",
"hL 	c #171918",
"iL 	c #151618",
"jL 	c #121315",
"kL 	c #162022",
"lL 	c #192426",
"mL 	c #333C3B",
"nL 	c #1A2224",
"oL 	c #182023",
"pL 	c #2B323A",
"qL 	c #464F56",
"rL 	c #323C45",
"sL 	c #6A7980",
"tL 	c #67797D",
"uL 	c #3E5054",
"vL 	c #405254",
"wL 	c #3D4A50",
"xL 	c #283337",
"yL 	c #202A2B",
"zL 	c #1C2124",
"AL 	c #14191C",
"BL 	c #05080F",
"CL 	c #141821",
"DL 	c #202731",
"EL 	c #536066",
"FL 	c #738086",
"GL 	c #55616D",
"HL 	c #515F6C",
"IL 	c #556572",
"JL 	c #617381",
"KL 	c #5D707E",
"LL 	c #4E6472",
"ML 	c #5F7583",
"NL 	c #596C7B",
"OL 	c #5C6F7E",
"PL 	c #586979",
"QL 	c #556676",
"RL 	c #4D5E6E",
"SL 	c #4C5F70",
"TL 	c #485B6C",
"UL 	c #4C6174",
"VL 	c #566B80",
"WL 	c #51677E",
"XL 	c #435B73",
"YL 	c #89ADC7",
"ZL 	c #8AAFCA",
"`L 	c #76A0B9",
" M 	c #709AB3",
".M 	c #6CA3C1",
"+M 	c #74AAC6",
"@M 	c #75A2B7",
"#M 	c #83A4B3",
"$M 	c #22363F",
"%M 	c #000509",
"&M 	c #181619",
"*M 	c #131217",
"=M 	c #1B1E25",
"-M 	c #2D313A",
";M 	c #00050D",
">M 	c #000B11",
",M 	c #00040C",
"'M 	c #050F19",
")M 	c #000410",
"!M 	c #0C1622",
"~M 	c #0B1423",
"{M 	c #000818",
"]M 	c #5C7E8A",
"^M 	c #4D7986",
"/M 	c #517F8F",
"(M 	c #5E879D",
"_M 	c #506987",
":M 	c #697E9D",
"<M 	c #7997AF",
"[M 	c #82A5B8",
"}M 	c #5A7B8A",
"|M 	c #4F6F7C",
"1M 	c #45636E",
"2M 	c #234048",
"3M 	c #2C444E",
"4M 	c #2D434E",
"5M 	c #212B34",
"6M 	c #202D35",
"7M 	c #16252C",
"8M 	c #25323A",
"9M 	c #29363E",
"0M 	c #2F3942",
"aM 	c #343D46",
"bM 	c #242E37",
"cM 	c #28353D",
"dM 	c #34424B",
"eM 	c #273A40",
"fM 	c #3A5157",
"gM 	c #425D64",
"hM 	c #35535B",
"iM 	c #587681",
"jM 	c #5A7789",
"kM 	c #577285",
"lM 	c #496374",
"mM 	c #475E6E",
"nM 	c #5A707B",
"oM 	c #6C8389",
"pM 	c #688185",
"qM 	c #4E6867",
"rM 	c #172F2F",
"sM 	c #0B151E",
"tM 	c #0D1720",
"uM 	c #0F181F",
"vM 	c #0C151C",
"wM 	c #1B242B",
"xM 	c #2A3139",
"yM 	c #262D35",
"zM 	c #252E37",
"AM 	c #373F4A",
"BM 	c #232A34",
"CM 	c #14141C",
"DM 	c #182C2B",
"EM 	c #0C2625",
"FM 	c #1C3539",
"GM 	c #2E454B",
"HM 	c #405661",
"IM 	c #405362",
"JM 	c #374C5D",
"KM 	c #344E5D",
"LM 	c #264250",
"MM 	c #28444F",
"NM 	c #335058",
"OM 	c #334A52",
"PM 	c #2F3D4A",
"QM 	c #303C4A",
"RM 	c #2F3B47",
"SM 	c #464F58",
"TM 	c #171C20",
"UM 	c #141817",
"VM 	c #161A19",
"WM 	c #1A1C1B",
"XM 	c #0C1013",
"YM 	c #182224",
"ZM 	c #172526",
"`M 	c #202B2D",
" N 	c #354141",
".N 	c #2C3638",
"+N 	c #131D1F",
"@N 	c #3E4750",
"#N 	c #334048",
"$N 	c #3C4B52",
"%N 	c #4F6266",
"&N 	c #3B4D51",
"*N 	c #3D4B4E",
"=N 	c #2D383C",
"-N 	c #293335",
";N 	c #1E2628",
">N 	c #15191A",
",N 	c #0F1219",
"'N 	c #10131C",
")N 	c #151C24",
"!N 	c #242D32",
"~N 	c #59666C",
"{N 	c #606A74",
"]N 	c #697581",
"^N 	c #5D6B76",
"/N 	c #657582",
"(N 	c #5C7280",
"_N 	c #576D7B",
":N 	c #536675",
"<N 	c #637382",
"[N 	c #596978",
"}N 	c #616F7C",
"|N 	c #586673",
"1N 	c #4B5B6A",
"2N 	c #465767",
"3N 	c #4B5C6E",
"4N 	c #4B5D71",
"5N 	c #4D6277",
"6N 	c #607890",
"7N 	c #516A83",
"8N 	c #80A2BB",
"9N 	c #99BDD7",
"0N 	c #698DA7",
"aN 	c #719BB4",
"bN 	c #6EA1BE",
"cN 	c #74A6C1",
"dN 	c #688EA3",
"eN 	c #6E8A96",
"fN 	c #18272E",
"gN 	c #0C1114",
"hN 	c #100F0D",
"iN 	c #1C1D1F",
"jN 	c #35393C",
"kN 	c #202427",
"lN 	c #363B3F",
"mN 	c #0C1417",
"nN 	c #03080B",
"oN 	c #0D1015",
"pN 	c #0A0D12",
"qN 	c #12171D",
"rN 	c #10151B",
"sN 	c #0D111A",
"tN 	c #0E151D",
"uN 	c #00040F",
"vN 	c #55717C",
"wN 	c #456B76",
"xN 	c #3C6676",
"yN 	c #56718E",
"zN 	c #637C9A",
"AN 	c #5A7D93",
"BN 	c #5E8395",
"CN 	c #638898",
"DN 	c #54747F",
"EN 	c #43616B",
"FN 	c #3E5964",
"GN 	c #38505C",
"HN 	c #2E414F",
"IN 	c #314351",
"JN 	c #2D363D",
"KN 	c #1E292F",
"LN 	c #132026",
"MN 	c #1A272F",
"NN 	c #1A242D",
"ON 	c #2B353E",
"PN 	c #323F47",
"QN 	c #52656B",
"RN 	c #395056",
"SN 	c #375259",
"TN 	c #3A5661",
"UN 	c #5D7A88",
"VN 	c #637E8F",
"WN 	c #546F80",
"XN 	c #5E7889",
"YN 	c #3C5665",
"ZN 	c #445B69",
"`N 	c #415965",
" O 	c #3D565D",
".O 	c #446064",
"+O 	c #658184",
"@O 	c #869FA3",
"#O 	c #72848E",
"$O 	c #40515B",
"%O 	c #18272C",
"&O 	c #171A21",
"*O 	c #181820",
"=O 	c #26262E",
"-O 	c #252831",
";O 	c #1E212A",
">O 	c #3D414C",
",O 	c #33383E",
"'O 	c #070709",
")O 	c #141A18",
"!O 	c #1F2A26",
"~O 	c #101C1C",
"{O 	c #273234",
"]O 	c #313A41",
"^O 	c #444D56",
"/O 	c #4B5561",
"(O 	c #3D4957",
"_O 	c #3D4F5D",
":O 	c #30474F",
"<O 	c #33474E",
"[O 	c #27333F",
"}O 	c #2C3844",
"|O 	c #2C3640",
"1O 	c #47515A",
"2O 	c #1C252A",
"3O 	c #161E21",
"4O 	c #1C2222",
"5O 	c #14181B",
"6O 	c #0C1618",
"7O 	c #1B2628",
"8O 	c #323C3D",
"9O 	c #373F41",
"0O 	c #21292B",
"aO 	c #21292C",
"bO 	c #242D34",
"cO 	c #26353C",
"dO 	c #44565A",
"eO 	c #64777B",
"fO 	c #2C393F",
"gO 	c #303B3F",
"hO 	c #30393E",
"iO 	c #090D0E",
"jO 	c #212224",
"kO 	c #06070B",
"lO 	c #0C0D12",
"mO 	c #161B1F",
"nO 	c #232B2E",
"oO 	c #272F32",
"pO 	c #4D5760",
"qO 	c #6D7B86",
"rO 	c #677784",
"sO 	c #5E717F",
"tO 	c #475D6B",
"uO 	c #4C6270",
"vO 	c #657887",
"wO 	c #667886",
"xO 	c #5A6A79",
"yO 	c #505E6B",
"zO 	c #596774",
"AO 	c #4D5B68",
"BO 	c #495764",
"CO 	c #4E5E6D",
"DO 	c #596A7A",
"EO 	c #586B7C",
"FO 	c #53687B",
"GO 	c #556B80",
"HO 	c #5A7087",
"IO 	c #556D87",
"JO 	c #516884",
"KO 	c #90AEC6",
"LO 	c #94B2CA",
"MO 	c #7391A9",
"NO 	c #7395AE",
"OO 	c #759EBA",
"PO 	c #79A3BC",
"QO 	c #89A8BC",
"RO 	c #607683",
"SO 	c #151918",
"TO 	c #1A1915",
"UO 	c #111109",
"VO 	c #101109",
"WO 	c #13160F",
"XO 	c #050C05",
"YO 	c #111A15",
"ZO 	c #070D0B",
"`O 	c #000403",
" P 	c #050908",
".P 	c #0A0E0D",
"+P 	c #0F1314",
"@P 	c #0A0E0F",
"#P 	c #121617",
"$P 	c #02070B",
"%P 	c #64777D",
"&P 	c #49616B",
"*P 	c #385867",
"=P 	c #426579",
"-P 	c #51738C",
";P 	c #41657D",
">P 	c #4A7083",
",P 	c #476E7D",
"'P 	c #4B717E",
")P 	c #537785",
"!P 	c #5C7C89",
"~P 	c #42606B",
"{P 	c #1E3A46",
"]P 	c #354F5C",
"^P 	c #4C6371",
"/P 	c #334957",
"(P 	c #344654",
"_P 	c #2F404A",
":P 	c #36434B",
"<P 	c #333C43",
"[P 	c #2A3235",
"}P 	c #1F272A",
"|P 	c #20272D",
"1P 	c #232E32",
"2P 	c #3B484E",
"3P 	c #35424A",
"4P 	c #2A343E",
"5P 	c #35424B",
"6P 	c #3C5057",
"7P 	c #3F535C",
"8P 	c #5A7179",
"9P 	c #465E68",
"0P 	c #49616D",
"aP 	c #3F5A65",
"bP 	c #445E6B",
"cP 	c #455F6C",
"dP 	c #496370",
"eP 	c #526C79",
"fP 	c #44606B",
"gP 	c #415D68",
"hP 	c #6F8696",
"iP 	c #899EAF",
"jP 	c #889BA9",
"kP 	c #1F3038",
"lP 	c #000D15",
"mP 	c #0C1117",
"nP 	c #1D1E23",
"oP 	c #212025",
"pP 	c #1B1A1F",
"qP 	c #1A1B1F",
"rP 	c #191D1C",
"sP 	c #1B211F",
"tP 	c #151D20",
"uP 	c #2D363B",
"vP 	c #424C55",
"wP 	c #4C5961",
"xP 	c #46545D",
"yP 	c #43515A",
"zP 	c #56676F",
"AP 	c #4E5F67",
"BP 	c #314047",
"CP 	c #324148",
"DP 	c #2E393F",
"EP 	c #384146",
"FP 	c #0E151B",
"GP 	c #0F1418",
"HP 	c #0A0F13",
"IP 	c #151F21",
"JP 	c #061012",
"KP 	c #0B1517",
"LP 	c #222828",
"MP 	c #24292C",
"NP 	c #1B2326",
"OP 	c #2F383D",
"PP 	c #5C6B70",
"QP 	c #606F74",
"RP 	c #29323B",
"SP 	c #31383E",
"TP 	c #181D21",
"UP 	c #171B1E",
"VP 	c #282B30",
"WP 	c #2E3337",
"XP 	c #273035",
"YP 	c #323F45",
"ZP 	c #425158",
"`P 	c #4C5D65",
" Q 	c #5B6F78",
".Q 	c #6C7F8D",
"+Q 	c #5B7280",
"@Q 	c #586D7E",
"#Q 	c #546776",
"$Q 	c #516272",
"%Q 	c #4E5F6F",
"&Q 	c #4F616F",
"*Q 	c #556876",
"=Q 	c #5A6F80",
"-Q 	c #546B7D",
";Q 	c #536980",
">Q 	c #526880",
",Q 	c #5B7189",
"'Q 	c #5F758D",
")Q 	c #617691",
"!Q 	c #596D88",
"~Q 	c #617590",
"{Q 	c #566782",
"]Q 	c #96AFC7",
"^Q 	c #9FB9D0",
"/Q 	c #708EA6",
"(Q 	c #6D91AB",
"_Q 	c #6F93AB",
":Q 	c #89A4B7",
"<Q 	c #000609",
"[Q 	c #080A07",
"}Q 	c #070700",
"|Q 	c #1B1B11",
"1Q 	c #1D1F14",
"2Q 	c #22281C",
"3Q 	c #2E382D",
"4Q 	c #3F4B41",
"5Q 	c #495049",
"6Q 	c #050A06",
"7Q 	c #0B0D0A",
"8Q 	c #070C08",
"9Q 	c #0A0F0B",
"0Q 	c #090B08",
"aQ 	c #788387",
"bQ 	c #586971",
"cQ 	c #475E6C",
"dQ 	c #466577",
"eQ 	c #43677D",
"fQ 	c #43697E",
"gQ 	c #4C7384",
"hQ 	c #49717D",
"iQ 	c #446876",
"jQ 	c #486A76",
"kQ 	c #547481",
"lQ 	c #658290",
"mQ 	c #314B5A",
"nQ 	c #2B4252",
"oQ 	c #465967",
"pQ 	c #293133",
"qQ 	c #22272D",
"rQ 	c #262D33",
"sQ 	c #253034",
"tQ 	c #222D31",
"uQ 	c #1B292C",
"vQ 	c #132225",
"wQ 	c #253439",
"xQ 	c #1C2630",
"yQ 	c #2B353F",
"zQ 	c #324049",
"AQ 	c #3F5058",
"BQ 	c #53666D",
"CQ 	c #435760",
"DQ 	c #475E66",
"EQ 	c #4F6771",
"FQ 	c #5A727E",
"GQ 	c #48636E",
"HQ 	c #425C69",
"IQ 	c #4A6471",
"JQ 	c #4E6877",
"KQ 	c #435D6C",
"LQ 	c #3F5968",
"MQ 	c #556F80",
"NQ 	c #475E70",
"OQ 	c #687E8C",
"PQ 	c #8295A3",
"QQ 	c #9BACB6",
"RQ 	c #4D5A62",
"SQ 	c #24272C",
"TQ 	c #121116",
"UQ 	c #201E21",
"VQ 	c #1E1C1F",
"WQ 	c #131315",
"XQ 	c #273132",
"YQ 	c #1D2726",
"ZQ 	c #13181B",
"`Q 	c #2A3338",
" R 	c #333E44",
".R 	c #3C4951",
"+R 	c #3D4A52",
"@R 	c #3B4850",
"#R 	c #2F3C42",
"$R 	c #29343A",
"%R 	c #364147",
"&R 	c #444D54",
"*R 	c #3A434A",
"=R 	c #2C353C",
"-R 	c #12191F",
";R 	c #0F191B",
">R 	c #222A2C",
",R 	c #212526",
"'R 	c #323635",
")R 	c #171D1D",
"!R 	c #202626",
"~R 	c #20282A",
"{R 	c #232D2F",
"]R 	c #2E393D",
"^R 	c #2E3B41",
"/R 	c #626F75",
"(R 	c #46505A",
"_R 	c #303942",
":R 	c #2B3034",
"<R 	c #1D1E22",
"[R 	c #272A2F",
"}R 	c #222A2D",
"|R 	c #2D383A",
"1R 	c #27383F",
"2R 	c #516570",
"3R 	c #657B88",
"4R 	c #667C8A",
"5R 	c #617687",
"6R 	c #546A78",
"7R 	c #546778",
"8R 	c #556877",
"9R 	c #506371",
"0R 	c #536674",
"aR 	c #607684",
"bR 	c #4E6374",
"cR 	c #52697B",
"dR 	c #566C83",
"eR 	c #536981",
"fR 	c #586E86",
"gR 	c #5D738B",
"hR 	c #677D95",
"iR 	c #667A93",
"jR 	c #5C7089",
"kR 	c #495A74",
"lR 	c #3C5069",
"mR 	c #42566F",
"nR 	c #465A76",
"oR 	c #9AB3CA",
"pR 	c #B5D1E9",
"qR 	c #88AAC3",
"rR 	c #96B9CF",
"sR 	c #7791A2",
"tR 	c #60605E",
"uR 	c #4A4A42",
"vR 	c #535347",
"wR 	c #6A6C5F",
"xR 	c #64675C",
"yR 	c #61695E",
"zR 	c #5E685F",
"AR 	c #454C45",
"BR 	c #353C35",
"CR 	c #050A04",
"DR 	c #060A09",
"ER 	c #090D0C",
"FR 	c #111310",
"GR 	c #7F8585",
"HR 	c #818B8D",
"IR 	c #4C626D",
"JR 	c #55717F",
"KR 	c #5A7B8E",
"LR 	c #406577",
"MR 	c #3E6270",
"NR 	c #517581",
"OR 	c #658592",
"PR 	c #5B7984",
"QR 	c #5C7884",
"RR 	c #607A87",
"SR 	c #768D9B",
"TR 	c #4D6474",
"UR 	c #0F2533",
"VR 	c #485A64",
"WR 	c #344245",
"XR 	c #333C41",
"YR 	c #282F35",
"ZR 	c #252C34",
"`R 	c #1F262E",
" S 	c #19242A",
".S 	c #152228",
"+S 	c #27343A",
"@S 	c #2E3C45",
"#S 	c #24323B",
"$S 	c #16272F",
"%S 	c #3B4F58",
"&S 	c #425863",
"*S 	c #48606A",
"=S 	c #39515D",
"-S 	c #405864",
";S 	c #3E5563",
">S 	c #586F7D",
",S 	c #445B6B",
"'S 	c #597080",
")S 	c #6C7D85",
"!S 	c #667379",
"~S 	c #111419",
"{S 	c #141215",
"]S 	c #121011",
"^S 	c #111717",
"/S 	c #293332",
"(S 	c #161817",
"_S 	c #293134",
":S 	c #2D3739",
"<S 	c #313E44",
"[S 	c #334046",
"}S 	c #354248",
"|S 	c #293438",
"1S 	c #323D41",
"2S 	c #2A3539",
"3S 	c #2A353B",
"4S 	c #273238",
"5S 	c #354046",
"6S 	c #4F585F",
"7S 	c #2F383F",
"8S 	c #121B22",
"9S 	c #111B1D",
"0S 	c #141C1E",
"aS 	c #080E0E",
"bS 	c #1C201F",
"cS 	c #101413",
"dS 	c #121818",
"eS 	c #293436",
"fS 	c #3A454B",
"gS 	c #5C666F",
"hS 	c #232D36",
"iS 	c #2E373E",
"jS 	c #252A2E",
"kS 	c #131418",
"lS 	c #1E2225",
"mS 	c #1D2527",
"nS 	c #263032",
"oS 	c #313F48",
"pS 	c #2D3F4B",
"qS 	c #3D505E",
"rS 	c #5A6D7B",
"sS 	c #768998",
"tS 	c #6F8290",
"uS 	c #5E707E",
"vS 	c #546674",
"wS 	c #586E7C",
"xS 	c #506578",
"yS 	c #5B7186",
"zS 	c #576D82",
"AS 	c #5D738A",
"BS 	c #5E748C",
"CS 	c #61778F",
"DS 	c #5F738C",
"ES 	c #536780",
"FS 	c #4B5F78",
"GS 	c #435770",
"HS 	c #40546D",
"IS 	c #50667E",
"JS 	c #5E728B",
"KS 	c #7286A1",
"LS 	c #60748F",
"MS 	c #93B0C7",
"NS 	c #ABCBE2",
"OS 	c #8BACBF",
"PS 	c #001018",
"QS 	c #3A3A38",
"RS 	c #43433B",
"SS 	c #444236",
"TS 	c #5D5D51",
"US 	c #535548",
"VS 	c #444A40",
"WS 	c #4D554A",
"XS 	c #4A4F49",
"YS 	c #353732",
"ZS 	c #121411",
"`S 	c #0B0F0E",
" T 	c #05090A",
".T 	c #080C0B",
"+T 	c #070B0A",
"@T 	c #0C0E0B",
"#T 	c #5C5E5B",
"$T 	c #B9BDBC",
"%T 	c #8E9698",
"&T 	c #697C83",
"*T 	c #425A66",
"=T 	c #2F4C5A",
"-T 	c #3D5D6C",
";T 	c #3A5A67",
">T 	c #54727D",
",T 	c #405C67",
"'T 	c #7A929E",
")T 	c #576F7B",
"!T 	c #516975",
"~T 	c #5A717F",
"{T 	c #7B92A2",
"]T 	c #3B5260",
"^T 	c #0B212E",
"/T 	c #00131E",
"(T 	c #4D5E65",
"_T 	c #344348",
":T 	c #333C45",
"<T 	c #1C232D",
"[T 	c #273037",
"}T 	c #222C35",
"|T 	c #162329",
"1T 	c #3C494F",
"2T 	c #505D63",
"3T 	c #132227",
"4T 	c #2D3A42",
"5T 	c #29363F",
"6T 	c #1F2D38",
"7T 	c #3F515B",
"8T 	c #324651",
"9T 	c #4C606B",
"0T 	c #344755",
"aT 	c #3B4E5C",
"bT 	c #3C4F5D",
"cT 	c #5A6D7C",
"dT 	c #415765",
"eT 	c #485E6B",
"fT 	c #546873",
"gT 	c #7A8B93",
"hT 	c #5E6B71",
"iT 	c #18181A",
"jT 	c #303A3B",
"kT 	c #36403F",
"lT 	c #161B1E",
"mT 	c #333D3F",
"nT 	c #2B3439",
"oT 	c #273236",
"pT 	c #253336",
"qT 	c #29373A",
"rT 	c #37444A",
"sT 	c #2E3C3F",
"tT 	c #354044",
"uT 	c #2B363A",
"vT 	c #343F45",
"wT 	c #39444A",
"xT 	c #4E575E",
"yT 	c #616C72",
"zT 	c #141E20",
"AT 	c #0D1313",
"BT 	c #0E1414",
"CT 	c #141A1A",
"DT 	c #252D2F",
"ET 	c #192124",
"FT 	c #121D21",
"GT 	c #455056",
"HT 	c #535E64",
"IT 	c #363F46",
"JT 	c #21262A",
"KT 	c #1F2428",
"LT 	c #101417",
"MT 	c #1E2326",
"NT 	c #384953",
"OT 	c #435561",
"PT 	c #82929F",
"QT 	c #72828F",
"RT 	c #5F6F7C",
"ST 	c #6A7D8C",
"TT 	c #607382",
"UT 	c #5A6F82",
"VT 	c #596F84",
"WT 	c #637990",
"XT 	c #60768E",
"YT 	c #546A82",
"ZT 	c #647891",
"`T 	c #576B84",
" U 	c #374B64",
".U 	c #647A91",
"+U 	c #657991",
"@U 	c #697D96",
"#U 	c #637790",
"$U 	c #657992",
"%U 	c #5A6D89",
"&U 	c #A3C2D4",
"*U 	c #879EAC",
"=U 	c #081921",
"-U 	c #53534B",
";U 	c #716E65",
">U 	c #67675B",
",U 	c #55574A",
"'U 	c #34372E",
")U 	c #20261C",
"!U 	c #20231C",
"~U 	c #0B0E07",
"{U 	c #10120D",
"]U 	c #171916",
"^U 	c #050B0B",
"/U 	c #131510",
"(U 	c #4B4D48",
"_U 	c #585A57",
":U 	c #414745",
"<U 	c #6C7B80",
"[U 	c #4C6067",
"}U 	c #4D656F",
"|U 	c #37525D",
"1U 	c #3E5660",
"2U 	c #2D454F",
"3U 	c #677B86",
"4U 	c #748795",
"5U 	c #6E8492",
"6U 	c #5F7686",
"7U 	c #617888",
"8U 	c #728999",
"9U 	c #718896",
"0U 	c #00111B",
"aU 	c #37414B",
"bU 	c #313B44",
"cU 	c #505D65",
"dU 	c #37464B",
"eU 	c #0B1D21",
"fU 	c #000E10",
"gU 	c #213337",
"hU 	c #36454A",
"iU 	c #2D3740",
"jU 	c #25333C",
"kU 	c #41525A",
"lU 	c #394B55",
"mU 	c #3D4F5B",
"nU 	c #465866",
"oU 	c #445664",
"pU 	c #364C59",
"qU 	c #40525C",
"rU 	c #606F76",
"sU 	c #111518",
"tU 	c #1A1A1C",
"uU 	c #211F20",
"vU 	c #171516",
"wU 	c #3B4544",
"xU 	c #0D1112",
"yU 	c #2C3637",
"zU 	c #283234",
"AU 	c #222D2F",
"BU 	c #2C3739",
"CU 	c #3A4849",
"DU 	c #2E393B",
"EU 	c #354042",
"FU 	c #333E42",
"GU 	c #3F4C52",
"HU 	c #475258",
"IU 	c #6F7A7E",
"JU 	c #313C40",
"KU 	c #030E10",
"LU 	c #00080A",
"MU 	c #586166",
"NU 	c #52595F",
"OU 	c #1F262C",
"PU 	c #14171C",
"QU 	c #121619",
"RU 	c #1F2326",
"SU 	c #21282E",
"TU 	c #293239",
"UU 	c #303D46",
"VU 	c #3B4954",
"WU 	c #22333D",
"XU 	c #313F4A",
"YU 	c #4C5A65",
"ZU 	c #697782",
"`U 	c #8596A0",
" V 	c #66798A",
".V 	c #495E71",
"+V 	c #60758A",
"@V 	c #778CA1",
"#V 	c #667C93",
"$V 	c #52687F",
"%V 	c #70869D",
"&V 	c #62788F",
"*V 	c #465C74",
"=V 	c #475D74",
"-V 	c #6E8499",
";V 	c #73899E",
">V 	c #6B8196",
",V 	c #7389A0",
"'V 	c #6E849B",
")V 	c #6F859D",
"!V 	c #677B94",
"~V 	c #5A6E87",
"{V 	c #15252D",
"]V 	c #1A1F1B",
"^V 	c #0F0E09",
"/V 	c #0B0B01",
"(V 	c #020200",
"_V 	c #080A00",
":V 	c #20231A",
"<V 	c #13140F",
"[V 	c #10120F",
"}V 	c #292E31",
"|V 	c #0B1013",
"1V 	c #070904",
"2V 	c #090C05",
"3V 	c #383933",
"4V 	c #5F605A",
"5V 	c #5A5F59",
"6V 	c #616A67",
"7V 	c #4B5757",
"8V 	c #34484F",
"9V 	c #5C7077",
"0V 	c #465960",
"aV 	c #273A41",
"bV 	c #000810",
"cV 	c #00050E",
"dV 	c #000812",
"eV 	c #435360",
"fV 	c #8A9DAB",
"gV 	c #728896",
"hV 	c #5B7282",
"iV 	c #546E7D",
"jV 	c #526C7B",
"kV 	c #627E8A",
"lV 	c #728E99",
"mV 	c #355059",
"nV 	c #00101B",
"oV 	c #000A17",
"pV 	c #313D49",
"qV 	c #4B5861",
"rV 	c #5B6773",
"sV 	c #525C66",
"tV 	c #353F49",
"uV 	c #4B5860",
"vV 	c #1E2D30",
"wV 	c #37494B",
"xV 	c #384A4C",
"yV 	c #58676A",
"zV 	c #26343D",
"AV 	c #425661",
"BV 	c #516065",
"CV 	c #5B666A",
"DV 	c #01090B",
"EV 	c #212725",
"FV 	c #2E3736",
"GV 	c #020403",
"HV 	c #233132",
"IV 	c #2B3939",
"JV 	c #313F40",
"KV 	c #2B393A",
"LV 	c #303B3D",
"MV 	c #2F3A3E",
"NV 	c #39464C",
"OV 	c #445157",
"PV 	c #6C777B",
"QV 	c #0A1416",
"RV 	c #1B2526",
"SV 	c #131B1D",
"TV 	c #1E252B",
"UV 	c #1A1D22",
"VV 	c #141519",
"WV 	c #0E1317",
"XV 	c #252F38",
"YV 	c #70818B",
"ZV 	c #7E8C97",
"`V 	c #80909D",
" W 	c #536474",
".W 	c #617689",
"+W 	c #677C91",
"@W 	c #6E8398",
"#W 	c #6A8097",
"$W 	c #657B92",
"%W 	c #5E748B",
"&W 	c #657B93",
"*W 	c #667C91",
"=W 	c #72899B",
"-W 	c #5C7287",
";W 	c #657B90",
">W 	c #687E93",
",W 	c #61778E",
"'W 	c #576B83",
")W 	c #5A6E86",
"!W 	c #63778F",
"~W 	c #697E93",
"{W 	c #667B90",
"]W 	c #141F23",
"^W 	c #151513",
"/W 	c #151610",
"(W 	c #0B0C04",
"_W 	c #161912",
":W 	c #393C35",
"<W 	c #4E504D",
"[W 	c #525451",
"}W 	c #4D4F4E",
"|W 	c #42454A",
"1W 	c #4A4F53",
"2W 	c #53585C",
"3W 	c #040809",
"4W 	c #1C1D17",
"5W 	c #73736B",
"6W 	c #A9AAA2",
"7W 	c #7F807A",
"8W 	c #676C66",
"9W 	c #394543",
"0W 	c #36484C",
"aW 	c #3E4B53",
"bW 	c #28353B",
"cW 	c #010C12",
"dW 	c #9CAFBD",
"eW 	c #7E95A5",
"fW 	c #4C6675",
"gW 	c #5C7788",
"hW 	c #587583",
"iW 	c #698792",
"jW 	c #66828E",
"kW 	c #000B17",
"lW 	c #87939F",
"mW 	c #3B4851",
"nW 	c #526063",
"oW 	c #364548",
"pW 	c #1B2B2B",
"qW 	c #3C4B4E",
"rW 	c #222D33",
"sW 	c #212E36",
"tW 	c #223039",
"uW 	c #36444D",
"vW 	c #33414A",
"wW 	c #3C4A55",
"xW 	c #38464F",
"yW 	c #394752",
"zW 	c #293A44",
"AW 	c #2C3F46",
"BW 	c #405359",
"CW 	c #3D4F53",
"DW 	c #5F6E71",
"EW 	c #4D585A",
"FW 	c #050D0F",
"GW 	c #181715",
"HW 	c #141311",
"IW 	c #171D1B",
"JW 	c #2D3633",
"KW 	c #283434",
"LW 	c #2A3636",
"MW 	c #232F2F",
"NW 	c #323E3E",
"OW 	c #303C3C",
"PW 	c #2F393A",
"QW 	c #313B3C",
"RW 	c #333E40",
"SW 	c #343F41",
"TW 	c #2B393C",
"UW 	c #303D43",
"VW 	c #3F4E53",
"WW 	c #384649",
"XW 	c #3B464A",
"YW 	c #626D6F",
"ZW 	c #3D4749",
"`W 	c #0C1210",
" X 	c #0F1312",
".X 	c #1A1E1F",
"+X 	c #192123",
"@X 	c #171F21",
"#X 	c #080D13",
"$X 	c #191E24",
"%X 	c #1C1F26",
"&X 	c #101318",
"*X 	c #0F110E",
"=X 	c #0D1114",
"-X 	c #0B0E13",
";X 	c #1A232A",
">X 	c #202930",
",X 	c #2C363F",
"'X 	c #283138",
")X 	c #7C8A95",
"!X 	c #8595A2",
"~X 	c #718391",
"{X 	c #5E7182",
"]X 	c #556A7D",
"^X 	c #6E8396",
"/X 	c #8095AA",
"(X 	c #63798E",
"_X 	c #6C8299",
":X 	c #6F859A",
"<X 	c #4E6577",
"[X 	c #4C6375",
"}X 	c #6C8297",
"|X 	c #677D92",
"1X 	c #62788D",
"2X 	c #5E7489",
"3X 	c #61768B",
"4X 	c #5A6F84",
"5X 	c #51667B",
"6X 	c #5E7386",
"7X 	c #6E7F94",
"8X 	c #66788D",
"9X 	c #384043",
"0X 	c #414546",
"aX 	c #12140F",
"bX 	c #000200",
"cX 	c #3B3E43",
"dX 	c #41464C",
"eX 	c #555A5E",
"fX 	c #010506",
"gX 	c #15160E",
"hX 	c #929288",
"iX 	c #8F8F85",
"jX 	c #535349",
"kX 	c #787D77",
"lX 	c #4A534E",
"mX 	c #2D3937",
"nX 	c #394748",
"oX 	c #485156",
"pX 	c #00070D",
"qX 	c #00070E",
"rX 	c #08121B",
"sX 	c #05131C",
"tX 	c #95AFBE",
"uX 	c #7E99AA",
"vX 	c #4D6A7A",
"wX 	c #517180",
"xX 	c #446471",
"yX 	c #4E6B79",
"zX 	c #6F8996",
"AX 	c #5D7581",
"BX 	c #213742",
"CX 	c #000E19",
"DX 	c #021420",
"EX 	c #0A1A27",
"FX 	c #2E3C49",
"GX 	c #3F4B57",
"HX 	c #414B55",
"IX 	c #28323B",
"JX 	c #424D53",
"KX 	c #101E1F",
"LX 	c #172228",
"MX 	c #19282F",
"NX 	c #526168",
"OX 	c #48565F",
"PX 	c #3A4851",
"QX 	c #404E57",
"RX 	c #3E4C55",
"SX 	c #4E5C65",
"TX 	c #293A42",
"UX 	c #32454B",
"VX 	c #283A3E",
"WX 	c #435152",
"XX 	c #3A4646",
"YX 	c #151412",
"ZX 	c #131210",
"`X 	c #151B19",
" Y 	c #2A3330",
".Y 	c #111516",
"+Y 	c #212D2D",
"@Y 	c #34403E",
"#Y 	c #35413F",
"$Y 	c #24302E",
"%Y 	c #333D3E",
"&Y 	c #2E3839",
"*Y 	c #313C3E",
"=Y 	c #46555A",
"-Y 	c #3B494C",
";Y 	c #626C6E",
">Y 	c #4D5759",
",Y 	c #060E10",
"'Y 	c #182120",
")Y 	c #141819",
"!Y 	c #3D4248",
"~Y 	c #32373D",
"{Y 	c #272B34",
"]Y 	c #191C23",
"^Y 	c #1F2229",
"/Y 	c #181B20",
"(Y 	c #03080E",
"_Y 	c #131C21",
":Y 	c #20292E",
"<Y 	c #242B33",
"[Y 	c #2A3137",
"}Y 	c #252C32",
"|Y 	c #27343D",
"1Y 	c #2F3C45",
"2Y 	c #4B5964",
"3Y 	c #8395A3",
"4Y 	c #7E8F9F",
"5Y 	c #788B9A",
"6Y 	c #6C7F90",
"7Y 	c #738899",
"8Y 	c #73889B",
"9Y 	c #6B8294",
"0Y 	c #5F7688",
"aY 	c #5C7385",
"bY 	c #788EA3",
"cY 	c #697F94",
"dY 	c #566C81",
"eY 	c #5C7186",
"fY 	c #4B6073",
"gY 	c #6D8091",
"hY 	c #778C9F",
"iY 	c #708598",
"jY 	c #6A8095",
"kY 	c #668097",
"lY 	c #495B65",
"mY 	c #252D30",
"nY 	c #030804",
"oY 	c #000405",
"pY 	c #04080B",
"qY 	c #080C0F",
"rY 	c #04070C",
"sY 	c #05090C",
"tY 	c #14150D",
"uY 	c #515145",
"vY 	c #29291D",
"wY 	c #212115",
"xY 	c #181A0D",
"yY 	c #0E1108",
"zY 	c #252F2E",
"AY 	c #242C2F",
"BY 	c #31393C",
"CY 	c #05080D",
"DY 	c #070C10",
"EY 	c #283F4F",
"FY 	c #5F7B89",
"GY 	c #7D9AAA",
"HY 	c #567685",
"IY 	c #456675",
"JY 	c #456572",
"KY 	c #4F6D78",
"LY 	c #516D78",
"MY 	c #809BA6",
"NY 	c #637B87",
"OY 	c #122835",
"PY 	c #000F1B",
"QY 	c #000F1C",
"RY 	c #02101B",
"SY 	c #232C31",
"TY 	c #212A2F",
"UY 	c #1F292B",
"VY 	c #435257",
"WY 	c #1D2C31",
"XY 	c #19282D",
"YY 	c #26353A",
"ZY 	c #4A5C60",
"`Y 	c #3C4D54",
" Z 	c #3E4D54",
".Z 	c #35444B",
"+Z 	c #202F36",
"@Z 	c #43545B",
"#Z 	c #203236",
"$Z 	c #2A393C",
"%Z 	c #4E5859",
"&Z 	c #0A1010",
"*Z 	c #171715",
"=Z 	c #1A2320",
"-Z 	c #18211E",
";Z 	c #212A29",
">Z 	c #293231",
",Z 	c #232D2C",
"'Z 	c #2D3736",
")Z 	c #2F3A36",
"!Z 	c #313C38",
"~Z 	c #333E3A",
"{Z 	c #2A3433",
"]Z 	c #2B3536",
"^Z 	c #364445",
"/Z 	c #4D5C5F",
"(Z 	c #3B4A4D",
"_Z 	c #344243",
":Z 	c #485355",
"<Z 	c #0B1111",
"[Z 	c #060A0B",
"}Z 	c #1B1F20",
"|Z 	c #101518",
"1Z 	c #13181E",
"2Z 	c #1C2127",
"3Z 	c #3D414A",
"4Z 	c #484C55",
"5Z 	c #151A20",
"6Z 	c #060B0F",
"7Z 	c #090F0D",
"8Z 	c #101012",
"9Z 	c #1C2125",
"0Z 	c #2B3841",
"aZ 	c #334049",
"bZ 	c #768896",
"cZ 	c #7F90A0",
"dZ 	c #8DA0AF",
"eZ 	c #7C8FA0",
"fZ 	c #6B8093",
"gZ 	c #63788B",
"hZ 	c #708596",
"iZ 	c #7F94A5",
"jZ 	c #6E8394",
"kZ 	c #596E7F",
"lZ 	c #667D8F",
"mZ 	c #647B8D",
"nZ 	c #61778C",
"oZ 	c #70869B",
"pZ 	c #687A8E",
"qZ 	c #72879A",
"rZ 	c #647D91",
"sZ 	c #7790A6",
"tZ 	c #849FB5",
"uZ 	c #06090E",
"vZ 	c #070A0F",
"wZ 	c #12151A",
"xZ 	c #000005",
"yZ 	c #11120A",
"zZ 	c #060400",
"AZ 	c #070500",
"BZ 	c #1F2012",
"CZ 	c #555648",
"DZ 	c #4D4F44",
"EZ 	c #1C1F16",
"FZ 	c #2F362F",
"GZ 	c #252A2D",
"HZ 	c #0B0C10",
"IZ 	c #0B1016",
"JZ 	c #10171F",
"KZ 	c #14212A",
"LZ 	c #31414E",
"MZ 	c #1C3645",
"NZ 	c #3A5664",
"OZ 	c #627F8D",
"PZ 	c #6F8F9E",
"QZ 	c #50707D",
"RZ 	c #42626D",
"SZ 	c #466770",
"TZ 	c #738F9A",
"UZ 	c #78909C",
"VZ 	c #435966",
"WZ 	c #02121F",
"XZ 	c #051320",
"YZ 	c #010B15",
"ZZ 	c #1C252E",
"`Z 	c #373E44",
" ` 	c #293036",
".` 	c #2D3C41",
"+` 	c #415055",
"@` 	c #29383D",
"#` 	c #1A2C30",
"$` 	c #1E3034",
"%` 	c #2A3C40",
"&` 	c #3D4C53",
"*` 	c #37464D",
"=` 	c #2B3A3D",
"-` 	c #1D2D2D",
";` 	c #192727",
">` 	c #101614",
",` 	c #1A1917",
"'` 	c #242D2C",
")` 	c #202A29",
"!` 	c #26302F",
"~` 	c #2E3935",
"{` 	c #334142",
"]` 	c #3F5155",
"^` 	c #475659",
"/` 	c #425051",
"(` 	c #4D5B5C",
"_` 	c #465153",
":` 	c #5A6465",
"<` 	c #555F60",
"[` 	c #040A0A",
"}` 	c #262729",
"|` 	c #1A1F23",
"1` 	c #20242D",
"2` 	c #2F333C",
"3` 	c #4B4F58",
"4` 	c #5F636C",
"5` 	c #585D63",
"6` 	c #3A3F43",
"7` 	c #010707",
"8` 	c #2A333A",
"9` 	c #38424B",
"0` 	c #34414A",
"a` 	c #2D3B46",
"b` 	c #98AAB8",
"c` 	c #8194A3",
"d` 	c #687B8A",
"e` 	c #8295A6",
"f` 	c #4F6678",
"g` 	c #637A8C",
"h` 	c #6C7E92",
"i` 	c #75879B",
"j` 	c #64798C",
"k` 	c #849DB1",
"l` 	c #667F95",
"m` 	c #4D677E",
"n` 	c #4A647F",
"o` 	c #6E8AA3",
"p` 	c #84A0BD",
"q` 	c #233F51",
"r` 	c #041E2F",
"s` 	c #041728",
"t` 	c #16232C",
"u` 	c #17181C",
"v` 	c #262A29",
"w` 	c #13140E",
"x` 	c #0B0D02",
"y` 	c #3F3D31",
"z` 	c #5B594C",
"A` 	c #817F70",
"B` 	c #6D6E60",
"C` 	c #55574C",
"D` 	c #262920",
"E` 	c #1F2427",
"F` 	c #0B0B0D",
"G` 	c #0C0C0E",
"H` 	c #111A23",
"I` 	c #3A505E",
"J` 	c #132D3A",
"K` 	c #334F5D",
"L` 	c #62808B",
"M` 	c #395A63",
"N` 	c #476871",
"O` 	c #3C5D66",
"P` 	c #516F79",
"Q` 	c #57727D",
"R` 	c #5A707D",
"S` 	c #3A4E59",
"T` 	c #000C19",
"U` 	c #06141F",
"V` 	c #0F1923",
"W` 	c #020911",
"X` 	c #1D2228",
"Y` 	c #262B31",
"Z` 	c #323D43",
"`` 	c #34464A",
"  .	c #192B2F",
". .	c #1F3135",
"+ .	c #4C5E62",
"@ .	c #586A6E",
"# .	c #324146",
"$ .	c #273333",
"% .	c #050B09",
"& .	c #212727",
"* .	c #262F2E",
"= .	c #212B2A",
"- .	c #2B3534",
"; .	c #2C3733",
"> .	c #36413D",
", .	c #364041",
"' .	c #354344",
") .	c #3B494A",
"! .	c #465656",
"~ .	c #425154",
"{ .	c #303F42",
"] .	c #4A5859",
"^ .	c #495758",
"/ .	c #525C5D",
"( .	c #667071",
"_ .	c #04090C",
": .	c #0A0F12",
"< .	c #131A22",
"[ .	c #20272F",
"} .	c #313840",
"| .	c #666D73",
"1 .	c #696E72",
"2 .	c #484D50",
"3 .	c #191E21",
"4 .	c #000205",
"5 .	c #070C0F",
"6 .	c #0E1316",
"7 .	c #121A1D",
"8 .	c #384651",
"9 .	c #4F616D",
"0 .	c #8B9DAB",
"a .	c #788A98",
"b .	c #758795",
"c .	c #6F8090",
"d .	c #617483",
"e .	c #677E8E",
"f .	c #586F81",
"g .	c #6E8597",
"h .	c #7A91A3",
"i .	c #3A4F62",
"j .	c #6E8094",
"k .	c #5B7081",
"l .	c #5A7183",
"m .	c #768FA3",
"n .	c #6B849A",
"o .	c #4F677F",
"p .	c #5A748D",
"q .	c #97B1CC",
"r .	c #93AEC9",
"s .	c #8AA5C2",
"t .	c #1D3B4D",
"u .	c #001629",
"v .	c #001226",
"w .	c #32475A",
"x .	c #172838",
"y .	c #061220",
"z .	c #0B141D",
"A .	c #1D2122",
"B .	c #15191C",
"C .	c #151714",
"D .	c #0D0F0A",
"E .	c #67695E",
"F .	c #929286",
"G .	c #49473A",
"H .	c #373526",
"I .	c #121305",
"J .	c #434337",
"K .	c #32352C",
"L .	c #181B14",
"M .	c #1B2023",
"N .	c #121214",
"O .	c #15161A",
"P .	c #202E39",
"Q .	c #253743",
"R .	c #1B333F",
"S .	c #0D2833",
"T .	c #5C7A84",
"U .	c #63818B",
"V .	c #4B6973",
"W .	c #334B57",
"X .	c #5B6E7C",
"Y .	c #172734",
"Z .	c #000712",
"` .	c #0B0F18",
" ..	c #30373F",
"...	c #38474E",
"+..	c #1C2D34",
"@..	c #37494D",
"#..	c #1C2E32",
"$..	c #304347",
"%..	c #1B2D31",
"&..	c #2D3F43",
"*..	c #445358",
"=..	c #2C3B40",
"-..	c #3C4A4D",
";..	c #253334",
">..	c #132121",
",..	c #1E2C2C",
"'..	c #000604",
")..	c #141213",
"!..	c #100E0F",
"~..	c #252B2B",
"{..	c #1F2928",
"]..	c #283231",
"^..	c #2C3635",
"/..	c #343F3B",
"(..	c #293738",
"_..	c #3C4A4B",
":..	c #475556",
"<..	c #3B4B4B",
"[..	c #314043",
"}..	c #405050",
"|..	c #414F50",
"1..	c #4B595A",
"2..	c #444F51",
"3..	c #232E30",
"4..	c #596364",
"5..	c #6F797A",
"6..	c #06070C",
"7..	c #05060A",
"8..	c #1E252D",
"9..	c #30373D",
"0..	c #42474B",
"a..	c #585D61",
"b..	c #595E61",
"c..	c #070F11",
"d..	c #00080B",
"e..	c #020A0C",
"f..	c #02070A",
"g..	c #0E1215",
"h..	c #080B10",
"i..	c #1E272C",
"j..	c #1F282D",
"k..	c #35434C",
"l..	c #405159",
"m..	c #6A7885",
"n..	c #98A8B5",
"o..	c #8B9DA9",
"p..	c #6D808F",
"q..	c #6A808E",
"r..	c #7990A0",
"s..	c #778E9E",
"t..	c #7A91A1",
"u..	c #465B6E",
"v..	c #4C6172",
"w..	c #5A6C80",
"x..	c #6B7E8F",
"y..	c #758C9E",
"z..	c #566F83",
"A..	c #597288",
"B..	c #7C94AC",
"C..	c #7892A9",
"D..	c #7D97B0",
"E..	c #7B97AF",
"F..	c #92AEC6",
"G..	c #8DA9C2",
"H..	c #103042",
"I..	c #001729",
"J..	c #122D40",
"K..	c #031424",
"L..	c #0F1922",
"M..	c #1E201D",
"N..	c #1B1D1A",
"O..	c #0F120B",
"P..	c #63655A",
"Q..	c #646458",
"R..	c #424335",
"S..	c #565447",
"T..	c #434436",
"U..	c #2F2F23",
"V..	c #6A6D64",
"W..	c #1C1F18",
"X..	c #0E1410",
"Y..	c #0D090A",
"Z..	c #0F0D0E",
"`..	c #111820",
" +.	c #141E28",
".+.	c #21333F",
"++.	c #1D313C",
"@+.	c #1A323C",
"#+.	c #19313B",
"$+.	c #5C7780",
"%+.	c #69848D",
"&+.	c #506B76",
"*+.	c #29444F",
"=+.	c #233D4A",
"-+.	c #2C4752",
";+.	c #5B737F",
">+.	c #6C808B",
",+.	c #0A1823",
"'+.	c #000A14",
")+.	c #08111A",
"!+.	c #0B121C",
"~+.	c #475059",
"{+.	c #5A676F",
"]+.	c #4E5D64",
"^+.	c #516067",
"/+.	c #42535A",
"(+.	c #34454C",
"_+.	c #2D3E45",
":+.	c #2B3A3F",
"<+.	c #2A393E",
"[+.	c #263339",
"}+.	c #202C2C",
"|+.	c #1E2A2A",
"1+.	c #121E1C",
"2+.	c #1F2827",
"3+.	c #1C2524",
"4+.	c #060807",
"5+.	c #040807",
"6+.	c #0F1513",
"7+.	c #303938",
"8+.	c #293334",
"9+.	c #2A3435",
"0+.	c #3F4B4B",
"a+.	c #455353",
"b+.	c #435151",
"c+.	c #324041",
"d+.	c #4C5A5B",
"e+.	c #515F60",
"f+.	c #3D484A",
"g+.	c #434D4F",
"h+.	c #667072",
"i+.	c #14191D",
"j+.	c #0E1319",
"k+.	c #171F22",
"l+.	c #172025",
"m+.	c #3C4349",
"n+.	c #484F55",
"o+.	c #4A5157",
"p+.	c #5D666B",
"q+.	c #1A2426",
"r+.	c #060E11",
"s+.	c #3A474F",
"t+.	c #52606B",
"u+.	c #61727C",
"v+.	c #728490",
"w+.	c #899DA8",
"x+.	c #8096A3",
"y+.	c #718795",
"z+.	c #7A919F",
"A+.	c #748B9B",
"B+.	c #637889",
"C+.	c #4B6071",
"D+.	c #5E7180",
"E+.	c #3D505F",
"F+.	c #4B5E6F",
"G+.	c #4A5F72",
"H+.	c #4C6277",
"I+.	c #8FA5BC",
"J+.	c #829BB1",
"K+.	c #859EB4",
"L+.	c #85A0B5",
"M+.	c #92ADC2",
"N+.	c #A0BBD0",
"O+.	c #84A0B5",
"P+.	c #86A2B7",
"Q+.	c #9BB5CB",
"R+.	c #19384B",
"S+.	c #082535",
"T+.	c #1A3546",
"U+.	c #1B1C1E",
"V+.	c #191816",
"W+.	c #262823",
"X+.	c #1B1E17",
"Y+.	c #030400",
"Z+.	c #0D0F02",
"`+.	c #1D1D11",
" @.	c #2F3022",
".@.	c #555346",
"+@.	c #636357",
"@@.	c #5F6156",
"#@.	c #73766D",
"$@.	c #6E736D",
"%@.	c #100C0B",
"&@.	c #120E0F",
"*@.	c #161417",
"=@.	c #203641",
"-@.	c #304852",
";@.	c #6D8591",
">@.	c #65808B",
",@.	c #2B4753",
"'@.	c #294551",
")@.	c #3E5662",
"!@.	c #647785",
"~@.	c #5A6C78",
"{@.	c #36444F",
"]@.	c #040C17",
"^@.	c #0C151E",
"/@.	c #48555D",
"(@.	c #4B5A61",
"_@.	c #3B4A51",
":@.	c #4C5B62",
"<@.	c #54636A",
"[@.	c #3A494E",
"}@.	c #233036",
"|@.	c #505B5F",
"1@.	c #313D3D",
"2@.	c #1F2B2B",
"3@.	c #283432",
"4@.	c #182422",
"5@.	c #27302F",
"6@.	c #060C0A",
"7@.	c #050505",
"8@.	c #0D1311",
"9@.	c #192221",
"0@.	c #252F30",
"a@.	c #2D3635",
"b@.	c #384243",
"c@.	c #3B4747",
"d@.	c #424E4E",
"e@.	c #3C4848",
"f@.	c #3D4949",
"g@.	c #3A4848",
"h@.	c #475555",
"i@.	c #3E4C4C",
"j@.	c #546263",
"k@.	c #465455",
"l@.	c #576566",
"m@.	c #495456",
"n@.	c #4E595B",
"o@.	c #697375",
"p@.	c #2F363C",
"q@.	c #0D1218",
"r@.	c #090C13",
"s@.	c #12151C",
"t@.	c #202529",
"u@.	c #50595E",
"v@.	c #3C474B",
"w@.	c #5A6569",
"x@.	c #606B6F",
"y@.	c #4F585D",
"z@.	c #000508",
"A@.	c #121317",
"B@.	c #15181D",
"C@.	c #2B3A41",
"D@.	c #5F717B",
"E@.	c #80949F",
"F@.	c #A8BEC9",
"G@.	c #92AAB6",
"H@.	c #829AA6",
"I@.	c #7C94A0",
"J@.	c #6F8694",
"K@.	c #7C92A0",
"L@.	c #788E9C",
"M@.	c #6C8290",
"N@.	c #4F6271",
"O@.	c #657A8D",
"P@.	c #92A9BB",
"Q@.	c #8FA6B8",
"R@.	c #9BB1C6",
"S@.	c #99B3C4",
"T@.	c #87A1B2",
"U@.	c #819CAD",
"V@.	c #94AFC0",
"W@.	c #8EA8B9",
"X@.	c #809AAB",
"Y@.	c #8CA4B8",
"Z@.	c #204252",
"`@.	c #0E2D3F",
" #.	c #0A2035",
".#.	c #041326",
"+#.	c #2D363F",
"@#.	c #161511",
"##.	c #191813",
"$#.	c #181914",
"%#.	c #151515",
"&#.	c #020100",
"*#.	c #545550",
"=#.	c #969893",
"-#.	c #878A83",
";#.	c #7F8078",
">#.	c #222417",
",#.	c #18180C",
"'#.	c #131406",
")#.	c #080900",
"!#.	c #121409",
"~#.	c #000805",
"{#.	c #161010",
"]#.	c #161213",
"^#.	c #161419",
"/#.	c #121318",
"(#.	c #10141D",
"_#.	c #141B25",
":#.	c #1D2730",
"<#.	c #22333B",
"[#.	c #31434D",
"}#.	c #334752",
"|#.	c #1C3440",
"1#.	c #76929E",
"2#.	c #3D5B66",
"3#.	c #183440",
"4#.	c #35515C",
"5#.	c #4A5C66",
"6#.	c #09131D",
"7#.	c #09161F",
"8#.	c #4A575F",
"9#.	c #45525A",
"0#.	c #57646C",
"a#.	c #363F3E",
"b#.	c #08080A",
"c#.	c #060608",
"d#.	c #17201F",
"e#.	c #191F1F",
"f#.	c #161F1E",
"g#.	c #262E30",
"h#.	c #2F3739",
"i#.	c #2B3335",
"j#.	c #31393B",
"k#.	c #374142",
"l#.	c #394344",
"m#.	c #4A5656",
"n#.	c #394747",
"o#.	c #445252",
"p#.	c #444F53",
"q#.	c #374246",
"r#.	c #747D84",
"s#.	c #0C131B",
"t#.	c #131419",
"u#.	c #1D2225",
"v#.	c #172122",
"w#.	c #151F20",
"x#.	c #101A1B",
"y#.	c #2D343C",
"z#.	c #4A575D",
"A#.	c #525F65",
"B#.	c #3E4C4F",
"C#.	c #424D51",
"D#.	c #636D6F",
"E#.	c #3E484A",
"F#.	c #060B0E",
"G#.	c #181C1F",
"H#.	c #111216",
"I#.	c #060C0C",
"J#.	c #1D282C",
"K#.	c #313A3F",
"L#.	c #394247",
"M#.	c #44555C",
"N#.	c #44585F",
"O#.	c #60777F",
"P#.	c #839BA5",
"Q#.	c #7D959F",
"R#.	c #90A8B2",
"S#.	c #97AFBB",
"T#.	c #98B0BC",
"U#.	c #68808C",
"V#.	c #4A5D6C",
"W#.	c #566777",
"X#.	c #4B5C6C",
"Y#.	c #647786",
"Z#.	c #5B6E7F",
"`#.	c #5A6D7E",
" $.	c #6E8192",
".$.	c #54697A",
"+$.	c #6C8393",
"@$.	c #869DAF",
"#$.	c #96B0BF",
"$$.	c #90AAB9",
"%$.	c #87A3B1",
"&$.	c #8FABB9",
"*$.	c #98B4C0",
"=$.	c #A3BBC7",
"-$.	c #9AB2BC",
";$.	c #99AFBC",
">$.	c #A0B6C4",
",$.	c #A4B9CA",
"'$.	c #8DA2B6",
")$.	c #193944",
"!$.	c #1A3842",
"~$.	c #011923",
"{$.	c #001522",
"]$.	c #0A1B2B",
"^$.	c #0C1929",
"/$.	c #2E353F",
"($.	c #202328",
"_$.	c #171612",
":$.	c #14130F",
"<$.	c #1B1A18",
"[$.	c #1D1C1A",
"}$.	c #1D1C18",
"|$.	c #11100B",
"1$.	c #6C6B66",
"2$.	c #7E7F77",
"3$.	c #51544B",
"4$.	c #43463B",
"5$.	c #83857A",
"6$.	c #414338",
"7$.	c #050500",
"8$.	c #1A1A0E",
"9$.	c #0E0E02",
"0$.	c #17170D",
"a$.	c #0C0F08",
"b$.	c #0D1517",
"c$.	c #130F10",
"d$.	c #14171E",
"e$.	c #28313A",
"f$.	c #1F2D36",
"g$.	c #243A45",
"h$.	c #4E6972",
"i$.	c #233E47",
"j$.	c #3D555F",
"k$.	c #394F5A",
"l$.	c #03111A",
"m$.	c #57666D",
"n$.	c #69767E",
"o$.	c #56636B",
"p$.	c #444F55",
"q$.	c #3D484E",
"r$.	c #3A4446",
"s$.	c #323838",
"t$.	c #0E0E10",
"u$.	c #1B2121",
"v$.	c #222B2A",
"w$.	c #2C3436",
"x$.	c #3C4647",
"y$.	c #3A4445",
"z$.	c #455151",
"A$.	c #454F50",
"B$.	c #414D4D",
"C$.	c #3D4B4B",
"D$.	c #5B696A",
"E$.	c #404E4F",
"F$.	c #4E5C5D",
"G$.	c #485357",
"H$.	c #6B747B",
"I$.	c #1D242E",
"J$.	c #181B22",
"K$.	c #171E26",
"L$.	c #313842",
"M$.	c #2A333C",
"N$.	c #4C5B60",
"O$.	c #5E6D72",
"P$.	c #5F6E73",
"Q$.	c #596267",
"R$.	c #6E777C",
"S$.	c #4F595B",
"T$.	c #090E11",
"U$.	c #2C373B",
"V$.	c #3F5057",
"W$.	c #41545A",
"X$.	c #40545B",
"Y$.	c #32464D",
"Z$.	c #445861",
"`$.	c #768D95",
" %.	c #A5BBC6",
".%.	c #8AA0AB",
"+%.	c #718590",
"@%.	c #4F636E",
"#%.	c #556775",
"$%.	c #6E808E",
"%%.	c #607280",
"&%.	c #526373",
"*%.	c #637685",
"=%.	c #627586",
"-%.	c #697E8F",
";%.	c #8095A6",
">%.	c #89A0B2",
",%.	c #8CA3B3",
"'%.	c #8AA4B3",
")%.	c #8CA6B3",
"!%.	c #AFC9D6",
"~%.	c #A2BDC8",
"{%.	c #A0B6C1",
"]%.	c #A9C0C8",
"^%.	c #A2B8C3",
"/%.	c #A9BFCC",
"(%.	c #ACC2D0",
"_%.	c #ADC0D1",
":%.	c #BBCDE1",
"<%.	c #B2C4D7",
"[%.	c #2B4B5E",
"}%.	c #102F31",
"|%.	c #001D18",
"1%.	c #0B211F",
"2%.	c #031517",
"3%.	c #0D1F23",
"4%.	c #536269",
"5%.	c #0E1B24",
"6%.	c #242B31",
"7%.	c #2D3035",
"8%.	c #1B1716",
"9%.	c #37392C",
"0%.	c #76786B",
"a%.	c #404435",
"b%.	c #313526",
"c%.	c #737568",
"d%.	c #5A5C51",
"e%.	c #0A0B03",
"f%.	c #0C0D05",
"g%.	c #181713",
"h%.	c #100F0B",
"i%.	c #43423E",
"j%.	c #BABBB6",
"k%.	c #0B0F10",
"l%.	c #0C0F14",
"m%.	c #0F141A",
"n%.	c #0F131C",
"o%.	c #121921",
"p%.	c #1A2B32",
"q%.	c #0C1D24",
"r%.	c #2D4046",
"s%.	c #42555C",
"t%.	c #50646B",
"u%.	c #283C47",
"v%.	c #4B5E65",
"w%.	c #182B32",
"x%.	c #35484F",
"y%.	c #3A4950",
"z%.	c #75848B",
"A%.	c #6E7D84",
"B%.	c #566369",
"C%.	c #4D5A60",
"D%.	c #48555B",
"E%.	c #384347",
"F%.	c #22272A",
"G%.	c #3C4041",
"H%.	c #090806",
"I%.	c #191F1D",
"J%.	c #202624",
"K%.	c #222C2B",
"L%.	c #2F3938",
"M%.	c #313B3A",
"N%.	c #37403F",
"O%.	c #353D3F",
"P%.	c #30383A",
"Q%.	c #414B4C",
"R%.	c #424A4C",
"S%.	c #586669",
"T%.	c #4E5C5F",
"U%.	c #404E4E",
"V%.	c #515F5F",
"W%.	c #475558",
"X%.	c #4F5A60",
"Y%.	c #677278",
"Z%.	c #727C85",
"`%.	c #161B21",
" &.	c #242829",
".&.	c #161F26",
"+&.	c #77868B",
"@&.	c #58656B",
"#&.	c #4B565C",
"$&.	c #606A6C",
"%&.	c #768081",
"&&.	c #444E4F",
"*&.	c #121C1B",
"=&.	c #020D09",
"-&.	c #010C08",
";&.	c #09120F",
">&.	c #171719",
",&.	c #151419",
"'&.	c #141318",
")&.	c #3A4549",
"!&.	c #35464E",
"~&.	c #55666E",
"{&.	c #798A92",
"]&.	c #93A4AC",
"^&.	c #7C8D95",
"/&.	c #83949E",
"(&.	c #9CADB7",
"_&.	c #778794",
":&.	c #596C7D",
"<&.	c #7D92A3",
"[&.	c #677C8F",
"}&.	c #718699",
"|&.	c #9EB5C7",
"1&.	c #9FB5CA",
"2&.	c #8DA4B6",
"3&.	c #93AABC",
"4&.	c #95ACBC",
"5&.	c #A4BBCB",
"6&.	c #9CB3C1",
"7&.	c #9FB5C2",
"8&.	c #90A4AF",
"9&.	c #A7BBC6",
"0&.	c #99ACBA",
"a&.	c #9EB1BF",
"b&.	c #AEC1CF",
"c&.	c #94A7B6",
"d&.	c #A1B4C3",
"e&.	c #90A3B2",
"f&.	c #B3C6D5",
"g&.	c #C6D9EA",
"h&.	c #B8CBDC",
"i&.	c #191C2B",
"j&.	c #0E0D1B",
"k&.	c #00101D",
"l&.	c #000E1C",
"m&.	c #031A2A",
"n&.	c #00192E",
"o&.	c #001B3A",
"p&.	c #3C5D7E",
"q&.	c #445F7D",
"r&.	c #001125",
"s&.	c #001813",
"t&.	c #001306",
"u&.	c #13241E",
"v&.	c #152421",
"w&.	c #121D1F",
"x&.	c #081116",
"y&.	c #161513",
"z&.	c #1C1817",
"A&.	c #2B2A26",
"B&.	c #585A4F",
"C&.	c #282C1E",
"D&.	c #1B1F10",
"E&.	c #35392A",
"F&.	c #8F9384",
"G&.	c #818576",
"H&.	c #616356",
"I&.	c #2B2D22",
"J&.	c #090A02",
"K&.	c #24231F",
"L&.	c #292824",
"M&.	c #585752",
"N&.	c #4A4740",
"O&.	c #31302B",
"P&.	c #0D1017",
"Q&.	c #141823",
"R&.	c #21252E",
"S&.	c #1B262A",
"T&.	c #495A61",
"U&.	c #60737A",
"V&.	c #3E505A",
"W&.	c #20343F",
"X&.	c #2B3E4C",
"Y&.	c #2D4350",
"Z&.	c #3C535B",
"`&.	c #4F666C",
" *.	c #5A6E75",
".*.	c #455960",
"+*.	c #36474E",
"@*.	c #6F7C82",
"#*.	c #546167",
"$*.	c #1D2124",
"%*.	c #1F2324",
"&*.	c #030504",
"**.	c #262C2A",
"=*.	c #26312D",
"-*.	c #273130",
";*.	c #2D3537",
">*.	c #3C4446",
",*.	c #404A4B",
"'*.	c #3F4D4D",
")*.	c #414F4F",
"!*.	c #4B5959",
"~*.	c #495757",
"{*.	c #4F5D5E",
"]*.	c #485659",
"^*.	c #7E8B93",
"/*.	c #77848D",
"(*.	c #141D26",
"_*.	c #1A2129",
":*.	c #23262B",
"<*.	c #1A1B1D",
"[*.	c #141D22",
"}*.	c #131E24",
"|*.	c #121D23",
"1*.	c #4A595E",
"2*.	c #55646B",
"3*.	c #5F6E75",
"4*.	c #535E60",
"5*.	c #54605E",
"6*.	c #515D59",
"7*.	c #37443D",
"8*.	c #0F1A16",
"9*.	c #000906",
"0*.	c #050E0D",
"a*.	c #100E11",
"b*.	c #18161B",
"c*.	c #0D0E12",
"d*.	c #111217",
"e*.	c #02050A",
"f*.	c #465157",
"g*.	c #4F5C64",
"h*.	c #435259",
"i*.	c #9AA9B0",
"j*.	c #B8C6CF",
"k*.	c #95A3AE",
"l*.	c #7F8F9C",
"m*.	c #6A7C8A",
"n*.	c #687B8C",
"o*.	c #97AEC0",
"p*.	c #8BA2B4",
"q*.	c #8299AB",
"r*.	c #8EA5B5",
"s*.	c #9BB2C2",
"t*.	c #A2B9C9",
"u*.	c #A9BFCD",
"v*.	c #B3C6D4",
"w*.	c #A2B5C3",
"x*.	c #9BAEBC",
"y*.	c #B2C5D3",
"z*.	c #91A4B2",
"A*.	c #ABBECC",
"B*.	c #A3B6C4",
"C*.	c #8FA2B0",
"D*.	c #6E818F",
"E*.	c #B4C7D5",
"F*.	c #A4B7C5",
"G*.	c #AFC1CF",
"H*.	c #A9BCC9",
"I*.	c #AEC1CE",
"J*.	c #071D2A",
"K*.	c #091A24",
"L*.	c #121824",
"M*.	c #060A16",
"N*.	c #00141C",
"O*.	c #000F1F",
"P*.	c #00152C",
"Q*.	c #00253F",
"R*.	c #5A829C",
"S*.	c #47617A",
"T*.	c #011611",
"U*.	c #001105",
"V*.	c #010E07",
"W*.	c #0C1615",
"X*.	c #030D0F",
"Y*.	c #1A1A18",
"Z*.	c #646560",
"`*.	c #8F908A",
" =.	c #37392E",
".=.	c #27291C",
"+=.	c #3E4033",
"@=.	c #141609",
"#=.	c #010300",
"$=.	c #2C2C22",
"%=.	c #404038",
"&=.	c #56564E",
"*=.	c #5E5E56",
"==.	c #59594F",
"-=.	c #474539",
";=.	c #1E1E14",
">=.	c #090D10",
",=.	c #11141B",
"'=.	c #1C2029",
")=.	c #1B1F28",
"!=.	c #161D23",
"~=.	c #233134",
"{=.	c #0C1B22",
"]=.	c #102129",
"^=.	c #51626C",
"/=.	c #5B6D79",
"(=.	c #3C5359",
"_=.	c #43575E",
":=.	c #384950",
"<=.	c #6B797C",
"[=.	c #303E41",
"}=.	c #212528",
"|=.	c #232C29",
"1=.	c #202926",
"2=.	c #283130",
"3=.	c #2A3234",
"4=.	c #3F4749",
"5=.	c #535E62",
"6=.	c #3E4C4D",
"7=.	c #2E3D3A",
"8=.	c #435154",
"9=.	c #67747D",
"0=.	c #808A94",
"a=.	c #323B44",
"b=.	c #1E272E",
"c=.	c #202425",
"d=.	c #1C272D",
"e=.	c #616E76",
"f=.	c #6B7880",
"g=.	c #4E5B63",
"h=.	c #505E61",
"i=.	c #394845",
"j=.	c #44504C",
"k=.	c #6A7672",
"l=.	c #4A5453",
"m=.	c #0E0F13",
"n=.	c #0F0E13",
"o=.	c #3F4A50",
"p=.	c #3C474D",
"q=.	c #4F5C62",
"r=.	c #637277",
"s=.	c #6D7C83",
"t=.	c #A4B5BD",
"u=.	c #A2B4BE",
"v=.	c #8A9EA9",
"w=.	c #7B8E9C",
"x=.	c #8BA1AF",
"y=.	c #94A9BA",
"z=.	c #9FB4C5",
"A=.	c #92A8B6",
"B=.	c #7D93A1",
"C=.	c #879DAA",
"D=.	c #92A8B5",
"E=.	c #9BB1BC",
"F=.	c #A6BAC5",
"G=.	c #AABCC8",
"H=.	c #9EB0BC",
"I=.	c #A3B5C1",
"J=.	c #A9BBC7",
"K=.	c #889AA6",
"L=.	c #A2B4C0",
"M=.	c #738591",
"N=.	c #A4B6C2",
"O=.	c #B0C2D0",
"P=.	c #B3C5D3",
"Q=.	c #CBDDEB",
"R=.	c #AEC0CE",
"S=.	c #A0B2C0",
"T=.	c #AABBCB",
"U=.	c #A4B6CA",
"V=.	c #889AB0",
"W=.	c #0D1721",
"X=.	c #0A111B",
"Y=.	c #03181D",
"Z=.	c #00161E",
"`=.	c #061626",
" -.	c #000B20",
".-.	c #3F697F",
"+-.	c #6C96AC",
"@-.	c #22384D",
"#-.	c #000511",
"$-.	c #000905",
"%-.	c #010D03",
"&-.	c #000904",
"*-.	c #181C1D",
"=-.	c #31322D",
"--.	c #474842",
";-.	c #1F2018",
">-.	c #060800",
",-.	c #030500",
"'-.	c #070900",
")-.	c #39392F",
"!-.	c #5E5E54",
"~-.	c #56564C",
"{-.	c #56564A",
"]-.	c #5A5B4D",
"^-.	c #525345",
"/-.	c #5A5849",
"(-.	c #4E4E42",
"_-.	c #0A0F15",
":-.	c #162123",
"<-.	c #131E22",
"[-.	c #0C1A1D",
"}-.	c #122128",
"|-.	c #374550",
"1-.	c #60707D",
"2-.	c #374B52",
"3-.	c #384F55",
"4-.	c #475B62",
"5-.	c #485B62",
"6-.	c #3E4F56",
"7-.	c #17282F",
"8-.	c #5F6D70",
"9-.	c #59676A",
"0-.	c #283033",
"a-.	c #272C2F",
"b-.	c #3E4243",
"c-.	c #2C3532",
"d-.	c #333B3D",
"e-.	c #344340",
"f-.	c #364542",
"g-.	c #364444",
"h-.	c #465359",
"i-.	c #47545C",
"j-.	c #8D989E",
"k-.	c #40494E",
"l-.	c #10181A",
"m-.	c #0A1214",
"n-.	c #121B20",
"o-.	c #273538",
"p-.	c #1A282B",
"q-.	c #38454D",
"r-.	c #6F7C84",
"s-.	c #5D6A72",
"t-.	c #4B595C",
"u-.	c #4A5654",
"v-.	c #3E4A48",
"w-.	c #333F3D",
"x-.	c #707A79",
"y-.	c #010508",
"z-.	c #050A0D",
"A-.	c #364145",
"B-.	c #49575A",
"C-.	c #576568",
"D-.	c #47545A",
"E-.	c #5F7078",
"F-.	c #B6C8D4",
"G-.	c #A8BCC7",
"H-.	c #A0B3C1",
"I-.	c #9CB0BB",
"J-.	c #8B9FAA",
"K-.	c #6D838E",
"L-.	c #70848D",
"M-.	c #95A9B2",
"N-.	c #B3C5CF",
"O-.	c #C1D3DD",
"P-.	c #C2D4DE",
"Q-.	c #BCCEDA",
"R-.	c #B1C3CF",
"S-.	c #96A8B4",
"T-.	c #B9CBD7",
"U-.	c #BCCEDC",
"V-.	c #C2D4E2",
"W-.	c #B1C3D1",
"X-.	c #A9BBC9",
"Y-.	c #9FB1BF",
"Z-.	c #A6B8C6",
"`-.	c #A4B5C5",
" ;.	c #9CAFBE",
".;.	c #A9BACA",
"+;.	c #9EB1C0",
"@;.	c #96A8B8",
"#;.	c #061421",
"$;.	c #181C25",
"%;.	c #0C1019",
"&;.	c #05171B",
"*;.	c #071B22",
"=;.	c #4C7A8A",
"-;.	c #1F4A5A",
";;.	c #141913",
">;.	c #252724",
",;.	c #0C0E09",
"';.	c #050400",
");.	c #0A0905",
"!;.	c #101006",
"~;.	c #38382C",
"{;.	c #505143",
"];.	c #4A4B3B",
"^;.	c #4C4D3B",
"/;.	c #474836",
"(;.	c #4E503B",
"_;.	c #313222",
":;.	c #13161D",
"<;.	c #131B1E",
"[;.	c #1A2425",
"};.	c #0C171B",
"|;.	c #081319",
"1;.	c #50656A",
"2;.	c #33464C",
"3;.	c #16252A",
"4;.	c #313F42",
"5;.	c #5A686B",
"6;.	c #647275",
"7;.	c #303A3C",
"8;.	c #434949",
"9;.	c #1F2825",
"0;.	c #323A3C",
"a;.	c #384042",
"b;.	c #42514E",
"c;.	c #3C4B48",
"d;.	c #455451",
"e;.	c #4E5D5A",
"f;.	c #354441",
"g;.	c #465454",
"h;.	c #4B585E",
"i;.	c #4E5B61",
"j;.	c #848F93",
"k;.	c #4E595D",
"l;.	c #0F1A1E",
"m;.	c #192428",
"n;.	c #141F25",
"o;.	c #303D45",
"p;.	c #39464E",
"q;.	c #505E5E",
"r;.	c #546262",
"s;.	c #324040",
"t;.	c #616B6C",
"u;.	c #44494C",
"v;.	c #000104",
"w;.	c #000407",
"x;.	c #1A2225",
"y;.	c #596768",
"z;.	c #4F6165",
"A;.	c #4B5C64",
"B;.	c #50636A",
"C;.	c #7A8D94",
"D;.	c #A9BCC3",
"E;.	c #99ACB3",
"F;.	c #6D8188",
"G;.	c #83969D",
"H;.	c #8A9EA5",
"I;.	c #85989E",
"J;.	c #9FB2B8",
"K;.	c #ADC0C6",
"L;.	c #9CADB5",
"M;.	c #B3C4CC",
"N;.	c #ACBDC5",
"O;.	c #98A9B3",
"P;.	c #C1D2DC",
"Q;.	c #BACBD5",
"R;.	c #B0C1CB",
"S;.	c #ADBDCA",
"T;.	c #C2D2DF",
"U;.	c #ABBDC9",
"V;.	c #ADBFCB",
"W;.	c #ABBDCB",
"X;.	c #ACBECA",
"Y;.	c #AEC0CA",
"Z;.	c #A1B3BD",
"`;.	c #A6B7C1",
" >.	c #D7E9F5",
".>.	c #BCCCD9",
"+>.	c #9AABBB",
"@>.	c #0B1926",
"#>.	c #1A1D24",
"$>.	c #0C131D",
"%>.	c #0F161C",
"&>.	c #081619",
"*>.	c #0A1D23",
"=>.	c #000F1D",
"->.	c #1F4051",
";>.	c #6795A4",
">>.	c #20221D",
",>.	c #090708",
"'>.	c #0B0A08",
")>.	c #060501",
"!>.	c #393A2C",
"~>.	c #585949",
"{>.	c #545543",
"]>.	c #5C5E49",
"^>.	c #595B46",
"/>.	c #5B5D47",
"(>.	c #6A6C56",
"_>.	c #404332",
":>.	c #080903",
"<>.	c #191C21",
"[>.	c #1D2025",
"}>.	c #0A131A",
"|>.	c #495E63",
"1>.	c #6B7E84",
"2>.	c #55686E",
"3>.	c #1F2E33",
"4>.	c #425053",
"5>.	c #3F4A4C",
"6>.	c #3A4244",
"7>.	c #292F2F",
"8>.	c #333939",
"9>.	c #040A08",
"0>.	c #030909",
"a>.	c #1E2724",
"b>.	c #363E40",
"c>.	c #445350",
"d>.	c #4A5956",
"e>.	c #3A4946",
"f>.	c #465552",
"g>.	c #536161",
"h>.	c #455356",
"i>.	c #536164",
"j>.	c #848F91",
"k>.	c #636E70",
"l>.	c #677172",
"m>.	c #0D1615",
"n>.	c #101D25",
"o>.	c #344149",
"p>.	c #566467",
"q>.	c #596968",
"r>.	c #5E6E6D",
"s>.	c #435352",
"t>.	c #374545",
"u>.	c #333F3F",
"v>.	c #5C6466",
"w>.	c #5D6265",
"x>.	c #34383B",
"y>.	c #2A3634",
"z>.	c #303F44",
"A>.	c #3F4E55",
"B>.	c #5C6E72",
"C>.	c #718289",
"D>.	c #92A4A8",
"E>.	c #A7B8BF",
"F>.	c #ADBFC3",
"G>.	c #A1B3B7",
"H>.	c #A8BABE",
"I>.	c #98AAAE",
"J>.	c #ACBDC4",
"K>.	c #A8B9C0",
"L>.	c #AFC0C8",
"M>.	c #A0B1B9",
"N>.	c #BECFD9",
"O>.	c #B9CAD4",
"P>.	c #A3B3C0",
"Q>.	c #B3C3D0",
"R>.	c #A1B3C1",
"S>.	c #BACCDA",
"T>.	c #C1D3E1",
"U>.	c #AABAC7",
"V>.	c #9AABB3",
"W>.	c #9CADB4",
"X>.	c #C1D0D7",
"Y>.	c #B3C4CB",
"Z>.	c #A9BAC1",
"`>.	c #B1C2CA",
" ,.	c #C1D2DA",
".,.	c #BCCDD7",
"+,.	c #CBDBEA",
"@,.	c #B3C5D4",
"#,.	c #0A1622",
"$,.	c #141622",
"%,.	c #161A26",
"&,.	c #0F1821",
"*,.	c #04171E",
"=,.	c #022833",
"-,.	c #386673",
";,.	c #264E5A",
">,.	c #001923",
",,.	c #041618",
"',.	c #0F0E0C",
"),.	c #181816",
"!,.	c #232321",
"~,.	c #3D3D3B",
"{,.	c #020001",
"],.	c #0B0801",
"^,.	c #454336",
"/,.	c #676556",
"(,.	c #5D5C48",
"_,.	c #575641",
":,.	c #5A5944",
"<,.	c #686752",
"[,.	c #6E705A",
"},.	c #373A29",
"|,.	c #0A0B05",
"1,.	c #030502",
"2,.	c #0C0D11",
"3,.	c #13262A",
"4,.	c #304246",
"5,.	c #6E7D82",
"6,.	c #48575C",
"7,.	c #1C2A2D",
"8,.	c #364143",
"9,.	c #4F595A",
"0,.	c #0A100E",
"a,.	c #1C2220",
"b,.	c #4B5755",
"c,.	c #4A5652",
"d,.	c #57635F",
"e,.	c #3F4E49",
"f,.	c #3E4D48",
"g,.	c #51605D",
"h,.	c #5E6C6D",
"i,.	c #475254",
"j,.	c #5F696A",
"k,.	c #76807F",
"l,.	c #697271",
"m,.	c #4B5453",
"n,.	c #0C1617",
"o,.	c #172123",
"p,.	c #273133",
"q,.	c #152026",
"r,.	c #7A8A8A",
"s,.	c #394B4B",
"t,.	c #5B6365",
"u,.	c #656D6F",
"v,.	c #7D8285",
"w,.	c #7A8080",
"x,.	c #020B0A",
"y,.	c #0A1312",
"z,.	c #0C1514",
"A,.	c #1A2521",
"B,.	c #182221",
"C,.	c #404E51",
"D,.	c #39484B",
"E,.	c #78878C",
"F,.	c #8B9A9D",
"G,.	c #B4C3C6",
"H,.	c #C1D0D3",
"I,.	c #C1D0D5",
"J,.	c #B1C0C5",
"K,.	c #ADBCC1",
"L,.	c #B4C3CA",
"M,.	c #B1C0C7",
"N,.	c #BECCD5",
"O,.	c #B0BEC7",
"P,.	c #A3B4BE",
"Q,.	c #B7C8D2",
"R,.	c #A4B5BF",
"S,.	c #A8B8C5",
"T,.	c #ABBBC8",
"U,.	c #ABBBCA",
"V,.	c #B1C1CE",
"W,.	c #A6B5BC",
"X,.	c #B5C4C9",
"Y,.	c #AEBBC1",
"Z,.	c #B6C5CA",
"`,.	c #AFBEC5",
" '.	c #ADBCC3",
".'.	c #B7C5CE",
"+'.	c #B6C4CF",
"@'.	c #BBCBDA",
"#'.	c #C0D0DF",
"$'.	c #AAB9CC",
"%'.	c #161622",
"&'.	c #171928",
"*'.	c #0A141D",
"='.	c #031A22",
"-'.	c #2B5D66",
";'.	c #69A2AB",
">'.	c #153945",
",'.	c #000E16",
"''.	c #021010",
")'.	c #0E1412",
"!'.	c #0E0A0B",
"~'.	c #0E100B",
"{'.	c #1E1F1A",
"]'.	c #2E2F29",
"^'.	c #80817C",
"/'.	c #3D3E39",
"('.	c #242424",
"_'.	c #191917",
":'.	c #040203",
"<'.	c #050402",
"['.	c #0E0B04",
"}'.	c #434134",
"|'.	c #6F6E5C",
"1'.	c #63624E",
"2'.	c #61604B",
"3'.	c #6D6C57",
"4'.	c #65644F",
"5'.	c #595B45",
"6'.	c #3B3C2C",
"7'.	c #0C0D07",
"8'.	c #020401",
"9'.	c #010302",
"0'.	c #040507",
"a'.	c #0F1015",
"b'.	c #202528",
"c'.	c #252A30",
"d'.	c #262F36",
"e'.	c #2F3E43",
"f'.	c #293B3F",
"g'.	c #26383C",
"h'.	c #1E2D32",
"i'.	c #243235",
"j'.	c #263437",
"k'.	c #273536",
"l'.	c #424B4A",
"m'.	c #081110",
"n'.	c #091211",
"o'.	c #0F1817",
"p'.	c #161F1C",
"q'.	c #262F2C",
"r'.	c #3B4345",
"s'.	c #374343",
"t'.	c #2E3A38",
"u'.	c #465250",
"v'.	c #3E4A46",
"w'.	c #495551",
"x'.	c #4D5955",
"y'.	c #4C5B56",
"z'.	c #495853",
"A'.	c #52615E",
"B'.	c #41504D",
"C'.	c #4F5F5F",
"D'.	c #829292",
"E'.	c #5F6D6E",
"F'.	c #4E5A5A",
"G'.	c #444E4D",
"H'.	c #596362",
"I'.	c #606A69",
"J'.	c #697372",
"K'.	c #808A8B",
"L'.	c #535D5F",
"M'.	c #2E383A",
"N'.	c #202B2F",
"O'.	c #07141A",
"P'.	c #0E1B21",
"Q'.	c #4D5F5F",
"R'.	c #2D3F3F",
"S'.	c #364646",
"T'.	c #515D5D",
"U'.	c #474F51",
"V'.	c #565C5C",
"W'.	c #6E7474",
"X'.	c #616A69",
"Y'.	c #040D0A",
"Z'.	c #1B2524",
"`'.	c #525D61",
" ).	c #7C878B",
".).	c #4F5D60",
"+).	c #697778",
"@).	c #839194",
"#).	c #A1AFB2",
"$).	c #BBCACF",
"%).	c #BDCCD1",
"&).	c #B4C3C8",
"*).	c #C0CFD6",
"=).	c #BCCBD2",
"-).	c #B9C7D0",
";).	c #92A0A9",
">).	c #B8C9D3",
",).	c #BFD0DA",
"').	c #AFC0CA",
")).	c #B0C0CD",
"!).	c #ACBAC7",
"~).	c #B4C1CA",
"{).	c #B2BFC7",
"]).	c #A8B5BD",
"^).	c #BDCAD2",
"/).	c #B9C6CE",
"().	c #B8C7CE",
"_).	c #C5D3DC",
":).	c #B7C5D0",
"<).	c #B3C4CE",
"[).	c #B9C9D6",
"}).	c #BFCFDE",
"|).	c #C3D3E2",
"1).	c #B3C3D3",
"2).	c #90A1B1",
"3).	c #202F3E",
"4).	c #101C28",
"5).	c #1C1A28",
"6).	c #181A29",
"7).	c #05111D",
"8).	c #0B1D27",
"9).	c #0C1A25",
"0).	c #07252F",
"a).	c #45848D",
"b).	c #4B8A93",
"c).	c #25434E",
"d).	c #031019",
"e).	c #030D0C",
"f).	c #1E2118",
"g).	c #373A31",
"h).	c #5C5F56",
"i).	c #80837A",
"j).	c #5F605B",
"k).	c #343432",
"l).	c #1F1D1E",
"m).	c #1A1819",
"n).	c #0D0C0A",
"o).	c #0D0A05",
"p).	c #060300",
"q).	c #403E2F",
"r).	c #585745",
"s).	c #676652",
"t).	c #676651",
"u).	c #5B5A45",
"v).	c #686753",
"w).	c #575846",
"x).	c #232416",
"y).	c #040402",
"z).	c #25282D",
"A).	c #22292F",
"B).	c #1D2C2F",
"C).	c #223134",
"D).	c #0A1519",
"E).	c #2A3839",
"F).	c #2F3B3B",
"G).	c #283233",
"H).	c #424C4B",
"I).	c #101918",
"J).	c #07100F",
"K).	c #131C19",
"L).	c #151E1B",
"M).	c #101916",
"N).	c #374140",
"O).	c #3B4745",
"P).	c #3D4945",
"Q).	c #333F3B",
"R).	c #424E4A",
"S).	c #47534F",
"T).	c #495855",
"U).	c #475757",
"V).	c #617171",
"W).	c #637372",
"X).	c #3C4C4B",
"Y).	c #6D7979",
"Z).	c #768282",
"`).	c #758082",
" !.	c #697476",
".!.	c #252F31",
"+!.	c #182327",
"@!.	c #0D1B1E",
"#!.	c #122023",
"$!.	c #071518",
"%!.	c #08171A",
"&!.	c #2D3F41",
"*!.	c #2F3F3F",
"=!.	c #3D4D4D",
"-!.	c #4B5658",
";!.	c #394446",
">!.	c #4F5759",
",!.	c #596261",
"'!.	c #525B5A",
")!.	c #000404",
"!!.	c #4A5358",
"~!.	c #687377",
"{!.	c #6B767A",
"]!.	c #707E81",
"^!.	c #93A1A4",
"/!.	c #C7D5D8",
"(!.	c #C6D3D9",
"_!.	c #BFCCD2",
":!.	c #B3C0C8",
"<!.	c #BAC7CF",
"[!.	c #C8D6DF",
"}!.	c #BBC9D2",
"|!.	c #B1BFC8",
"1!.	c #BECCD7",
"2!.	c #B4C2CD",
"3!.	c #A0AEB9",
"4!.	c #B0BCC8",
"5!.	c #C0CAD4",
"6!.	c #B0BDC6",
"7!.	c #B7C4CD",
"8!.	c #B4C1C9",
"9!.	c #C3D2D9",
"0!.	c #BFCDD6",
"a!.	c #B6C4CD",
"b!.	c #BCCAD3",
"c!.	c #BAC8D3",
"d!.	c #B1BFCA",
"e!.	c #AEBFC9",
"f!.	c #B4C5D7",
"g!.	c #9FB0C2",
"h!.	c #283849",
"i!.	c #141E1D",
"j!.	c #171624",
"k!.	c #191A2C",
"l!.	c #0E222D",
"m!.	c #051C2A",
"n!.	c #103844",
"o!.	c #61A5AE",
"p!.	c #498992",
"q!.	c #041F2A",
"r!.	c #09101A",
"s!.	c #090E0A",
"t!.	c #0F140E",
"u!.	c #13190F",
"v!.	c #51574B",
"w!.	c #8C8F84",
"x!.	c #7E8178",
"y!.	c #575852",
"z!.	c #383836",
"A!.	c #131112",
"B!.	c #030303",
"C!.	c #363425",
"D!.	c #62614D",
"E!.	c #605F4A",
"F!.	c #72715C",
"G!.	c #6F6E5A",
"H!.	c #6E6D5B",
"I!.	c #626353",
"J!.	c #2B2B1F",
"K!.	c #11120C",
"L!.	c #1A1E21",
"M!.	c #19272A",
"N!.	c #1A2529",
"O!.	c #101B1F",
"P!.	c #0D181C",
"Q!.	c #4C555A",
"R!.	c #5E696D",
"S!.	c #2E3C3D",
"T!.	c #1D2B2C",
"U!.	c #1B2727",
"V!.	c #2B3431",
"W!.	c #313D3B",
"X!.	c #414D49",
"Y!.	c #37433F",
"Z!.	c #34403C",
"`!.	c #627070",
" ~.	c #4B5B5B",
".~.	c #647474",
"+~.	c #566665",
"@~.	c #415150",
"#~.	c #394545",
"$~.	c #596466",
"%~.	c #717C7E",
"&~.	c #7F898B",
"*~.	c #848E90",
"=~.	c #727C7E",
"-~.	c #465052",
";~.	c #0E1C1F",
">~.	c #010F12",
",~.	c #000F12",
"'~.	c #101F22",
")~.	c #1A2A2A",
"!~.	c #1C2A2B",
"~~.	c #3A4547",
"{~.	c #495354",
"]~.	c #555D5F",
"^~.	c #464E50",
"/~.	c #4C5554",
"(~.	c #535959",
"_~.	c #474D4D",
":~.	c #020607",
"<~.	c #252E33",
"[~.	c #363F44",
"}~.	c #4E575C",
"|~.	c #5E676C",
"1~.	c #576266",
"2~.	c #687679",
"3~.	c #9BA9AC",
"4~.	c #D3E0E6",
"5~.	c #CAD7DD",
"6~.	c #C0CDD5",
"7~.	c #B5C2CA",
"8~.	c #BECDD4",
"9~.	c #C1CFD8",
"0~.	c #A3B1BA",
"a~.	c #ACBAC5",
"b~.	c #B6C2CE",
"c~.	c #C0CAD6",
"d~.	c #B4BECA",
"e~.	c #B8C2CE",
"f~.	c #BDCAD3",
"g~.	c #BBC8D1",
"h~.	c #CEDBE3",
"i~.	c #B3C2C9",
"j~.	c #B5C4CB",
"k~.	c #BBCAD1",
"l~.	c #C3D1DA",
"m~.	c #C2D3DB",
"n~.	c #B6C6D3",
"o~.	c #C2D3E3",
"p~.	c #A0B1C1",
"q~.	c #1B2531",
"r~.	c #121B24",
"s~.	c #121E1E",
"t~.	c #161A25",
"u~.	c #131927",
"v~.	c #021927",
"w~.	c #00212E",
"x~.	c #245865",
"y~.	c #60A4AD",
"z~.	c #38737B",
"A~.	c #001621",
"B~.	c #090C15",
"C~.	c #020609",
"D~.	c #141B13",
"E~.	c #1C2419",
"F~.	c #63695B",
"G~.	c #979D8F",
"H~.	c #666C60",
"I~.	c #50534C",
"J~.	c #424345",
"K~.	c #18171C",
"L~.	c #0E0D12",
"M~.	c #040404",
"N~.	c #000602",
"O~.	c #000002",
"P~.	c #201E0F",
"Q~.	c #72715D",
"R~.	c #75745F",
"S~.	c #7A7964",
"T~.	c #6C6B57",
"U~.	c #6F6D5E",
"V~.	c #5E5C4F",
"W~.	c #222218",
"X~.	c #242F31",
"Y~.	c #444E50",
"Z~.	c #1A2527",
"`~.	c #2D3738",
" {.	c #2A302E",
".{.	c #303A39",
"+{.	c #323C3B",
"@{.	c #404A49",
"#{.	c #3F4948",
"${.	c #303C3A",
"%{.	c #4B5A57",
"&{.	c #4C5B58",
"*{.	c #4C5A5A",
"={.	c #687676",
"-{.	c #4C5858",
";{.	c #404C4C",
">{.	c #9FAAAC",
",{.	c #939EA0",
"'{.	c #182325",
"){.	c #111F20",
"!{.	c #031112",
"~{.	c #0C1A1B",
"{{.	c #162425",
"]{.	c #3C4648",
"^{.	c #404A4C",
"/{.	c #535D5E",
"({.	c #5B6566",
"_{.	c #505A5B",
":{.	c #4A5254",
"<{.	c #4D5557",
"[{.	c #575F61",
"}{.	c #747C7E",
"|{.	c #090E12",
"1{.	c #333A40",
"2{.	c #757F81",
"3{.	c #717B7D",
"4{.	c #788385",
"5{.	c #7C8789",
"6{.	c #7E898D",
"7{.	c #9CA7AB",
"8{.	c #BDCAD0",
"9{.	c #C9D6DC",
"0{.	c #D2DFE5",
"a{.	c #CBD8E0",
"b{.	c #BBC8D0",
"c{.	c #AAB8C1",
"d{.	c #B3C1CA",
"e{.	c #C9D5E1",
"f{.	c #B7C3D1",
"g{.	c #ACB8C6",
"h{.	c #BCC8D4",
"i{.	c #BFCCD4",
"j{.	c #C8D5DD",
"k{.	c #C0CDD3",
"l{.	c #BAC7CD",
"m{.	c #B8C5CB",
"n{.	c #C7D4DA",
"o{.	c #C8D7DC",
"p{.	c #BDCCD3",
"q{.	c #BFD0D7",
"r{.	c #BBCBD8",
"s{.	c #B2C2CF",
"t{.	c #B7C7D6",
"u{.	c #BACBD9",
"v{.	c #B0C0D1",
"w{.	c #182432",
"x{.	c #1E2633",
"y{.	c #161D27",
"z{.	c #131E20",
"A{.	c #041F30",
"B{.	c #134453",
"C{.	c #5997A4",
"D{.	c #41818D",
"E{.	c #001F29",
"F{.	c #03151F",
"G{.	c #0C0C14",
"H{.	c #060407",
"I{.	c #131313",
"J{.	c #111619",
"K{.	c #181D16",
"L{.	c #4F5646",
"M{.	c #727969",
"N{.	c #7C8373",
"O{.	c #3F443D",
"P{.	c #3B403C",
"Q{.	c #464A4B",
"R{.	c #3C4043",
"S{.	c #050E0B",
"T{.	c #030406",
"U{.	c #080904",
"V{.	c #5F5E4A",
"W{.	c #66664E",
"X{.	c #605F4B",
"Y{.	c #6C6A5B",
"Z{.	c #535145",
"`{.	c #2E2E26",
" ].	c #0D0C07",
".].	c #040500",
"+].	c #050608",
"@].	c #18191D",
"#].	c #0F1719",
"$].	c #0B1316",
"%].	c #172224",
"&].	c #111C1E",
"*].	c #242E2F",
"=].	c #232C2B",
"-].	c #2E3837",
";].	c #353F3E",
">].	c #53625F",
",].	c #667474",
"'].	c #445050",
")].	c #4C5657",
"!].	c #414C4E",
"~].	c #727D7F",
"{].	c #909B9D",
"]].	c #A6B1B3",
"^].	c #7A8587",
"/].	c #091416",
"(].	c #0E191B",
"_].	c #0E1C1D",
":].	c #010C0E",
"<].	c #000A0C",
"[].	c #020D0F",
"}].	c #4D5758",
"|].	c #4A5455",
"1].	c #586062",
"2].	c #2F393B",
"3].	c #4B5355",
"4].	c #454D4F",
"5].	c #464C4C",
"6].	c #000203",
"7].	c #11181E",
"8].	c #646E70",
"9].	c #747E80",
"0].	c #737D7F",
"a].	c #8F9AA0",
"b].	c #AFBCC2",
"c].	c #B6C3C9",
"d].	c #CDDAE0",
"e].	c #C4D0DC",
"f].	c #B9C5D1",
"g].	c #BBC7D3",
"h].	c #C1CDD9",
"i].	c #B1BEC7",
"j].	c #AFBCC4",
"k].	c #C2CFD5",
"l].	c #B7C6CB",
"m].	c #C2D0D9",
"n].	c #BCCDD5",
"o].	c #B0C1C9",
"p].	c #BDCBD4",
"q].	c #BECFD7",
"r].	c #C8D6E1",
"s].	c #C0D1DB",
"t].	c #BFCDDA",
"u].	c #C5D5E2",
"v].	c #B2C0D1",
"w].	c #A3B2C3",
"x].	c #273947",
"y].	c #151B27",
"z].	c #1E252F",
"A].	c #0E171C",
"B].	c #101A1C",
"C].	c #0E1D24",
"D].	c #072638",
"E].	c #205B6D",
"F].	c #69ACBC",
"G].	c #3D7280",
"H].	c #001B27",
"I].	c #1C1A1D",
"J].	c #171A13",
"K].	c #22251A",
"L].	c #606455",
"M].	c #868D7B",
"N].	c #6C7363",
"O].	c #4D5548",
"P].	c #454C44",
"Q].	c #485052",
"R].	c #474F52",
"S].	c #010B0C",
"T].	c #050F0E",
"U].	c #010D0B",
"V].	c #000C0C",
"W].	c #050F11",
"X].	c #040C0F",
"Y].	c #03060B",
"Z].	c #0B0B03",
"`].	c #464435",
" ^.	c #696853",
".^.	c #66644D",
"+^.	c #797760",
"@^.	c #71705B",
"#^.	c #807F6D",
"$^.	c #646255",
"%^.	c #2E2E24",
"&^.	c #0A0904",
"*^.	c #0E0F14",
"=^.	c #16171C",
"-^.	c #1B1E23",
";^.	c #0B1315",
">^.	c #202A2C",
",^.	c #1C2627",
"'^.	c #1E2829",
")^.	c #172120",
"!^.	c #1D2625",
"~^.	c #212A27",
"{^.	c #1F2120",
"]^.	c #1F2420",
"^^.	c #242827",
"/^.	c #384140",
"(^.	c #323E3C",
"_^.	c #3A4644",
":^.	c #3E4D4A",
"<^.	c #3F4E4B",
"[^.	c #4D5C59",
"}^.	c #5C6866",
"|^.	c #546060",
"1^.	c #364242",
"2^.	c #384444",
"3^.	c #535F5F",
"4^.	c #495555",
"5^.	c #5A6666",
"6^.	c #647070",
"7^.	c #8A9696",
"8^.	c #808C8C",
"9^.	c #657171",
"0^.	c #2D3939",
"a^.	c #040E0F",
"b^.	c #0B1516",
"c^.	c #091515",
"d^.	c #071112",
"e^.	c #2A3436",
"f^.	c #30383B",
"g^.	c #3B4346",
"h^.	c #455052",
"i^.	c #545F61",
"j^.	c #4C575B",
"k^.	c #3B4547",
"l^.	c #646C6E",
"m^.	c #565E60",
"n^.	c #000102",
"o^.	c #080D11",
"p^.	c #5C6668",
"q^.	c #596365",
"r^.	c #768183",
"s^.	c #7D888C",
"t^.	c #758084",
"u^.	c #8A9599",
"v^.	c #ADBBBE",
"w^.	c #CBD9DC",
"x^.	c #D0DDE3",
"y^.	c #CDDBE4",
"z^.	c #C6D5DC",
"A^.	c #C2D1D8",
"B^.	c #B5C2C8",
"C^.	c #B0BDC3",
"D^.	c #BAC8CB",
"E^.	c #B9C7CA",
"F^.	c #AFBDC0",
"G^.	c #C5D3D6",
"H^.	c #CEDCDF",
"I^.	c #B7C4CA",
"J^.	c #C7D6DD",
"K^.	c #BCC9D2",
"L^.	c #B7C6CD",
"M^.	c #C2CFD7",
"N^.	c #CDDAE2",
"O^.	c #B3C0C9",
"P^.	c #BAC6D2",
"Q^.	c #C5D3DE",
"R^.	c #C7D3E1",
"S^.	c #C0CEDB",
"T^.	c #2F4452",
"U^.	c #19212C",
"V^.	c #181F29",
"W^.	c #1C232B",
"X^.	c #0E1E1D",
"Y^.	c #112526",
"Z^.	c #0A202D",
"`^.	c #022739",
" /.	c #296A7C",
"./.	c #61A6B6",
"+/.	c #093747",
"@/.	c #151517",
"#/.	c #262521",
"$/.	c #34362B",
"%/.	c #666958",
"&/.	c #8A8F7B",
"*/.	c #676E5C",
"=/.	c #49534A",
"-/.	c #46514D",
";/.	c #526061",
">/.	c #0D1B1C",
",/.	c #000B0B",
"'/.	c #000E0B",
")/.	c #000708",
"!/.	c #000C0D",
"~/.	c #040F15",
"{/.	c #000209",
"]/.	c #00020B",
"^/.	c #413F30",
"//.	c #807F6A",
"(/.	c #6E6C53",
"_/.	c #706E55",
":/.	c #62624A",
"</.	c #73725E",
"[/.	c #727061",
"}/.	c #252519",
"|/.	c #0A0B0F",
"1/.	c #1B1F22",
"2/.	c #22272B",
"3/.	c #262E31",
"4/.	c #424C4D",
"5/.	c #222C2D",
"6/.	c #1E2827",
"7/.	c #202221",
"8/.	c #272B2A",
"9/.	c #2C3B38",
"0/.	c #3D4C49",
"a/.	c #485452",
"b/.	c #535D5C",
"c/.	c #465252",
"d/.	c #727C7D",
"e/.	c #000809",
"f/.	c #162021",
"g/.	c #2C3437",
"h/.	c #373F42",
"i/.	c #4A585B",
"j/.	c #5A6466",
"k/.	c #3D4548",
"l/.	c #495153",
"m/.	c #686D70",
"n/.	c #6F7575",
"o/.	c #535758",
"p/.	c #232728",
"q/.	c #727D81",
"r/.	c #646F73",
"s/.	c #889397",
"t/.	c #8E999D",
"u/.	c #637174",
"v/.	c #7E8C8F",
"w/.	c #B1BFC2",
"x/.	c #C2D0D3",
"y/.	c #CCDBE0",
"z/.	c #C5D4D9",
"A/.	c #AAB9BC",
"B/.	c #99A7A8",
"C/.	c #B7C5C6",
"D/.	c #B5C3C4",
"E/.	c #C8D6D9",
"F/.	c #BFCDD0",
"G/.	c #B0BEC1",
"H/.	c #BECCCF",
"I/.	c #C1CFD2",
"J/.	c #ACB9BF",
"K/.	c #B2BFC5",
"L/.	c #BECBD3",
"M/.	c #C1CED6",
"N/.	c #B7C4CC",
"O/.	c #B9C6CC",
"P/.	c #C4D1D7",
"Q/.	c #C1CED4",
"R/.	c #CBD8DE",
"S/.	c #B6C3CB",
"T/.	c #ADBAC2",
"U/.	c #C4D1DA",
"V/.	c #B2C0CD",
"W/.	c #A5B6C7",
"X/.	c #233742",
"Y/.	c #192732",
"Z/.	c #212832",
"`/.	c #0B1E18",
" (.	c #051E1A",
".(.	c #488B9E",
"+(.	c #4A8DA0",
"@(.	c #001728",
"#(.	c #100E13",
"$(.	c #201C1D",
"%(.	c #3C3835",
"&(.	c #55554B",
"*(.	c #7E8170",
"=(.	c #7D826E",
"-(.	c #5B6250",
";(.	c #4D5848",
">(.	c #414D43",
",(.	c #46524E",
"'(.	c #49585B",
")(.	c #415355",
"!(.	c #2F4342",
"~(.	c #192E2A",
"{(.	c #070B16",
"](.	c #03060F",
"^(.	c #74735E",
"/(.	c #66644B",
"((.	c #747357",
"_(.	c #727258",
":(.	c #6C6B56",
"<(.	c #656452",
"[(.	c #242517",
"}(.	c #060600",
"|(.	c #222220",
"1(.	c #0A0B10",
"2(.	c #0D1716",
"3(.	c #0E1817",
"4(.	c #303F3C",
"5(.	c #5D6766",
"6(.	c #4B5554",
"7(.	c #293737",
"8(.	c #354343",
"9(.	c #2D3C39",
"0(.	c #2A3936",
"a(.	c #374643",
"b(.	c #5B6969",
"c(.	c #4D5957",
"d(.	c #46504F",
"e(.	c #4D5756",
"f(.	c #4F5958",
"g(.	c #778180",
"h(.	c #9AA4A3",
"i(.	c #7E8887",
"j(.	c #4E5658",
"k(.	c #2E3D42",
"l(.	c #334247",
"m(.	c #556366",
"n(.	c #545F63",
"o(.	c #576264",
"p(.	c #4A5456",
"q(.	c #3E4648",
"r(.	c #606568",
"s(.	c #8A8F92",
"t(.	c #606465",
"u(.	c #2A2E2F",
"v(.	c #4E585A",
"w(.	c #5E686A",
"x(.	c #5E696B",
"y(.	c #879294",
"z(.	c #A5B0B2",
"A(.	c #B3BEC0",
"B(.	c #717F80",
"C(.	c #909E9F",
"D(.	c #849494",
"E(.	c #6F8280",
"F(.	c #8D9D9C",
"G(.	c #ADBDBC",
"H(.	c #B0C0BF",
"I(.	c #D5E5E4",
"J(.	c #CDDDDC",
"K(.	c #C5D3D4",
"L(.	c #B4C2C3",
"M(.	c #B3C1C4",
"N(.	c #BDC8CE",
"O(.	c #B4BEC7",
"P(.	c #BAC4CD",
"Q(.	c #B7C1CA",
"R(.	c #CAD4DD",
"S(.	c #AEB9BF",
"T(.	c #BFCAD0",
"U(.	c #C7D2D8",
"V(.	c #BEC9CF",
"W(.	c #B6C1C5",
"X(.	c #BFCACE",
"Y(.	c #C9D4D8",
"Z(.	c #C3CED2",
"`(.	c #BAC5C9",
" _.	c #C8D3D9",
"._.	c #C9D4DA",
"+_.	c #C7D1DA",
"@_.	c #B9C3CC",
"#_.	c #B6C0CA",
"$_.	c #A4B6C4",
"%_.	c #B1C6D7",
"&_.	c #9BB0C1",
"*_.	c #8094A8",
"=_.	c #283E49",
"-_.	c #0A171D",
";_.	c #132320",
">_.	c #0A2425",
",_.	c #0F3542",
"'_.	c #4C8A9F",
")_.	c #00374A",
"!_.	c #06222E",
"~_.	c #161618",
"{_.	c #1E191D",
"]_.	c #2C2829",
"^_.	c #42413D",
"/_.	c #696A62",
"(_.	c #9FA194",
"__.	c #797D6E",
":_.	c #515749",
"<_.	c #505A4F",
"[_.	c #5E6B62",
"}_.	c #485855",
"|_.	c #536363",
"1_.	c #3D5152",
"2_.	c #3A4E4E",
"3_.	c #0B1821",
"4_.	c #060F18",
"5_.	c #000107",
"6_.	c #010100",
"7_.	c #2E2D1B",
"8_.	c #77775F",
"9_.	c #77765A",
"0_.	c #68674B",
"a_.	c #5E5E44",
"b_.	c #585742",
"c_.	c #4D4C3A",
"d_.	c #404548",
"e_.	c #2B2D2C",
"f_.	c #191B18",
"g_.	c #20221F",
"h_.	c #191E1A",
"i_.	c #151A16",
"j_.	c #364240",
"k_.	c #3D4947",
"l_.	c #4A5352",
"m_.	c #2F3B39",
"n_.	c #414D4B",
"o_.	c #4C5856",
"p_.	c #505C5A",
"q_.	c #5B6564",
"r_.	c #6E7877",
"s_.	c #5F6968",
"t_.	c #434D4C",
"u_.	c #656F6E",
"v_.	c #8D9597",
"w_.	c #454A4D",
"x_.	c #152326",
"y_.	c #202D33",
"z_.	c #525C5E",
"A_.	c #545E60",
"B_.	c #5C6262",
"C_.	c #5D6665",
"D_.	c #5F6A6C",
"E_.	c #A1AFB0",
"F_.	c #829091",
"G_.	c #869696",
"H_.	c #91A1A0",
"I_.	c #7A8D89",
"J_.	c #A3B3B0",
"K_.	c #A0B0AD",
"L_.	c #B4C4C3",
"M_.	c #CEDEDD",
"N_.	c #BBCBCA",
"O_.	c #CBD9DA",
"P_.	c #C3D1D2",
"Q_.	c #B4C2C5",
"R_.	c #B7C2C8",
"S_.	c #B6C0C9",
"T_.	c #BDC7D0",
"U_.	c #CFDAE0",
"V_.	c #909BA1",
"W_.	c #B1BCC2",
"X_.	c #C4CFD5",
"Y_.	c #BCC7CB",
"Z_.	c #BCC7C9",
"`_.	c #BBC5C7",
" :.	c #C7D2D6",
".:.	c #BEC9CD",
"+:.	c #CBD6DA",
"@:.	c #C4CED7",
"#:.	c #ACBECC",
"$:.	c #AEC4D2",
"%:.	c #9BB1BF",
"&:.	c #9EB4C2",
"*:.	c #A3B8C9",
"=:.	c #8195A9",
"-:.	c #182931",
";:.	c #15242B",
">:.	c #212A31",
",:.	c #232C33",
"':.	c #061E2A",
"):.	c #02344B",
"!:.	c #356C80",
"~:.	c #00222F",
"{:.	c #15141A",
"]:.	c #282725",
"^:.	c #272320",
"/:.	c #52544F",
"(:.	c #858A83",
"_:.	c #ADB2AB",
"::.	c #656A63",
"<:.	c #4F544E",
"[:.	c #505954",
"}:.	c #4C5F5D",
"|:.	c #475959",
"1:.	c #324446",
"2:.	c #354449",
"3:.	c #0A0D06",
"4:.	c #31301B",
"5:.	c #67664A",
"6:.	c #555136",
"7:.	c #555438",
"8:.	c #63634B",
"9:.	c #5D5C4A",
"0:.	c #444537",
"a:.	c #1C1C14",
"b:.	c #090A05",
"c:.	c #111113",
"d:.	c #1E2223",
"e:.	c #2C3033",
"f:.	c #292929",
"g:.	c #3C4846",
"h:.	c #475351",
"i:.	c #4E5A58",
"j:.	c #5A6664",
"k:.	c #515A59",
"l:.	c #3C4749",
"m:.	c #485454",
"n:.	c #151E1D",
"o:.	c #020808",
"p:.	c #000606",
"q:.	c #0D120E",
"r:.	c #7F8F8E",
"s:.	c #90A09F",
"t:.	c #D2E2E1",
"u:.	c #C7D7D6",
"v:.	c #9AA8A9",
"w:.	c #ADBBBC",
"x:.	c #92A0A1",
"y:.	c #BBC6CA",
"z:.	c #D0DBDF",
"A:.	c #C8D3D7",
"B:.	c #D2DDE1",
"C:.	c #C2CDD1",
"D:.	c #A5B0B4",
"E:.	c #ACB7BB",
"F:.	c #B3BEC2",
"G:.	c #C1CACF",
"H:.	c #BBC4C9",
"I:.	c #C6CFD4",
"J:.	c #CBD4D9",
"K:.	c #C0C7CD",
"L:.	c #C8D1D8",
"M:.	c #C0C9D0",
"N:.	c #C5CED5",
"O:.	c #B9C4CA",
"P:.	c #ABB8C0",
"Q:.	c #B1C4D2",
"R:.	c #A9BDC8",
"S:.	c #A1B5C0",
"T:.	c #9AAEB9",
"U:.	c #8DA3AE",
"V:.	c #A3B9C4",
"W:.	c #AFC5D2",
"X:.	c #A3B9C6",
"Y:.	c #33454F",
"Z:.	c #1F232E",
"`:.	c #0F283C",
" <.	c #235C77",
".<.	c #4F8FAA",
"+<.	c #0C3B4F",
"@<.	c #031F2A",
"#<.	c #17141D",
"$<.	c #151219",
"%<.	c #292A25",
"&<.	c #6C7570",
"*<.	c #858B87",
"=<.	c #6A706E",
"-<.	c #515757",
";<.	c #555E5D",
"><.	c #546463",
",<.	c #465A58",
"'<.	c #425454",
")<.	c #0E2229",
"!<.	c #111B1A",
"~<.	c #141A10",
"{<.	c #0B0E00",
"]<.	c #7A785F",
"^<.	c #6B6950",
"/<.	c #6A684F",
"(<.	c #706F5B",
"_<.	c #6E6C5D",
":<.	c #46463C",
"<<.	c #2C2D31",
"[<.	c #303538",
"}<.	c #2B3033",
"|<.	c #353B3B",
"1<.	c #2A3030",
"2<.	c #373D3D",
"3<.	c #505958",
"4<.	c #4F5B59",
"5<.	c #45514F",
"6<.	c #525E5C",
"7<.	c #404948",
"8<.	c #636B6D",
"9<.	c #212C2E",
"0<.	c #253131",
"a<.	c #636F6F",
"b<.	c #000303",
"c<.	c #223033",
"d<.	c #304040",
"e<.	c #536362",
"f<.	c #5D6D6C",
"g<.	c #6C7A7B",
"h<.	c #98A6A7",
"i<.	c #B0BEBF",
"j<.	c #B9C7C8",
"k<.	c #9EACAD",
"l<.	c #9DABAC",
"m<.	c #A8B3B7",
"n<.	c #C1CCD0",
"o<.	c #CAD5D9",
"p<.	c #D9E4E8",
"q<.	c #CED9DD",
"r<.	c #CAD5D7",
"s<.	c #ACBABD",
"t<.	c #BCC5CA",
"u<.	c #C7D0D5",
"v<.	c #CAD1D7",
"w<.	c #C3CAD0",
"x<.	c #CAD1D9",
"y<.	c #BAC1C9",
"z<.	c #B6BFC6",
"A<.	c #CDD6DD",
"B<.	c #CDD8DE",
"C<.	c #C1CCD2",
"D<.	c #99A6AE",
"E<.	c #9BABB8",
"F<.	c #9DAFBB",
"G<.	c #B4C8D1",
"H<.	c #798D94",
"I<.	c #B7CBD4",
"J<.	c #AABECB",
"K<.	c #9CB0BF",
"L<.	c #3B4C56",
"M<.	c #252934",
"N<.	c #0F1C2D",
"O<.	c #09283D",
"P<.	c #1C546D",
"Q<.	c #407C94",
"R<.	c #00293B",
"S<.	c #1E1C1D",
"T<.	c #1E1B24",
"U<.	c #1C1922",
"V<.	c #444F49",
"W<.	c #6E7A76",
"X<.	c #7F8A86",
"Y<.	c #545D5C",
"Z<.	c #47504F",
"`<.	c #616B6A",
" [.	c #4C5F5B",
".[.	c #425654",
"+[.	c #3F5250",
"@[.	c #3C4C4C",
"#[.	c #061922",
"$[.	c #121C1D",
"%[.	c #0A100C",
"&[.	c #060900",
"*[.	c #535444",
"=[.	c #6A6954",
"-[.	c #61604E",
";[.	c #6B6C5E",
">[.	c #484840",
",[.	c #242529",
"'[.	c #232524",
")[.	c #282C2B",
"![.	c #313737",
"~[.	c #2F3535",
"{[.	c #424E4C",
"][.	c #495553",
"^[.	c #616D6B",
"/[.	c #596563",
"([.	c #535B5D",
"_[.	c #111B1C",
":[.	c #182223",
"<[.	c #263031",
"[[.	c #5A6567",
"}[.	c #7D8788",
"|[.	c #828C8B",
"1[.	c #6E7776",
"2[.	c #000505",
"3[.	c #000E0F",
"4[.	c #182626",
"5[.	c #697575",
"6[.	c #737E80",
"7[.	c #99A4A6",
"8[.	c #B0BBBD",
"9[.	c #96A1A3",
"0[.	c #808B8D",
"a[.	c #AFBABE",
"b[.	c #9AA5A9",
"c[.	c #D4DFE3",
"d[.	c #D8E3E7",
"e[.	c #CDD8DC",
"f[.	c #CFDADC",
"g[.	c #C6D1D3",
"h[.	c #C4CFD3",
"i[.	c #C5CED3",
"j[.	c #BDC6CB",
"k[.	c #B7C0C7",
"l[.	c #C1CAD1",
"m[.	c #CAD5DB",
"n[.	c #B8C3C9",
"o[.	c #B0BDC5",
"p[.	c #8E9FA9",
"q[.	c #9FB1BB",
"r[.	c #A0B1BB",
"s[.	c #8C9EA8",
"t[.	c #D1E3ED",
"u[.	c #B6C8D2",
"v[.	c #BDCFDB",
"w[.	c #B4C6D4",
"x[.	c #B7C9D7",
"y[.	c #ACBDCD",
"z[.	c #B1C2D2",
"A[.	c #425766",
"B[.	c #1A252B",
"C[.	c #202932",
"D[.	c #252B37",
"E[.	c #172C41",
"F[.	c #3A7289",
"G[.	c #40778C",
"H[.	c #0A2D40",
"I[.	c #0A1C28",
"J[.	c #1F2025",
"K[.	c #1E2126",
"L[.	c #23222A",
"M[.	c #222129",
"N[.	c #293533",
"O[.	c #505F5C",
"P[.	c #828E8C",
"Q[.	c #3D504C",
"R[.	c #3E534E",
"S[.	c #3C4F4B",
"T[.	c #394948",
"U[.	c #354346",
"V[.	c #2E3F44",
"W[.	c #11232A",
"X[.	c #080D07",
"Y[.	c #696B5D",
"Z[.	c #67685A",
"`[.	c #646659",
" }.	c #6B6D62",
".}.	c #3F403A",
"+}.	c #1F2024",
"@}.	c #23282B",
"#}.	c #383E3E",
"$}.	c #1D2321",
"%}.	c #303636",
"&}.	c #434C4B",
"*}.	c #65716F",
"=}.	c #061011",
"-}.	c #242E30",
";}.	c #5D6769",
">}.	c #6B7576",
",}.	c #646E6F",
"'}.	c #61696B",
")}.	c #788180",
"!}.	c #828888",
"~}.	c #5B6161",
"{}.	c #272D2D",
"]}.	c #0C1818",
"^}.	c #838E90",
"/}.	c #6D787A",
"(}.	c #707B7F",
"_}.	c #909B9F",
":}.	c #949FA3",
"<}.	c #D3DEE0",
"[}.	c #C0C9CE",
"}}.	c #B5BEC3",
"|}.	c #D4DDE2",
"1}.	c #C8D1D6",
"2}.	c #DAE3E8",
"3}.	c #D3DCE3",
"4}.	c #CBD6DC",
"5}.	c #A4B2BD",
"6}.	c #ADBEC8",
"7}.	c #B6C7D1",
"8}.	c #83919C",
"9}.	c #82939D",
"0}.	c #CCDAE3",
"a}.	c #E3F1FC",
"b}.	c #CFDDE8",
"c}.	c #DEECF7",
"d}.	c #C9D7E4",
"e}.	c #BBC9D6",
"f}.	c #BDCBD8",
"g}.	c #C2D0DD",
"h}.	c #B3C3D2",
"i}.	c #ABBCCC",
"j}.	c #90A0B4",
"k}.	c #304653",
"l}.	c #23343C",
"m}.	c #2A373F",
"n}.	c #374248",
"o}.	c #2A323F",
"p}.	c #233245",
"q}.	c #14344B",
"r}.	c #36647C",
"s}.	c #77AEC2",
"t}.	c #407182",
"u}.	c #092634",
"v}.	c #23232B",
"w}.	c #201E23",
"x}.	c #222328",
"y}.	c #202028",
"z}.	c #1E1E28",
"A}.	c #1D2027",
"B}.	c #263230",
"C}.	c #1B2B2A",
"D}.	c #2F4240",
"E}.	c #617170",
"F}.	c #738181",
"G}.	c #606A6B",
"H}.	c #354844",
"I}.	c #374C45",
"J}.	c #34453F",
"K}.	c #2E4144",
"L}.	c #071218",
"M}.	c #626864",
"N}.	c #6A7169",
"O}.	c #646A60",
"P}.	c #6B7167",
"Q}.	c #73766F",
"R}.	c #686A65",
"S}.	c #3A3C39",
"T}.	c #1E1F23",
"U}.	c #33383B",
"V}.	c #282D30",
"W}.	c #343A3A",
"X}.	c #3E4746",
"Y}.	c #586261",
"Z}.	c #525C5B",
"`}.	c #6D7577",
" |.	c #101A19",
".|.	c #040E0D",
"+|.	c #333B3E",
"@|.	c #1E282A",
"#|.	c #343F43",
"$|.	c #4F5A5E",
"%|.	c #434C51",
"&|.	c #7C8688",
"*|.	c #5F696B",
"=|.	c #929A9C",
"-|.	c #6C7574",
";|.	c #363B3E",
">|.	c #010A09",
",|.	c #030708",
"'|.	c #060A0D",
")|.	c #293535",
"!|.	c #1A2626",
"~|.	c #0B1717",
"{|.	c #1A2423",
"]|.	c #151F1E",
"^|.	c #727B80",
"/|.	c #879095",
"(|.	c #80898E",
"_|.	c #889196",
":|.	c #767F86",
"<|.	c #A2ABB0",
"[|.	c #8E989A",
"}|.	c #C2CCCE",
"||.	c #D9E3E5",
"1|.	c #C8D2D4",
"2|.	c #BAC4C6",
"3|.	c #B1BABF",
"4|.	c #CCD7DB",
"5|.	c #D3DEE2",
"6|.	c #CFDADE",
"7|.	c #CCDADD",
"8|.	c #9FADB6",
"9|.	c #AEBCC5",
"0|.	c #818F98",
"a|.	c #8C98A4",
"b|.	c #A6B4BF",
"c|.	c #DDE9F5",
"d|.	c #C3CFDB",
"e|.	c #BDC9D5",
"f|.	c #D6E2EE",
"g|.	c #C2CEDA",
"h|.	c #BCC6D0",
"i|.	c #C4CED8",
"j|.	c #D3E0E9",
"k|.	c #BFCBD7",
"l|.	c #B2C0CB",
"m|.	c #BCCAD7",
"n|.	c #B1BECE",
"o|.	c #304754",
"p|.	c #283E4B",
"q|.	c #1D2E36",
"r|.	c #2E373C",
"s|.	c #22374C",
"t|.	c #0E3A53",
"u|.	c #356B83",
"v|.	c #5D95A6",
"w|.	c #1C4855",
"x|.	c #262630",
"y|.	c #212026",
"z|.	c #1E1F21",
"A|.	c #1A1C28",
"B|.	c #1B1D29",
"C|.	c #232A30",
"D|.	c #1E2C2D",
"E|.	c #1C3031",
"F|.	c #374C4D",
"G|.	c #6D7F81",
"H|.	c #768485",
"I|.	c #364741",
"J|.	c #31443E",
"K|.	c #2D3C37",
"L|.	c #394541",
"M|.	c #314348",
"N|.	c #0D1B26",
"O|.	c #57625E",
"P|.	c #5A635F",
"Q|.	c #535957",
"R|.	c #25292A",
"S|.	c #313639",
"T|.	c #2D3333",
"U|.	c #3E4847",
"V|.	c #343C3E",
"W|.	c #687271",
"X|.	c #788281",
"Y|.	c #020C0D",
"Z|.	c #2F373A",
"`|.	c #323A3D",
" 1.	c #1F2A2E",
".1.	c #3B4449",
"+1.	c #838D8F",
"@1.	c #555F61",
"#1.	c #6D7778",
"$1.	c #777F81",
"%1.	c #6A7274",
"&1.	c #000202",
"*1.	c #384244",
"=1.	c #626B70",
"-1.	c #576065",
";1.	c #757E83",
">1.	c #8D969D",
",1.	c #838C91",
"'1.	c #6D767B",
")1.	c #586264",
"!1.	c #808A8C",
"~1.	c #D8E2E4",
"{1.	c #D7E2E6",
"]1.	c #BDCCCF",
"^1.	c #B4C2CB",
"/1.	c #99A6AF",
"(1.	c #B7C3CF",
"_1.	c #B1BDC9",
":1.	c #AAB4C0",
"<1.	c #BDC7D1",
"[1.	c #8E98A2",
"}1.	c #ACB6BF",
"|1.	c #C7D0D7",
"11.	c #D6DFE6",
"21.	c #D2DBE0",
"31.	c #CFD8DD",
"41.	c #BAC5CB",
"51.	c #B8C2CB",
"61.	c #C1CBD5",
"71.	c #C2CCD8",
"81.	c #CAD6E4",
"91.	c #B6C2D1",
"01.	c #162937",
"a1.	c #132531",
"b1.	c #18252D",
"c1.	c #1D282E",
"d1.	c #29333C",
"e1.	c #19232D",
"f1.	c #192939",
"g1.	c #143348",
"h1.	c #1F5571",
"i1.	c #4B89A2",
"j1.	c #215664",
"k1.	c #022831",
"l1.	c #0F212B",
"m1.	c #272733",
"n1.	c #22222A",
"o1.	c #1C1E2B",
"p1.	c #1E202D",
"q1.	c #2D4245",
"r1.	c #50686A",
"s1.	c #708387",
"t1.	c #4C5658",
"u1.	c #2F3E39",
"v1.	c #34433C",
"w1.	c #39443E",
"x1.	c #39423D",
"y1.	c #292D2E",
"z1.	c #222824",
"A1.	c #3D4746",
"B1.	c #4E5955",
"C1.	c #6B7672",
"D1.	c #5B6463",
"E1.	c #3A3F45",
"F1.	c #42474D",
"G1.	c #394249",
"H1.	c #1D262D",
"I1.	c #5B6469",
"J1.	c #687176",
"K1.	c #7F8789",
"L1.	c #676F71",
"M1.	c #010609",
"N1.	c #0F1918",
"O1.	c #343E40",
"P1.	c #7A838A",
"Q1.	c #697277",
"R1.	c #6A7177",
"S1.	c #656D70",
"T1.	c #949EA0",
"U1.	c #7D8789",
"V1.	c #ACB6B8",
"W1.	c #C7D1D3",
"X1.	c #CCD7D9",
"Y1.	c #D0DEE1",
"Z1.	c #CDDBDE",
"`1.	c #C6D5D8",
" 2.	c #B7C6C9",
".2.	c #BBCACD",
"+2.	c #B8C5CD",
"@2.	c #ADBAC3",
"#2.	c #C0CDD6",
"$2.	c #B7C1CD",
"%2.	c #BBC3CE",
"&2.	c #959DA8",
"*2.	c #88919A",
"=2.	c #CBD4DB",
"-2.	c #E2E9EF",
";2.	c #E1E9EC",
">2.	c #E6EEF0",
",2.	c #DCE4E6",
"'2.	c #C6D0D2",
")2.	c #CED7DE",
"!2.	c #C6CFD8",
"~2.	c #BCC6CF",
"{2.	c #2B343B",
"]2.	c #323F48",
"^2.	c #1D3446",
"/2.	c #153B52",
"(2.	c #316E8B",
"_2.	c #68ACC3",
":2.	c #0C404B",
"<2.	c #092C32",
"[2.	c #222933",
"}2.	c #282A37",
"|2.	c #181C28",
"12.	c #1B1E2D",
"22.	c #20353A",
"32.	c #496165",
"42.	c #586B71",
"52.	c #647378",
"62.	c #25322B",
"72.	c #3B483F",
"82.	c #282C2D",
"92.	c #1F2521",
"02.	c #3F4A46",
"a2.	c #464F4E",
"b2.	c #70787A",
"c2.	c #737B7D",
"d2.	c #51595B",
"e2.	c #2B3036",
"f2.	c #3C4147",
"g2.	c #3B4046",
"h2.	c #3B424A",
"i2.	c #384148",
"j2.	c #414A4F",
"k2.	c #505B5D",
"l2.	c #60686A",
"m2.	c #889092",
"n2.	c #878C8F",
"o2.	c #555A5D",
"p2.	c #030C0B",
"q2.	c #424B50",
"r2.	c #575F62",
"s2.	c #626A6D",
"t2.	c #6E787A",
"u2.	c #ADB8BA",
"v2.	c #CFDEE1",
"w2.	c #CAD9DC",
"x2.	c #BAC9CC",
"y2.	c #BECBD1",
"z2.	c #AAB7BF",
"A2.	c #B1BEC6",
"B2.	c #AAB7C0",
"C2.	c #C5CFDB",
"D2.	c #AFB9C3",
"E2.	c #A9B1BC",
"F2.	c #8D969F",
"G2.	c #E7EFF1",
"H2.	c #E8F1F0",
"I2.	c #E7F0EF",
"J2.	c #EAF3F2",
"K2.	c #E5EEED",
"L2.	c #DAE2E4",
"M2.	c #DFE4E7",
"N2.	c #E7EFF2",
"O2.	c #DADFE3",
"P2.	c #DFE6EC",
"Q2.	c #DBE2E8",
"R2.	c #2D4454",
"S2.	c #1F313F",
"T2.	c #31424C",
"U2.	c #1F2C34",
"V2.	c #323B42",
"W2.	c #232D37",
"X2.	c #333F4B",
"Y2.	c #163247",
"Z2.	c #25536B",
"`2.	c #4285A0",
" 3.	c #5296AB",
".3.	c #215259",
"+3.	c #173639",
"@3.	c #1F2533",
"#3.	c #191F2D",
"$3.	c #14252D",
"%3.	c #21383E",
"&3.	c #4D666B",
"*3.	c #718085",
"=3.	c #3E483F",
"-3.	c #4A4F48",
";3.	c #3A3F39",
">3.	c #2B3537",
",3.	c #01090C",
"'3.	c #262A2B",
")3.	c #222D29",
"!3.	c #343D3A",
"~3.	c #3D4643",
"{3.	c #444D4C",
"]3.	c #797E81",
"^3.	c #34393D",
"/3.	c #050A0E",
"(3.	c #24272E",
"_3.	c #394143",
":3.	c #7A7F82",
"<3.	c #727A7C",
"[3.	c #919B9D",
"}3.	c #859092",
"|3.	c #BDCBCC",
"13.	c #BECCCD",
"23.	c #D0DEDF",
"33.	c #DAE8E9",
"43.	c #B5C4C7",
"53.	c #A1B0B3",
"63.	c #B2C1C6",
"73.	c #BECDD2",
"83.	c #ACB9C2",
"93.	c #A5AFB9",
"03.	c #BBC5CE",
"a3.	c #CDD6DB",
"b3.	c #DBE5E6",
"c3.	c #DCE6E5",
"d3.	c #E0E9E6",
"e3.	c #E4EDEA",
"f3.	c #EBF1F1",
"g3.	c #E3E9E9",
"h3.	c #DFE3E4",
"i3.	c #EEF3F6",
"j3.	c #E9EDF0",
"k3.	c #E1E6EA",
"l3.	c #D2D7DB",
"m3.	c #C5CDD0",
"n3.	c #2B3E4D",
"o3.	c #293740",
"p3.	c #37454E",
"q3.	c #374047",
"r3.	c #263137",
"s3.	c #25323B",
"t3.	c #323E4A",
"u3.	c #0A2E44",
"v3.	c #376B83",
"w3.	c #5FA2BC",
"x3.	c #377A8B",
"y3.	c #18454B",
"z3.	c #1A3637",
"A3.	c #233237",
"B3.	c #1B2330",
"C3.	c #232E2A",
"D3.	c #192B2B",
"E3.	c #324951",
"F3.	c #61737D",
"G3.	c #5E6D74",
"H3.	c #4C4F48",
"I3.	c #383A35",
"J3.	c #383C3D",
"K3.	c #101F24",
"L3.	c #202521",
"M3.	c #3B4043",
"N3.	c #5C6165",
"O3.	c #6D7276",
"P3.	c #6B7074",
"Q3.	c #464F54",
"R3.	c #5A6368",
"S3.	c #555E63",
"T3.	c #0B161A",
"U3.	c #838989",
"V3.	c #838C8B",
"W3.	c #6C7678",
"X3.	c #798486",
"Y3.	c #8C9799",
"Z3.	c #8B9698",
"`3.	c #889697",
" 4.	c #929D9F",
".4.	c #A6B4B5",
"+4.	c #D1DFE0",
"@4.	c #C2D1D4",
"#4.	c #B0BFC2",
"$4.	c #A9B6BC",
"%4.	c #8F9CA4",
"&4.	c #BCC9D1",
"*4.	c #C1CBD4",
"=4.	c #C3CED4",
"-4.	c #D7E0E5",
";4.	c #DCE6E8",
">4.	c #C7D1D2",
",4.	c #D3DDDC",
"'4.	c #D3DCD9",
")4.	c #D5DEDB",
"!4.	c #D6DCDC",
"~4.	c #E6EAEB",
"{4.	c #DEE2E3",
"]4.	c #D3D7D8",
"^4.	c #E7EBEE",
"/4.	c #D9DDE0",
"(4.	c #CED3D7",
"_4.	c #D6DBDF",
":4.	c #3C4F5E",
"<4.	c #404D55",
"[4.	c #343E47",
"}4.	c #36434C",
"|4.	c #283440",
"14.	c #39667D",
"24.	c #6FA9C1",
"34.	c #73B6C9",
"44.	c #245F6D",
"54.	c #062D32",
"64.	c #142C2E",
"74.	c #1B2725",
"84.	c #132525",
"94.	c #152729",
"04.	c #222A37",
"a4.	c #1D2E38",
"b4.	c #354D57",
"c4.	c #415C63",
"d4.	c #5A6E77",
"e4.	c #3C4439",
"f4.	c #3E4138",
"g4.	c #2A2C27",
"h4.	c #171C18",
"i4.	c #313534",
"j4.	c #3D4645",
"k4.	c #666B6F",
"l4.	c #6A6F73",
"m4.	c #576163",
"n4.	c #B7C1C2",
"o4.	c #BAC4C5",
"p4.	c #858F90",
"q4.	c #000304",
"r4.	c #586263",
"s4.	c #818C8E",
"t4.	c #929C9E",
"u4.	c #889395",
"v4.	c #96A4A5",
"w4.	c #B0C0C0",
"x4.	c #BFCDCE",
"y4.	c #BDCBCE",
"z4.	c #A8B6B9",
"A4.	c #D4E1E7",
"B4.	c #C7D2D4",
"C4.	c #D8E2E3",
"D4.	c #D0DAD9",
"E4.	c #D3DCDB",
"F4.	c #D1D7D7",
"G4.	c #D9DEE1",
"H4.	c #DBE0E3",
"I4.	c #D6DBDE",
"J4.	c #D3D8DC",
"K4.	c #D0D5D9",
"L4.	c #D9DEE2",
"M4.	c #415562",
"N4.	c #3D4B56",
"O4.	c #253542",
"P4.	c #344F60",
"Q4.	c #6BA7C1",
"R4.	c #609EAD",
"S4.	c #336870",
"T4.	c #17383D",
"U4.	c #2C3F43",
"V4.	c #1C2E2E",
"W4.	c #1F3133",
"X4.	c #29333F",
"Y4.	c #243C46",
"Z4.	c #4D6871",
"`4.	c #526971",
" 5.	c #3B4141",
".5.	c #3D453A",
"+5.	c #2F312C",
"@5.	c #37444F",
"#5.	c #494E51",
"$5.	c #869092",
"%5.	c #778383",
"&5.	c #778182",
"*5.	c #727E7E",
"=5.	c #A9B7B8",
"-5.	c #A3AEB0",
";5.	c #7B8688",
">5.	c #3F494B",
",5.	c #6D7779",
"'5.	c #9DA5A8",
")5.	c #556364",
"!5.	c #8D9B9C",
"~5.	c #DCEAEB",
"{5.	c #D0DBDD",
"]5.	c #C1CCCE",
"^5.	c #C2CDCF",
"/5.	c #B5C0C2",
"(5.	c #D5E0E2",
"_5.	c #D0DADB",
":5.	c #C8D2D3",
"<5.	c #DAE2E5",
"[5.	c #D8DDE1",
"}5.	c #DCE1E5",
"|5.	c #D0D5DB",
"15.	c #D2D7DD",
"25.	c #CACFD5",
"35.	c #C7CCD2",
"45.	c #485C69",
"55.	c #505E69",
"65.	c #3C464F",
"75.	c #3D4750",
"85.	c #37414A",
"95.	c #303A43",
"05.	c #364451",
"a5.	c #314150",
"b5.	c #30404F",
"c5.	c #335062",
"d5.	c #6EA1BC",
"e5.	c #77B3CB",
"f5.	c #235965",
"g5.	c #365F63",
"h5.	c #20393E",
"i5.	c #1F2E31",
"j5.	c #27424B",
"k5.	c #57747C",
"l5.	c #5C747E",
"m5.	c #4A5D64",
"n5.	c #39433B",
"o5.	c #41493E",
"p5.	c #31372D",
"q5.	c #2F3332",
"r5.	c #454F4E",
"s5.	c #475152",
"t5.	c #6F7779",
"u5.	c #949D9C",
"v5.	c #878F91",
"w5.	c #849295",
"x5.	c #9EA8AA",
"y5.	c #09120D",
"z5.	c #141D18",
"A5.	c #313538",
"B5.	c #72777B",
"C5.	c #8B9396",
"D5.	c #707B7D",
"E5.	c #6C7878",
"F5.	c #899595",
"G5.	c #CBD5D6",
"H5.	c #D2DCDD",
"I5.	c #CCD6D8",
"J5.	c #CFD9DB",
"K5.	c #CAD4D6",
"L5.	c #CED7DC",
"M5.	c #DFE8ED",
"N5.	c #D6DDE3",
"O5.	c #D4DBE1",
"P5.	c #D1D8DE",
"Q5.	c #D0D7DD",
"R5.	c #CBD2DA",
"S5.	c #D8DFE7",
"T5.	c #D1D8E0",
"U5.	c #3E4C57",
"V5.	c #48525C",
"W5.	c #3E4851",
"X5.	c #293742",
"Y5.	c #212F3C",
"Z5.	c #263645",
"`5.	c #233543",
" 6.	c #506F83",
".6.	c #81B9D4",
"+6.	c #4E8AA2",
"@6.	c #26555D",
"#6.	c #2B4A4C",
"$6.	c #23343B",
"%6.	c #263039",
"&6.	c #262A35",
"*6.	c #282F37",
"=6.	c #22363D",
"-6.	c #3D585F",
";6.	c #6A8890",
">6.	c #6D8891",
",6.	c #546B71",
"'6.	c #4D5854",
")6.	c #010409",
"!6.	c #1F1F1F",
"~6.	c #353B39",
"{6.	c #475150",
"]6.	c #636C6B",
"^6.	c #7D8685",
"/6.	c #868E90",
"(6.	c #5A696C",
"_6.	c #728083",
":6.	c #717A7F",
"<6.	c #7A8285",
"[6.	c #9BA3A5",
"}6.	c #868F8E",
"|6.	c #161F1A",
"16.	c #1A231E",
"26.	c #2F3438",
"36.	c #6C7477",
"46.	c #7C8584",
"56.	c #959F9E",
"66.	c #B5BFC0",
"76.	c #D7E1E3",
"86.	c #B1BAC1",
"96.	c #C9D2D9",
"06.	c #D9E2EB",
"a6.	c #B8C1C8",
"b6.	c #CAD1DB",
"c6.	c #D3DAE4",
"d6.	c #CED5DF",
"e6.	c #C6CDD7",
"f6.	c #CBD1DD",
"g6.	c #CCD3DD",
"h6.	c #46525E",
"i6.	c #424B54",
"j6.	c #2F3A40",
"k6.	c #283643",
"l6.	c #2D3D4D",
"m6.	c #354656",
"n6.	c #405163",
"o6.	c #6C8BA0",
"p6.	c #70A9C6",
"q6.	c #2C6880",
"r6.	c #194045",
"s6.	c #1C3132",
"t6.	c #2E3641",
"u6.	c #293541",
"v6.	c #252935",
"w6.	c #313540",
"x6.	c #12292F",
"y6.	c #3E5B61",
"z6.	c #6C8D94",
"A6.	c #6D8A92",
"B6.	c #667F84",
"C6.	c #68777A",
"D6.	c #535F5B",
"E6.	c #445147",
"F6.	c #455145",
"G6.	c #374337",
"H6.	c #1D2A23",
"I6.	c #203234",
"J6.	c #030409",
"K6.	c #09090B",
"L6.	c #282828",
"M6.	c #2B2B2B",
"N6.	c #080607",
"O6.	c #303531",
"P6.	c #2C312D",
"Q6.	c #45504C",
"R6.	c #4E5754",
"S6.	c #515A57",
"T6.	c #899291",
"U6.	c #9DA6A5",
"V6.	c #818787",
"W6.	c #232929",
"X6.	c #212F30",
"Y6.	c #354447",
"Z6.	c #152429",
"`6.	c #5A6C70",
" 7.	c #758489",
".7.	c #818B8A",
"+7.	c #8B9692",
"@7.	c #79827D",
"#7.	c #1D271F",
"$7.	c #141E16",
"%7.	c #161C18",
"&7.	c #505558",
"*7.	c #5F6565",
"=7.	c #7D8683",
"-7.	c #585E5C",
";7.	c #919A99",
">7.	c #90989A",
",7.	c #959DA0",
"'7.	c #A4ACAF",
")7.	c #D3DAE0",
"!7.	c #DDE4EC",
"~7.	c #D8DFE9",
"{7.	c #CED7E0",
"]7.	c #C2CAD5",
"^7.	c #909AA3",
"/7.	c #AEB6C1",
"(7.	c #CCD4DF",
"_7.	c #C7CFDA",
":7.	c #CDD5E2",
"<7.	c #CAD2DD",
"[7.	c #576977",
"}7.	c #5E6C77",
"|7.	c #67717B",
"17.	c #535D66",
"27.	c #2A3B45",
"37.	c #394754",
"47.	c #364353",
"57.	c #3B4B5B",
"67.	c #36495A",
"77.	c #445F72",
"87.	c #8AAFC2",
"97.	c #89BCD7",
"07.	c #487B90",
"a7.	c #18373C",
"b7.	c #1C2E30",
"c7.	c #2C343F",
"d7.	c #272B36",
"e7.	c #33383C",
"f7.	c #38555D",
"g7.	c #64858E",
"h7.	c #62838C",
"i7.	c #67828B",
"j7.	c #526569",
"k7.	c #5A6966",
"l7.	c #546158",
"m7.	c #4D594D",
"n7.	c #2B362E",
"o7.	c #13221F",
"p7.	c #172A31",
"q7.	c #04050A",
"r7.	c #040406",
"s7.	c #11120D",
"t7.	c #020305",
"u7.	c #2C2E29",
"v7.	c #343631",
"w7.	c #3B3D38",
"x7.	c #292B26",
"y7.	c #303632",
"z7.	c #4C5753",
"A7.	c #414C48",
"B7.	c #6A7370",
"C7.	c #565F5E",
"D7.	c #A7B0AF",
"E7.	c #9EA4A4",
"F7.	c #727B7A",
"G7.	c #3A4040",
"H7.	c #000C11",
"I7.	c #1A292E",
"J7.	c #3D4C51",
"K7.	c #717C80",
"L7.	c #717A77",
"M7.	c #9AA3A0",
"N7.	c #8E9792",
"O7.	c #58615C",
"P7.	c #555B5B",
"Q7.	c #5F6867",
"R7.	c #858D8F",
"S7.	c #596164",
"T7.	c #7D848A",
"U7.	c #C3CAD4",
"V7.	c #D2DBE4",
"W7.	c #CCD6DF",
"X7.	c #B3BDC6",
"Y7.	c #BEC8D1",
"Z7.	c #C8D0DB",
"`7.	c #D6DEE9",
" 8.	c #BFC7D2",
".8.	c #BAC2CD",
"+8.	c #5B6878",
"@8.	c #606C7A",
"#8.	c #6E7A86",
"$8.	c #6E7882",
"%8.	c #5F6972",
"&8.	c #2C3A43",
"*8.	c #3A444D",
"=8.	c #35464D",
"-8.	c #4D5E66",
";8.	c #404C58",
">8.	c #3A465C",
",8.	c #2C455B",
"'8.	c #4F788C",
")8.	c #80AFC1",
"!8.	c #7097A8",
"~8.	c #3B5B68",
"{8.	c #1A333A",
"]8.	c #27363D",
"^8.	c #425D68",
"/8.	c #638390",
"(8.	c #4A6E7C",
"_8.	c #456570",
":8.	c #62797F",
"<8.	c #5A6A69",
"[8.	c #616C66",
"}8.	c #4F5951",
"|8.	c #09181B",
"18.	c #2E454E",
"28.	c #080705",
"38.	c #040509",
"48.	c #18191B",
"58.	c #3E403F",
"68.	c #111015",
"78.	c #282A25",
"88.	c #33342E",
"98.	c #34342C",
"08.	c #3A3A32",
"a8.	c #3F3C35",
"b8.	c #2E2B24",
"c8.	c #171611",
"d8.	c #2B2F2E",
"e8.	c #37423E",
"f8.	c #818A89",
"g8.	c #A4AEAD",
"h8.	c #9BA4A3",
"i8.	c #152022",
"j8.	c #394046",
"k8.	c #3A4147",
"l8.	c #353D40",
"m8.	c #5C6467",
"n8.	c #41494C",
"o8.	c #6E7678",
"p8.	c #A3ABAD",
"q8.	c #A3ACAB",
"r8.	c #32373A",
"s8.	c #444C4E",
"t8.	c #6F797B",
"u8.	c #868F94",
"v8.	c #808B91",
"w8.	c #D3E1E4",
"x8.	c #C6D1D5",
"y8.	c #B7C2C6",
"z8.	c #C5D0D4",
"A8.	c #717E8E",
"B8.	c #596573",
"C8.	c #5F6975",
"D8.	c #747E88",
"E8.	c #4D5B64",
"F8.	c #2D3A43",
"G8.	c #46595D",
"H8.	c #3B4C53",
"I8.	c #394154",
"J8.	c #34435A",
"K8.	c #365067",
"L8.	c #5B8BA1",
"M8.	c #75A8B9",
"N8.	c #5C7C87",
"O8.	c #5E7E8D",
"P8.	c #486D7D",
"Q8.	c #51737F",
"R8.	c #698287",
"S8.	c #6D7F7F",
"T8.	c #66716D",
"U8.	c #091B1F",
"V8.	c #33424C",
"W8.	c #061115",
"X8.	c #0E0D0B",
"Y8.	c #08090D",
"Z8.	c #444645",
"`8.	c #11130E",
" 9.	c #100F14",
".9.	c #121713",
"+9.	c #131812",
"@9.	c #3A3D36",
"#9.	c #393A32",
"$9.	c #39362D",
"%9.	c #413E35",
"&9.	c #403D34",
"*9.	c #3D3A31",
"=9.	c #121711",
"-9.	c #47524E",
";9.	c #5E6867",
">9.	c #7C8486",
",9.	c #7E8688",
"'9.	c #656E73",
")9.	c #525B60",
"!9.	c #32393F",
"~9.	c #343C3F",
"{9.	c #B0B8BA",
"]9.	c #B2BABC",
"^9.	c #939B9D",
"/9.	c #50585A",
"(9.	c #07100D",
"_9.	c #262B2F",
":9.	c #24292D",
"<9.	c #3C4447",
"[9.	c #778286",
"}9.	c #7E8C8D",
"|9.	c #95A3A4",
"19.	c #D8E3E5",
"29.	c #C9D4D6",
"39.	c #60727F",
"49.	c #8997A4",
"59.	c #818D9B",
"69.	c #525C68",
"79.	c #49535D",
"89.	c #4E5862",
"99.	c #46535B",
"09.	c #445159",
"a9.	c #54626B",
"b9.	c #64717A",
"c9.	c #404F54",
"d9.	c #283941",
"e9.	c #3C4759",
"f9.	c #23334A",
"g9.	c #506C82",
"h9.	c #80AFC3",
"i9.	c #6897A7",
"j9.	c #64808B",
"k9.	c #3E5158",
"l9.	c #213239",
"m9.	c #3C5460",
"n9.	c #537382",
"o9.	c #496D7D",
"p9.	c #587A86",
"q9.	c #637C81",
"r9.	c #778989",
"s9.	c #78837F",
"t9.	c #222E2E",
"u9.	c #07191D",
"v9.	c #2B3B43",
"w9.	c #07080C",
"x9.	c #020307",
"y9.	c #313237",
"z9.	c #232429",
"A9.	c #3C3E3D",
"B9.	c #0D0C11",
"C9.	c #141416",
"D9.	c #1B201A",
"E9.	c #45483F",
"F9.	c #3C3E33",
"G9.	c #423F36",
"H9.	c #4E4C40",
"I9.	c #434037",
"J9.	c #3B3C36",
"K9.	c #292D2C",
"L9.	c #303936",
"M9.	c #545E5D",
"N9.	c #000204",
"O9.	c #99A1A3",
"P9.	c #727878",
"Q9.	c #6C7779",
"R9.	c #687375",
"S9.	c #B1BBBD",
"T9.	c #C9D3D5",
"U9.	c #D6E0E2",
"V9.	c #586C77",
"W9.	c #778590",
"X9.	c #7D8793",
"Y9.	c #6C7680",
"Z9.	c #5D6771",
"`9.	c #48525B",
" 0.	c #5B6972",
".0.	c #525F68",
"+0.	c #3F4C54",
"@0.	c #52636A",
"#0.	c #3C4856",
"$0.	c #414E5F",
"%0.	c #253A4F",
"&0.	c #607F94",
"*0.	c #8AB7CC",
"=0.	c #5D8898",
"-0.	c #3A5560",
";0.	c #415057",
">0.	c #49585D",
",0.	c #2D3235",
"'0.	c #344C58",
")0.	c #496976",
"!0.	c #5B7B86",
"~0.	c #5D767A",
"{0.	c #7D908E",
"]0.	c #838E88",
"^0.	c #1C2828",
"/0.	c #081B1F",
"(0.	c #27373E",
"_0.	c #1B1B1B",
":0.	c #0A0D14",
"<0.	c #383B44",
"[0.	c #2F343A",
"}0.	c #3B3D3C",
"|0.	c #0F0F11",
"10.	c #090B06",
"20.	c #0D120B",
"30.	c #262C22",
"40.	c #494B40",
"50.	c #47473B",
"60.	c #504E41",
"70.	c #4F4D41",
"80.	c #45453B",
"90.	c #464741",
"00.	c #454E4B",
"a0.	c #626C6B",
"b0.	c #798183",
"c0.	c #394144",
"d0.	c #5A6264",
"e0.	c #8D9295",
"f0.	c #A3A9A9",
"g0.	c #4E5454",
"h0.	c #828C8E",
"i0.	c #656F71",
"j0.	c #51656E",
"k0.	c #728089",
"l0.	c #636D77",
"m0.	c #737B86",
"n0.	c #8C949F",
"o0.	c #2A323D",
"p0.	c #22333A",
"q0.	c #25383E",
"r0.	c #3D4E56",
"s0.	c #303E49",
"t0.	c #475464",
"u0.	c #394A5C",
"v0.	c #3F586C",
"w0.	c #7E9EB3",
"x0.	c #77A0B4",
"y0.	c #244959",
"z0.	c #2A2F33",
"A0.	c #43606E",
"B0.	c #628490",
"C0.	c #607E88",
"D0.	c #657D81",
"E0.	c #8C9F9D",
"F0.	c #86918B",
"G0.	c #222D27",
"H0.	c #111F1F",
"I0.	c #172C31",
"J0.	c #203137",
"K0.	c #050811",
"L0.	c #00020D",
"M0.	c #414A53",
"N0.	c #212F32",
"O0.	c #000B0E",
"P0.	c #0F100A",
"Q0.	c #13160D",
"R0.	c #050B00",
"S0.	c #383C2E",
"T0.	c #58594B",
"U0.	c #5B594A",
"V0.	c #535142",
"W0.	c #515348",
"X0.	c #535852",
"Y0.	c #657074",
"Z0.	c #0C1319",
"`0.	c #191512",
" a.	c #2A2E2D",
".a.	c #474C4F",
"+a.	c #909998",
"@a.	c #788083",
"#a.	c #565E61",
"$a.	c #868E91",
"%a.	c #9AA2A4",
"&a.	c #9BA3A6",
"*a.	c #6C7476",
"=a.	c #666E70",
"-a.	c #8699A0",
";a.	c #6A7881",
">a.	c #606A73",
",a.	c #757E87",
"'a.	c #666E79",
")a.	c #414954",
"!a.	c #5F6C75",
"~a.	c #2A313B",
"{a.	c #323641",
"]a.	c #4C555E",
"^a.	c #44525F",
"/a.	c #4E5E6E",
"(a.	c #394C5D",
"_a.	c #638092",
":a.	c #9EC1D4",
"<a.	c #7499AC",
"[a.	c #113241",
"}a.	c #262A2D",
"|a.	c #232426",
"1a.	c #27282A",
"2a.	c #223843",
"3a.	c #395561",
"4a.	c #63838E",
"5a.	c #5C7A82",
"6a.	c #6B8385",
"7a.	c #93A3A2",
"8a.	c #76817B",
"9a.	c #0D1D1D",
"0a.	c #293F43",
"aa.	c #1C2B30",
"ba.	c #141011",
"ca.	c #161415",
"da.	c #060A13",
"ea.	c #0C1421",
"fa.	c #0E1525",
"ga.	c #222E3A",
"ha.	c #576570",
"ia.	c #47585F",
"ja.	c #06151A",
"ka.	c #0E121B",
"la.	c #0E130F",
"ma.	c #040600",
"na.	c #080C00",
"oa.	c #444736",
"pa.	c #6E6B58",
"qa.	c #93907D",
"ra.	c #B3B1A2",
"sa.	c #B9BAB2",
"ta.	c #7A807E",
"ua.	c #61727A",
"va.	c #030D16",
"wa.	c #12110F",
"xa.	c #1B1714",
"ya.	c #383D40",
"za.	c #515B5A",
"Aa.	c #AAB4B3",
"Ba.	c #919B9A",
"Ca.	c #5B6662",
"Da.	c #1D2528",
"Ea.	c #485053",
"Fa.	c #4B5356",
"Ga.	c #3F474A",
"Ha.	c #9FA7AA",
"Ia.	c #AAB2B5",
"Ja.	c #8C9496",
"Ka.	c #596163",
"La.	c #788082",
"Ma.	c #6F8590",
"Na.	c #51656C",
"Oa.	c #515E64",
"Pa.	c #626B74",
"Qa.	c #5F6772",
"Ra.	c #6F7782",
"Sa.	c #848E9A",
"Ta.	c #5C6972",
"Ua.	c #353C46",
"Va.	c #343843",
"Wa.	c #576067",
"Xa.	c #2F4248",
"Ya.	c #3B4956",
"Za.	c #3E4B5B",
"`a.	c #324353",
" b.	c #3A5161",
".b.	c #6D8D9C",
"+b.	c #86AABA",
"@b.	c #5E7F90",
"#b.	c #294553",
"$b.	c #192D36",
"%b.	c #36515C",
"&b.	c #5F7D87",
"*b.	c #5B787E",
"=b.	c #6D8283",
"-b.	c #8A9A97",
";b.	c #505B57",
">b.	c #0C1C1C",
",b.	c #000302",
"'b.	c #1B1B1D",
")b.	c #1C1C1E",
"!b.	c #0C0809",
"~b.	c #0D0908",
"{b.	c #0F0B0A",
"]b.	c #130D0D",
"^b.	c #151110",
"/b.	c #0C121E",
"(b.	c #222E3E",
"_b.	c #293446",
":b.	c #112130",
"<b.	c #556972",
"[b.	c #627981",
"}b.	c #040A16",
"|b.	c #0B1413",
"1b.	c #090F0B",
"2b.	c #0B110D",
"3b.	c #0D0E13",
"4b.	c #2C2C2C",
"5b.	c #1F1F1D",
"6b.	c #21221C",
"7b.	c #36372F",
"8b.	c #47493B",
"9b.	c #5F604E",
"0b.	c #ABAA95",
"ab.	c #D7D5BE",
"bb.	c #D6D1BB",
"cb.	c #D6D1BD",
"db.	c #D3D1C2",
"eb.	c #AAADA4",
"fb.	c #395362",
"gb.	c #2B4051",
"hb.	c #0B1B28",
"ib.	c #414747",
"jb.	c #7D8681",
"kb.	c #98A19E",
"lb.	c #586063",
"mb.	c #4F575A",
"nb.	c #777F82",
"ob.	c #4E5356",
"pb.	c #313234",
"qb.	c #3C3D3F",
"rb.	c #606666",
"sb.	c #69808C",
"tb.	c #6E828B",
"ub.	c #70838A",
"vb.	c #596B6F",
"wb.	c #4F5E63",
"xb.	c #5E676E",
"yb.	c #3F4752",
"zb.	c #78828C",
"Ab.	c #646E7A",
"Bb.	c #55626B",
"Cb.	c #383C47",
"Db.	c #5E606C",
"Eb.	c #606970",
"Fb.	c #364950",
"Gb.	c #263A43",
"Hb.	c #2F3C4C",
"Ib.	c #4C5C6C",
"Jb.	c #3C4F60",
"Kb.	c #54707E",
"Lb.	c #80A1B0",
"Mb.	c #83A7B5",
"Nb.	c #2F3E41",
"Ob.	c #232F2D",
"Pb.	c #303435",
"Qb.	c #15282E",
"Rb.	c #617C85",
"Sb.	c #637F83",
"Tb.	c #728687",
"Ub.	c #859491",
"Vb.	c #0F1B19",
"Wb.	c #102224",
"Xb.	c #100A0A",
"Yb.	c #120C0C",
"Zb.	c #111A29",
"`b.	c #141F31",
" c.	c #324156",
".c.	c #253B49",
"+c.	c #4A626E",
"@c.	c #556D77",
"#c.	c #52666F",
"$c.	c #394553",
"%c.	c #070E16",
"&c.	c #030907",
"*c.	c #2E2E2E",
"=c.	c #050704",
"-c.	c #616358",
";c.	c #CACCBE",
">c.	c #E0E1CF",
",c.	c #CDCDB5",
"'c.	c #D5D1B6",
")c.	c #D8D2B8",
"!c.	c #C3BDA3",
"~c.	c #B0AB97",
"{c.	c #A6A495",
"]c.	c #848B83",
"^c.	c #3A5566",
"/c.	c #314D62",
"(c.	c #2E495E",
"_c.	c #26394A",
":c.	c #0B1723",
"<c.	c #4A5050",
"[c.	c #AEB7B4",
"}c.	c #9AA3A2",
"|c.	c #40474D",
"1c.	c #434A50",
"2c.	c #444B51",
"3c.	c #434B4E",
"4c.	c #717679",
"5c.	c #3D4343",
"6c.	c #4E626D",
"7c.	c #778B92",
"8c.	c #61747A",
"9c.	c #7B8D91",
"0c.	c #657479",
"ac.	c #798289",
"bc.	c #545D64",
"cc.	c #6F7983",
"dc.	c #616B77",
"ec.	c #3B4C54",
"fc.	c #595D66",
"gc.	c #4D565D",
"hc.	c #414E56",
"ic.	c #475A61",
"jc.	c #3E505C",
"kc.	c #465666",
"lc.	c #415063",
"mc.	c #637A8A",
"nc.	c #90B4C0",
"oc.	c #7B9DA9",
"pc.	c #334A58",
"qc.	c #1F303A",
"rc.	c #1B2622",
"sc.	c #141D1A",
"tc.	c #31484E",
"uc.	c #5A737A",
"vc.	c #677F83",
"wc.	c #829494",
"xc.	c #7C8B88",
"yc.	c #101C1A",
"zc.	c #15272A",
"Ac.	c #122124",
"Bc.	c #000807",
"Cc.	c #1C1B19",
"Dc.	c #221E1F",
"Ec.	c #181415",
"Fc.	c #1D1B1C",
"Gc.	c #010E1F",
"Hc.	c #112035",
"Ic.	c #3C4E64",
"Jc.	c #2F4159",
"Kc.	c #364B60",
"Lc.	c #1E3547",
"Mc.	c #183241",
"Nc.	c #2F4A55",
"Oc.	c #3C525D",
"Pc.	c #495666",
"Qc.	c #424B5A",
"Rc.	c #020B08",
"Sc.	c #424437",
"Tc.	c #BFC2B1",
"Uc.	c #AFB19C",
"Vc.	c #BFBBA0",
"Wc.	c #CAC5A7",
"Xc.	c #A8A184",
"Yc.	c #A59E84",
"Zc.	c #847F6B",
"`c.	c #7F8072",
" d.	c #535C57",
".d.	c #3C4E52",
"+d.	c #354F5E",
"@d.	c #315065",
"#d.	c #2C4C65",
"$d.	c #2A4860",
"%d.	c #324B5F",
"&d.	c #090E14",
"*d.	c #393F3D",
"=d.	c #4A504E",
"-d.	c #1C221E",
";d.	c #191F1B",
">d.	c #3B443F",
",d.	c #5E6764",
"'d.	c #87908D",
")d.	c #666F6E",
"!d.	c #030B0E",
"~d.	c #2D343A",
"{d.	c #4B5258",
"]d.	c #485158",
"^d.	c #424B52",
"/d.	c #363E41",
"(d.	c #44494D",
"_d.	c #787D81",
":d.	c #515659",
"<d.	c #5E707C",
"[d.	c #7B8E95",
"}d.	c #7E8F96",
"|d.	c #617377",
"1d.	c #4F5C65",
"2d.	c #515D69",
"3d.	c #42505B",
"4d.	c #454C56",
"5d.	c #343B43",
"6d.	c #4D5D6D",
"7d.	c #5A7485",
"8d.	c #6C8C9B",
"9d.	c #7EA0AC",
"0d.	c #415F6A",
"ad.	c #323D37",
"bd.	c #36413B",
"cd.	c #24373D",
"dd.	c #43585D",
"ed.	c #718689",
"fd.	c #8A9A99",
"gd.	c #4F5B57",
"hd.	c #000501",
"id.	c #1D1918",
"jd.	c #201C1B",
"kd.	c #1F1F21",
"ld.	c #282D33",
"md.	c #1B2F47",
"nd.	c #293F57",
"od.	c #152B43",
"pd.	c #102840",
"qd.	c #1C3549",
"rd.	c #1C3643",
"sd.	c #162C39",
"td.	c #374454",
"ud.	c #4C5566",
"vd.	c #4F5867",
"wd.	c #2D3741",
"xd.	c #00080D",
"yd.	c #000706",
"zd.	c #6E7063",
"Ad.	c #C5C8B7",
"Bd.	c #B9B8A3",
"Cd.	c #D2CDB0",
"Dd.	c #C5BEA1",
"Ed.	c #CEC7AB",
"Fd.	c #CEC8B0",
"Gd.	c #C0BDAC",
"Hd.	c #90938A",
"Id.	c #2D4A5A",
"Jd.	c #2B4B62",
"Kd.	c #2B4D68",
"Ld.	c #26465F",
"Md.	c #2E4A60",
"Nd.	c #2E4557",
"Od.	c #000710",
"Pd.	c #2C3031",
"Qd.	c #262C28",
"Rd.	c #181E1A",
"Sd.	c #17201B",
"Td.	c #28312C",
"Ud.	c #8E9796",
"Vd.	c #555E65",
"Wd.	c #636C71",
"Xd.	c #2C3339",
"Yd.	c #393E42",
"Zd.	c #808588",
"`d.	c #797F7F",
" e.	c #4C5C6B",
".e.	c #647680",
"+e.	c #889BA2",
"@e.	c #98A9B0",
"#e.	c #657278",
"$e.	c #49535C",
"%e.	c #545E67",
"&e.	c #35414D",
"*e.	c #3A434C",
"=e.	c #475560",
"-e.	c #58697B",
";e.	c #596E81",
">e.	c #6A8B9A",
",e.	c #7999A4",
"'e.	c #17323B",
")e.	c #17252E",
"!e.	c #343E36",
"~e.	c #252F27",
"{e.	c #2E3830",
"]e.	c #0D181A",
"^e.	c #47595D",
"/e.	c #8A9C9E",
"(e.	c #94A09E",
"_e.	c #0E1A1A",
":e.	c #304148",
"<e.	c #031114",
"[e.	c #1C1714",
"}e.	c #201B18",
"|e.	c #201C19",
"1e.	c #232220",
"2e.	c #111B25",
"3e.	c #0E1E2B",
"4e.	c #132635",
"5e.	c #263C51",
"6e.	c #2B435B",
"7e.	c #122A44",
"8e.	c #132D48",
"9e.	c #1C3651",
"0e.	c #0E263E",
"ae.	c #0C2539",
"be.	c #142B3B",
"ce.	c #152D39",
"de.	c #3A4654",
"ee.	c #0A151B",
"fe.	c #000207",
"ge.	c #010206",
"he.	c #010204",
"ie.	c #909285",
"je.	c #D4D7C6",
"ke.	c #BEBDA8",
"le.	c #C0BAA0",
"me.	c #DCD5B9",
"ne.	c #D9D3BB",
"oe.	c #DCD9C6",
"pe.	c #AFB1A4",
"qe.	c #365365",
"re.	c #305067",
"se.	c #30526D",
"te.	c #284861",
"ue.	c #2B475D",
"ve.	c #3A5367",
"we.	c #0A1B25",
"xe.	c #1A201C",
"ye.	c #545D5A",
"ze.	c #ABB4B3",
"Ae.	c #4D5558",
"Be.	c #495154",
"Ce.	c #10191E",
"De.	c #737C81",
"Ee.	c #4B5459",
"Fe.	c #838B8D",
"Ge.	c #5E6C7C",
"He.	c #445461",
"Ie.	c #687983",
"Je.	c #60727C",
"Ke.	c #708189",
"Le.	c #76878E",
"Me.	c #7F8C94",
"Ne.	c #818E96",
"Oe.	c #667079",
"Pe.	c #3A4853",
"Qe.	c #4E5861",
"Re.	c #5D6975",
"Se.	c #465363",
"Te.	c #435667",
"Ue.	c #6B8F9D",
"Ve.	c #76949F",
"We.	c #3A4139",
"Xe.	c #3A413A",
"Ye.	c #373E37",
"Ze.	c #0B191C",
"`e.	c #93A1A2",
" f.	c #ACB7B3",
".f.	c #1A1512",
"+f.	c #221D1A",
"@f.	c #1F1B18",
"#f.	c #242321",
"$f.	c #242422",
"%f.	c #010C10",
"&f.	c #00080E",
"*f.	c #0B181D",
"=f.	c #0D141E",
"-f.	c #192C3B",
";f.	c #3B5264",
">f.	c #39536A",
",f.	c #224058",
"'f.	c #1C3A56",
")f.	c #092743",
"!f.	c #223D5A",
"~f.	c #1F3952",
"{f.	c #0D2338",
"]f.	c #0B2031",
"^f.	c #0D202E",
"/f.	c #0E202C",
"(f.	c #172736",
"_f.	c #0E1B2B",
":f.	c #020B10",
"<f.	c #BABCAF",
"[f.	c #C2C5B4",
"}f.	c #C3C5B0",
"|f.	c #CCC6AE",
"1f.	c #E1DBC3",
"2f.	c #CECDB9",
"3f.	c #6B756D",
"4f.	c #455962",
"5f.	c #3B576C",
"6f.	c #395970",
"7f.	c #3E5E77",
"8f.	c #3A5870",
"9f.	c #375369",
"0f.	c #3E596C",
"af.	c #3A5163",
"bf.	c #171D19",
"cf.	c #747D7C",
"df.	c #A1A9AB",
"ef.	c #4C5457",
"ff.	c #515A5F",
"gf.	c #7C8487",
"hf.	c #4C5B69",
"if.	c #7A8B95",
"jf.	c #81929A",
"kf.	c #687B82",
"lf.	c #73868D",
"mf.	c #4F6068",
"nf.	c #78858E",
"of.	c #555F69",
"pf.	c #495760",
"qf.	c #66707A",
"rf.	c #3E4555",
"sf.	c #2E394B",
"tf.	c #5B788A",
"uf.	c #618595",
"vf.	c #688C9A",
"wf.	c #192C33",
"xf.	c #2D2E30",
"yf.	c #2A2F29",
"zf.	c #3F453B",
"Af.	c #272C26",
"Bf.	c #717D7D",
"Cf.	c #88918E",
"Df.	c #343A36",
"Ef.	c #181411",
"Ff.	c #000C0F",
"Gf.	c #05161B",
"Hf.	c #243441",
"If.	c #2B3340",
"Jf.	c #3F4B5B",
"Kf.	c #384959",
"Lf.	c #2A4153",
"Mf.	c #738FA4",
"Nf.	c #47677E",
"Of.	c #1D3F5A",
"Pf.	c #2C4D6C",
"Qf.	c #153655",
"Rf.	c #15334F",
"Sf.	c #1B354E",
"Tf.	c #11273C",
"Uf.	c #142738",
"Vf.	c #142433",
"Wf.	c #0A1727",
"Xf.	c #000B18",
"Yf.	c #3C4952",
"Zf.	c #4A545E",
"`f.	c #020308",
" g.	c #606255",
".g.	c #B2B5A4",
"+g.	c #BEC0AB",
"@g.	c #DAD8C3",
"#g.	c #D0CFBB",
"$g.	c #ABAEA3",
"%g.	c #666F6A",
"&g.	c #5E757D",
"*g.	c #486271",
"=g.	c #405D6F",
"-g.	c #3B576D",
";g.	c #435F75",
">g.	c #3B566B",
",g.	c #626B6A",
"'g.	c #C5CDCF",
")g.	c #7A8284",
"!g.	c #6A7275",
"~g.	c #3E4649",
"{g.	c #40484B",
"]g.	c #535C61",
"^g.	c #4B545B",
"/g.	c #798184",
"(g.	c #454D50",
"_g.	c #74838A",
":g.	c #7C8B92",
"<g.	c #52656C",
"[g.	c #47555E",
"}g.	c #505A64",
"|g.	c #57646D",
"1g.	c #33444C",
"2g.	c #3D5057",
"3g.	c #515964",
"4g.	c #3C4252",
"5g.	c #525A6D",
"6g.	c #4E6479",
"7g.	c #466579",
"8g.	c #618897",
"9g.	c #658995",
"0g.	c #18333C",
"ag.	c #4D4E46",
"bg.	c #454640",
"cg.	c #32332E",
"dg.	c #646A68",
"eg.	c #1C1815",
"fg.	c #30394A",
"gg.	c #303D4E",
"hg.	c #1F3145",
"ig.	c #031E33",
"jg.	c #294960",
"kg.	c #769AB4",
"lg.	c #3A5F7A",
"mg.	c #1A4160",
"ng.	c #1B405D",
"og.	c #13324F",
"pg.	c #143048",
"qg.	c #13293E",
"rg.	c #122333",
"sg.	c #091724",
"tg.	c #4F5C6C",
"ug.	c #283442",
"vg.	c #303A44",
"wg.	c #00050B",
"xg.	c #000105",
"yg.	c #797C6B",
"zg.	c #C9CCB9",
"Ag.	c #C0BFAD",
"Bg.	c #A6A89B",
"Cg.	c #4F6570",
"Dg.	c #4D6C80",
"Eg.	c #557489",
"Fg.	c #567288",
"Gg.	c #637E93",
"Hg.	c #566D7F",
"Ig.	c #516876",
"Jg.	c #69787F",
"Kg.	c #374045",
"Lg.	c #848D8C",
"Mg.	c #9CA4A6",
"Ng.	c #AFB7BA",
"Og.	c #969EA1",
"Pg.	c #626A6C",
"Qg.	c #656E75",
"Rg.	c #0D161B",
"Sg.	c #1B2429",
"Tg.	c #677173",
"Ug.	c #414B4D",
"Vg.	c #5B6A6F",
"Wg.	c #54656C",
"Xg.	c #4E6168",
"Yg.	c #43565D",
"Zg.	c #596A74",
"`g.	c #82909B",
" h.	c #525E6A",
".h.	c #57636F",
"+h.	c #384951",
"@h.	c #293D44",
"#h.	c #48575E",
"$h.	c #3B434E",
"%h.	c #525566",
"&h.	c #565E71",
"*h.	c #50667B",
"=h.	c #3F6275",
"-h.	c #688F9E",
";h.	c #4C707C",
">h.	c #10272F",
",h.	c #2F2F27",
"'h.	c #42423A",
")h.	c #41423C",
"!h.	c #3D3C38",
"~h.	c #0F0A07",
"{h.	c #0B0704",
"]h.	c #6F7877",
"^h.	c #6D726E",
"/h.	c #1A2226",
"(h.	c #101C22",
"_h.	c #1A1615",
":h.	c #203336",
"<h.	c #1F3A4B",
"[h.	c #132333",
"}h.	c #08172C",
"|h.	c #153147",
"1h.	c #0C2E47",
"2h.	c #719AB8",
"3h.	c #2C5573",
"4h.	c #133A59",
"5h.	c #11334F",
"6h.	c #17334B",
"7h.	c #182D42",
"8h.	c #122232",
"9h.	c #576776",
"0h.	c #6A7A89",
"ah.	c #5E6E7D",
"bh.	c #414E5E",
"ch.	c #090A0F",
"dh.	c #101207",
"eh.	c #080B00",
"fh.	c #8C8F7E",
"gh.	c #B3B5A8",
"hh.	c #878C85",
"ih.	c #5F6D6D",
"jh.	c #496676",
"kh.	c #678A9E",
"lh.	c #6888A1",
"mh.	c #4F6B81",
"nh.	c #627583",
"oh.	c #677A88",
"ph.	c #617886",
"qh.	c #5D7786",
"rh.	c #627079",
"sh.	c #8F9897",
"th.	c #434B4D",
"uh.	c #AEB6B8",
"vh.	c #C0C8CA",
"wh.	c #465155",
"xh.	c #70797E",
"yh.	c #192324",
"zh.	c #596A79",
"Ah.	c #6C7D84",
"Bh.	c #52636B",
"Ch.	c #596770",
"Dh.	c #54626D",
"Eh.	c #75828B",
"Fh.	c #293744",
"Gh.	c #334750",
"Hh.	c #3D5158",
"Ih.	c #39434D",
"Jh.	c #595F6F",
"Kh.	c #5A6577",
"Lh.	c #4C6F82",
"Mh.	c #7EA2B0",
"Nh.	c #385660",
"Oh.	c #1F1E1A",
"Ph.	c #32322A",
"Qh.	c #4A4A40",
"Rh.	c #3E3E36",
"Sh.	c #3A3B33",
"Th.	c #383732",
"Uh.	c #21211F",
"Vh.	c #110D0C",
"Wh.	c #4D524C",
"Xh.	c #16242C",
"Yh.	c #14262A",
"Zh.	c #284452",
"`h.	c #172737",
" i.	c #192B3F",
".i.	c #173245",
"+i.	c #15354A",
"@i.	c #163B55",
"#i.	c #6890AA",
"$i.	c #6C95B3",
"%i.	c #123B57",
"&i.	c #0D304C",
"*i.	c #0F2D47",
"=i.	c #0A2037",
"-i.	c #152638",
";i.	c #4C5866",
">i.	c #606A76",
",i.	c #54626F",
"'i.	c #485565",
")i.	c #435060",
"!i.	c #465461",
"~i.	c #21262C",
"{i.	c #03070A",
"]i.	c #090D00",
"^i.	c #121608",
"/i.	c #83867F",
"(i.	c #79827F",
"_i.	c #707F84",
":i.	c #677D88",
"<i.	c #577486",
"[i.	c #57778E",
"}i.	c #698BA4",
"|i.	c #6787A0",
"1i.	c #648096",
"2i.	c #6B8498",
"3i.	c #677C8D",
"4i.	c #6A7D8B",
"5i.	c #5F7582",
"6i.	c #667E8A",
"7i.	c #697F8A",
"8i.	c #6B7C86",
"9i.	c #839098",
"0i.	c #738088",
"ai.	c #4D5655",
"bi.	c #8F9799",
"ci.	c #4D565B",
"di.	c #5C656A",
"ei.	c #202B31",
"fi.	c #90999E",
"gi.	c #556672",
"hi.	c #60717B",
"ii.	c #6C7A85",
"ji.	c #74818A",
"ki.	c #5E6871",
"li.	c #5E6B73",
"mi.	c #515E66",
"ni.	c #68777E",
"oi.	c #4F5E65",
"pi.	c #546169",
"qi.	c #49585F",
"ri.	c #56646D",
"si.	c #384653",
"ti.	c #455360",
"ui.	c #4A5960",
"vi.	c #495563",
"wi.	c #445768",
"xi.	c #43687A",
"yi.	c #647E8B",
"zi.	c #33342C",
"Ai.	c #53554A",
"Bi.	c #424439",
"Ci.	c #35382F",
"Di.	c #242720",
"Ei.	c #23261F",
"Fi.	c #09080D",
"Gi.	c #1B1C17",
"Hi.	c #4D5049",
"Ii.	c #223536",
"Ji.	c #1D1916",
"Ki.	c #191611",
"Li.	c #1A1914",
"Mi.	c #1C1E1B",
"Ni.	c #1F2E32",
"Oi.	c #172031",
"Pi.	c #152C3C",
"Qi.	c #233F54",
"Ri.	c #15384E",
"Si.	c #6F97B0",
"Ti.	c #4F7992",
"Ui.	c #0A324C",
"Vi.	c #284A65",
"Wi.	c #4D6780",
"Xi.	c #687A92",
"Yi.	c #536073",
"Zi.	c #373F52",
"`i.	c #2E3A4A",
" j.	c #515D6B",
".j.	c #18202B",
"+j.	c #232730",
"@j.	c #040710",
"#j.	c #0E0E16",
"$j.	c #050409",
"%j.	c #040603",
"&j.	c #08070C",
"*j.	c #03080C",
"=j.	c #050A10",
"-j.	c #090E08",
";j.	c #080D09",
">j.	c #81898C",
",j.	c #758791",
"'j.	c #5D7889",
")j.	c #7C98AD",
"!j.	c #67869B",
"~j.	c #67859D",
"{j.	c #68849A",
"]j.	c #5F7A8F",
"^j.	c #678192",
"/j.	c #748B99",
"(j.	c #7C929F",
"_j.	c #6D848C",
":j.	c #6D818A",
"<j.	c #6A7E89",
"[j.	c #7D919C",
"}j.	c #7B8C96",
"|j.	c #000309",
"1j.	c #4C5250",
"2j.	c #A2ACAE",
"3j.	c #B7C1C3",
"4j.	c #A7B1B3",
"5j.	c #A5AFB1",
"6j.	c #98A2A4",
"7j.	c #6B7577",
"8j.	c #616B6D",
"9j.	c #545D62",
"0j.	c #8D969B",
"aj.	c #687681",
"bj.	c #626C76",
"cj.	c #454F58",
"dj.	c #5B6A71",
"ej.	c #515F68",
"fj.	c #3D4B54",
"gj.	c #3C4A57",
"hj.	c #404C5A",
"ij.	c #3B4753",
"jj.	c #4A5B62",
"kj.	c #4C6373",
"lj.	c #315669",
"mj.	c #628799",
"nj.	c #4B5E6C",
"oj.	c #252722",
"pj.	c #282820",
"qj.	c #30312C",
"rj.	c #383934",
"sj.	c #2F3229",
"tj.	c #515449",
"uj.	c #484B40",
"vj.	c #2E3126",
"wj.	c #3C3F36",
"xj.	c #30332A",
"yj.	c #191C13",
"zj.	c #141710",
"Aj.	c #10130C",
"Bj.	c #0E0D09",
"Cj.	c #0C0902",
"Dj.	c #505046",
"Ej.	c #4E5148",
"Fj.	c #1B251D",
"Gj.	c #0A1916",
"Hj.	c #223737",
"Ij.	c #000408",
"Jj.	c #151712",
"Kj.	c #1C1B17",
"Lj.	c #1D1A15",
"Mj.	c #1A1712",
"Nj.	c #1E1B16",
"Oj.	c #1D1C17",
"Pj.	c #243236",
"Qj.	c #1D2D35",
"Rj.	c #5E6872",
"Sj.	c #48505B",
"Tj.	c #24303C",
"Uj.	c #0D2C40",
"Vj.	c #1B3F57",
"Wj.	c #779FB8",
"Xj.	c #789DB8",
"Yj.	c #62849F",
"Zj.	c #334F67",
"`j.	c #1C283E",
" k.	c #1D2538",
".k.	c #344050",
"+k.	c #3F4B59",
"@k.	c #222C38",
"#k.	c #131D27",
"$k.	c #1C202B",
"%k.	c #181A26",
"&k.	c #1C1E2A",
"*k.	c #1B1E27",
"=k.	c #05060B",
"-k.	c #060B07",
";k.	c #020703",
">k.	c #7B868C",
",k.	c #808E97",
"'k.	c #6A818F",
")k.	c #617C8D",
"!k.	c #7995AA",
"~k.	c #6B89A1",
"{k.	c #7593AB",
"]k.	c #728EA4",
"^k.	c #668196",
"/k.	c #7791A0",
"(k.	c #758D99",
"_k.	c #6B7F88",
":k.	c #5E727B",
"<k.	c #00090D",
"[k.	c #3B413F",
"}k.	c #576162",
"|k.	c #8D9798",
"1k.	c #A3ADAE",
"2k.	c #6A7475",
"3k.	c #838D8E",
"4k.	c #768082",
"5k.	c #3C454A",
"6k.	c #161D25",
"7k.	c #414A51",
"8k.	c #5C656C",
"9k.	c #6D767D",
"0k.	c #50616B",
"ak.	c #434D56",
"bk.	c #59636C",
"ck.	c #6E7881",
"dk.	c #5F6C72",
"ek.	c #57646A",
"fk.	c #5B6870",
"gk.	c #44525D",
"hk.	c #43515C",
"ik.	c #35434E",
"jk.	c #41515E",
"kk.	c #445161",
"lk.	c #505C6A",
"mk.	c #4D5965",
"nk.	c #3D5464",
"ok.	c #486D80",
"pk.	c #789DAF",
"qk.	c #586B79",
"rk.	c #22241F",
"sk.	c #27271F",
"tk.	c #42453C",
"uk.	c #3B3E37",
"vk.	c #1E211A",
"wk.	c #171914",
"xk.	c #201F1A",
"yk.	c #1F1C13",
"zk.	c #41443B",
"Ak.	c #222C24",
"Bk.	c #10201D",
"Ck.	c #1B272F",
"Dk.	c #030C15",
"Ek.	c #191814",
"Fk.	c #6E777E",
"Gk.	c #1A2737",
"Hk.	c #1D384D",
"Ik.	c #0D2D46",
"Jk.	c #5E829C",
"Kk.	c #1C3C55",
"Lk.	c #153045",
"Mk.	c #213347",
"Nk.	c #263343",
"Ok.	c #4E5766",
"Pk.	c #565F6E",
"Qk.	c #000918",
"Rk.	c #151F2B",
"Sk.	c #374049",
"Tk.	c #111723",
"Uk.	c #1C202C",
"Vk.	c #191D28",
"Wk.	c #1B1F2A",
"Xk.	c #151821",
"Yk.	c #030207",
"Zk.	c #0A090E",
"`k.	c #010005",
" l.	c #09070A",
".l.	c #090C11",
"+l.	c #4D545A",
"@l.	c #8E9BA3",
"#l.	c #778892",
"$l.	c #7D93A0",
"%l.	c #617B8C",
"&l.	c #829EB3",
"*l.	c #6D8BA3",
"=l.	c #6F8BA1",
"-l.	c #7893A8",
";l.	c #7690A1",
">l.	c #89A1AB",
",l.	c #778F99",
"'l.	c #89A0AE",
")l.	c #798F9C",
"!l.	c #8FA3AE",
"~l.	c #899AA2",
"{l.	c #889291",
"]l.	c #B2BCBD",
"^l.	c #B5BFBE",
"/l.	c #A2ACAD",
"(l.	c #939D9C",
"_l.	c #929C9D",
":l.	c #6C7677",
"<l.	c #010B0D",
"[l.	c #42494F",
"}l.	c #3B4248",
"|l.	c #353E45",
"1l.	c #434C53",
"2l.	c #5A636A",
"3l.	c #636C73",
"4l.	c #858E95",
"5l.	c #556875",
"6l.	c #596976",
"7l.	c #76848D",
"8l.	c #707D85",
"9l.	c #858F98",
"0l.	c #626C75",
"al.	c #707D83",
"bl.	c #46545F",
"cl.	c #303E4B",
"dl.	c #3A4757",
"el.	c #45515F",
"fl.	c #434F5B",
"gl.	c #3E6376",
"hl.	c #5A7F91",
"il.	c #212119",
"jl.	c #2D2E29",
"kl.	c #2A2B26",
"ll.	c #2B2E27",
"ml.	c #2D3029",
"nl.	c #2F322B",
"ol.	c #191B16",
"pl.	c #17170F",
"ql.	c #716F63",
"rl.	c #2B2E23",
"sl.	c #252F26",
"tl.	c #0E1F19",
"ul.	c #010B14",
"vl.	c #0F1B1B",
"wl.	c #535C65",
"xl.	c #1F2E41",
"yl.	c #162B40",
"zl.	c #0E2841",
"Al.	c #7694AE",
"Bl.	c #203E58",
"Cl.	c #264258",
"Dl.	c #1F394A",
"El.	c #2E3844",
"Fl.	c #252F3B",
"Gl.	c #222B34",
"Hl.	c #0F1722",
"Il.	c #222834",
"Jl.	c #0D131F",
"Kl.	c #07060B",
"Ll.	c #040308",
"Ml.	c #06050A",
"Nl.	c #0C0A0F",
"Ol.	c #171B24",
"Pl.	c #121C25",
"Ql.	c #070C12",
"Rl.	c #8D9BA4",
"Sl.	c #849BAB",
"Tl.	c #6F8A9D",
"Ul.	c #819DB3",
"Vl.	c #7692A7",
"Wl.	c #7B96A7",
"Xl.	c #7D97A6",
"Yl.	c #7E99A4",
"Zl.	c #92ADB8",
"`l.	c #A0BAC9",
" m.	c #98AFBD",
".m.	c #93A9B4",
"+m.	c #8DA0A7",
"@m.	c #91A0A5",
"#m.	c #424846",
"$m.	c #28332F",
"%m.	c #76817D",
"&m.	c #7F8988",
"*m.	c #C8D2D1",
"=m.	c #AFBAB6",
"-m.	c #909A99",
";m.	c #808A89",
">m.	c #51585E",
",m.	c #7F888F",
"'m.	c #707980",
")m.	c #546575",
"!m.	c #566675",
"~m.	c #586671",
"{m.	c #616E77",
"]m.	c #68757D",
"^m.	c #727F87",
"/m.	c #5C6971",
"(m.	c #6C7981",
"_m.	c #536069",
":m.	c #45525B",
"<m.	c #273542",
"[m.	c #3D4A5A",
"}m.	c #445060",
"|m.	c #3E4A58",
"1m.	c #3E4B54",
"2m.	c #44596C",
"3m.	c #43667A",
"4m.	c #000B19",
"5m.	c #252621",
"6m.	c #30332C",
"7m.	c #2B2D28",
"8m.	c #29291F",
"9m.	c #615F53",
"0m.	c #46463A",
"am.	c #2E3428",
"bm.	c #29352B",
"cm.	c #091A14",
"dm.	c #06131B",
"em.	c #0F1D1E",
"fm.	c #1E2E2C",
"gm.	c #18251E",
"hm.	c #535A62",
"im.	c #4F5762",
"jm.	c #0F2034",
"km.	c #859DB5",
"lm.	c #131B26",
"mm.	c #18202D",
"nm.	c #0A121D",
"om.	c #08101B",
"pm.	c #000103",
"qm.	c #040205",
"rm.	c #0D0B10",
"sm.	c #191820",
"tm.	c #1A1A22",
"um.	c #1B232E",
"vm.	c #19212E",
"wm.	c #16202C",
"xm.	c #576371",
"ym.	c #0C1620",
"zm.	c #96A7AF",
"Am.	c #8093A1",
"Bm.	c #7C93A3",
"Cm.	c #94ADC1",
"Dm.	c #718BA2",
"Em.	c #96B2C8",
"Fm.	c #97B3C8",
"Gm.	c #809DAF",
"Hm.	c #7F9BA9",
"Im.	c #8AA6B4",
"Jm.	c #97B3C1",
"Km.	c #94B0BE",
"Lm.	c #859FAC",
"Mm.	c #99B1BD",
"Nm.	c #ABBFC8",
"Om.	c #A3B4BB",
"Pm.	c #6A777D",
"Qm.	c #080609",
"Rm.	c #0B090C",
"Sm.	c #0E1913",
"Tm.	c #15201C",
"Um.	c #232E28",
"Vm.	c #26312B",
"Wm.	c #3D4844",
"Xm.	c #202B25",
"Ym.	c #616C68",
"Zm.	c #A4AFA9",
"`m.	c #C3CECA",
" n.	c #ABB6B2",
".n.	c #AAB2B4",
"+n.	c #434E54",
"@n.	c #2B363C",
"#n.	c #687989",
"$n.	c #536372",
"%n.	c #5C6A73",
"&n.	c #6A777F",
"*n.	c #78858D",
"=n.	c #77848C",
"-n.	c #58656D",
";n.	c #59666F",
">n.	c #3D4955",
",n.	c #374552",
"'n.	c #485663",
")n.	c #2D3A4A",
"!n.	c #384454",
"~n.	c #4F5869",
"{n.	c #495261",
"]n.	c #44515A",
"^n.	c #3F4C5C",
"/n.	c #698CA0",
"(n.	c #2F5265",
"_n.	c #0A1D2C",
":n.	c #2C2D27",
"<n.	c #1F201B",
"[n.	c #1F211E",
"}n.	c #060700",
"|n.	c #5D5B4F",
"1n.	c #2C2C20",
"2n.	c #3C4236",
"3n.	c #2A362C",
"4n.	c #0D1D1A",
"5n.	c #13252D",
"6n.	c #030A10",
"7n.	c #0C0B06",
"8n.	c #192C28",
"9n.	c #16231A",
"0n.	c #1A251F",
"an.	c #545B63",
"bn.	c #666E7B",
"cn.	c #445366",
"dn.	c #798B9F",
"en.	c #50626C",
"fn.	c #212A33",
"gn.	c #18222E",
"hn.	c #17202F",
"in.	c #101C2A",
"jn.	c #15212F",
"kn.	c #000307",
"ln.	c #050507",
"mn.	c #050306",
"nn.	c #050004",
"on.	c #08060B",
"pn.	c #110F14",
"qn.	c #141319",
"rn.	c #1C1F28",
"sn.	c #1E222D",
"tn.	c #232935",
"un.	c #202835",
"vn.	c #182130",
"wn.	c #1B2B3B",
"xn.	c #617083",
"yn.	c #202C3A",
"zn.	c #000308",
"An.	c #6E8491",
"Bn.	c #8CA3B5",
"Cn.	c #96AFC5",
"Dn.	c #A2BDD2",
"En.	c #8BA7BC",
"Fn.	c #8CA8BD",
"Gn.	c #95B2C4",
"Hn.	c #97B4C4",
"In.	c #8FACBC",
"Jn.	c #668393",
"Kn.	c #8AA4B1",
"Ln.	c #96ACB7",
"Mn.	c #82969F",
"Nn.	c #697A81",
"On.	c #000507",
"Pn.	c #37423C",
"Qn.	c #2B3630",
"Rn.	c #3C4741",
"Sn.	c #3F4A44",
"Tn.	c #15201A",
"Un.	c #0A150F",
"Vn.	c #4C5751",
"Wn.	c #919C98",
"Xn.	c #A4ADAC",
"Yn.	c #B7BFC1",
"Zn.	c #AFB7B9",
"`n.	c #1C272B",
" o.	c #5F6A70",
".o.	c #697B89",
"+o.	c #6E7C87",
"@o.	c #6B7881",
"#o.	c #58626B",
"$o.	c #6B767C",
"%o.	c #6E7B83",
"&o.	c #5F6C74",
"*o.	c #46535C",
"=o.	c #485460",
"-o.	c #333F4D",
";o.	c #414D5B",
">o.	c #535F6F",
",o.	c #374353",
"'o.	c #424E5E",
")o.	c #525B6A",
"!o.	c #3C4652",
"~o.	c #5E8195",
"{o.	c #416477",
"]o.	c #162737",
"^o.	c #7D7D71",
"/o.	c #A2A296",
"(o.	c #292B1E",
"_o.	c #363C32",
":o.	c #212C24",
"<o.	c #122523",
"[o.	c #00090E",
"}o.	c #0A0702",
"|o.	c #181712",
"1o.	c #16231C",
"2o.	c #565B5F",
"3o.	c #323941",
"4o.	c #48515A",
"5o.	c #788490",
"6o.	c #13242E",
"7o.	c #677880",
"8o.	c #67767D",
"9o.	c #0F1A20",
"0o.	c #0E1822",
"ao.	c #1D2635",
"bo.	c #1E2A3A",
"co.	c #121F2F",
"do.	c #000C14",
"eo.	c #000306",
"fo.	c #030002",
"go.	c #242C39",
"ho.	c #182434",
"io.	c #122335",
"jo.	c #4C5D71",
"ko.	c #384555",
"lo.	c #64727B",
"mo.	c #A1B3BF",
"no.	c #8DA0B1",
"oo.	c #9AB1C3",
"po.	c #92ABC1",
"qo.	c #95B1C6",
"ro.	c #90AFC1",
"so.	c #9BBACC",
"to.	c #658496",
"uo.	c #5E7D8F",
"vo.	c #708894",
"wo.	c #8298A3",
"xo.	c #82959C",
"yo.	c #718087",
"zo.	c #303433",
"Ao.	c #37403B",
"Bo.	c #19221D",
"Co.	c #1B241F",
"Do.	c #5A6362",
"Eo.	c #BDC6C5",
"Fo.	c #B0B9B8",
"Go.	c #959E9D",
"Ho.	c #646E6D",
"Io.	c #657076",
"Jo.	c #5C6E7C",
"Ko.	c #72808B",
"Lo.	c #747F85",
"Mo.	c #606D75",
"No.	c #3D4A53",
"Oo.	c #44505C",
"Po.	c #293543",
"Qo.	c #475361",
"Ro.	c #4C5868",
"So.	c #455262",
"To.	c #485160",
"Uo.	c #303A46",
"Vo.	c #3D4F63",
"Wo.	c #54778B",
"Xo.	c #507386",
"Yo.	c #16160E",
"Zo.	c #8D8D83",
"`o.	c #76766A",
" p.	c #1A1C0F",
".p.	c #242F29",
"+p.	c #1B2D2D",
"@p.	c #0B0803",
"#p.	c #1E1D19",
"$p.	c #142328",
"%p.	c #0C1B17",
"&p.	c #15211D",
"*p.	c #424D49",
"=p.	c #6F7D80",
"-p.	c #AAB8BB",
";p.	c #2F3943",
">p.	c #0B1725",
",p.	c #132031",
"'p.	c #1A2A37",
")p.	c #303437",
"!p.	c #010002",
"~p.	c #020003",
"{p.	c #222A35",
"]p.	c #152232",
"^p.	c #223144",
"/p.	c #17283C",
"(p.	c #36485E",
"_p.	c #4B5B6B",
":p.	c #88969F",
"<p.	c #A9B9C8",
"[p.	c #A7BACB",
"}p.	c #9CB3C5",
"|p.	c #93AEC1",
"1p.	c #85A4B8",
"2p.	c #85A6B7",
"3p.	c #8AABBC",
"4p.	c #97B6C8",
"5p.	c #94B3C5",
"6p.	c #7491A1",
"7p.	c #708C9A",
"8p.	c #6D8794",
"9p.	c #748C98",
"0p.	c #71848B",
"ap.	c #070506",
"bp.	c #464F4C",
"cp.	c #424B48",
"dp.	c #7F8887",
"ep.	c #C0C9C8",
"fp.	c #BCC5C4",
"gp.	c #A9B2B1",
"hp.	c #798382",
"ip.	c #545E5F",
"jp.	c #556064",
"kp.	c #3B464C",
"lp.	c #7B8D97",
"mp.	c #6C7A83",
"np.	c #707A83",
"op.	c #5B656E",
"pp.	c #646E77",
"qp.	c #49565F",
"rp.	c #3C4854",
"sp.	c #2B3743",
"tp.	c #424E5C",
"up.	c #4F5B69",
"vp.	c #4D5967",
"wp.	c #353F4B",
"xp.	c #222B3A",
"yp.	c #364759",
"zp.	c #315166",
"Ap.	c #37586B",
"Bp.	c #2B3C4C",
"Cp.	c #1E1E1E",
"Dp.	c #15150D",
"Ep.	c #3E3E34",
"Fp.	c #6A6A60",
"Gp.	c #24261B",
"Hp.	c #212D29",
"Ip.	c #253838",
"Jp.	c #040301",
"Kp.	c #15120D",
"Lp.	c #1E1D18",
"Mp.	c #233339",
"Np.	c #0D130F",
"Op.	c #0C1510",
"Pp.	c #131C17",
"Qp.	c #121E2C",
"Rp.	c #142131",
"Sp.	c #061324",
"Tp.	c #344454",
"Up.	c #667685",
"Vp.	c #44525B",
"Wp.	c #373E46",
"Xp.	c #282C2F",
"Yp.	c #2B2F32",
"Zp.	c #93A1AC",
"`p.	c #9AAFC0",
" q.	c #8AA4B5",
".q.	c #98B3C6",
"+q.	c #93B2C4",
"@q.	c #87A8BB",
"#q.	c #8FB0C3",
"$q.	c #88A7B9",
"%q.	c #89A8BA",
"&q.	c #6B8898",
"*q.	c #7592A0",
"=q.	c #6E8A98",
"-q.	c #5D7784",
";q.	c #72868F",
">q.	c #607179",
",q.	c #5B5F5E",
"'q.	c #8D9796",
")q.	c #97A1A0",
"!q.	c #747E7D",
"~q.	c #757F80",
"{q.	c #626D71",
"]q.	c #738893",
"^q.	c #5C6D75",
"/q.	c #5C6B72",
"(q.	c #4E5B64",
"_q.	c #66737C",
":q.	c #4B5765",
"<q.	c #4A5664",
"[q.	c #304153",
"}q.	c #3E5E73",
"|q.	c #2F5063",
"1q.	c #1A2C3A",
"2q.	c #5C5C54",
"3q.	c #25281F",
"4q.	c #222E2C",
"5q.	c #26353B",
"6q.	c #061417",
"7q.	c #030F0F",
"8q.	c #091410",
"9q.	c #0C160E",
"0q.	c #0F1910",
"aq.	c #081005",
"bq.	c #121A0F",
"cq.	c #151F17",
"dq.	c #9CA5AA",
"eq.	c #98A1AA",
"fq.	c #162431",
"gq.	c #041121",
"hq.	c #2B3B4B",
"iq.	c #8C9CAB",
"jq.	c #243640",
"kq.	c #2D3238",
"lq.	c #2B2E33",
"mq.	c #122231",
"nq.	c #1B2E3F",
"oq.	c #1B3043",
"pq.	c #3F464E",
"qq.	c #9DABB6",
"rq.	c #AABFD0",
"sq.	c #8CA6B7",
"tq.	c #89A6B8",
"uq.	c #82A3B4",
"vq.	c #8CABBD",
"wq.	c #7291A3",
"xq.	c #658292",
"yq.	c #516E7E",
"zq.	c #5C7886",
"Aq.	c #6B8795",
"Bq.	c #617B88",
"Cq.	c #6B838F",
"Dq.	c #71828A",
"Eq.	c #00050A",
"Fq.	c #4A5350",
"Gq.	c #6C7675",
"Hq.	c #98A2A1",
"Iq.	c #ADB7B6",
"Jq.	c #929C9B",
"Kq.	c #818C90",
"Lq.	c #737E82",
"Mq.	c #7C9099",
"Nq.	c #5D6C73",
"Oq.	c #88979E",
"Pq.	c #91A0A7",
"Qq.	c #65717D",
"Rq.	c #384450",
"Sq.	c #37434F",
"Tq.	c #48555E",
"Uq.	c #4F6E82",
"Vq.	c #3A596D",
"Wq.	c #172937",
"Xq.	c #141611",
"Yq.	c #20201E",
"Zq.	c #242520",
"`q.	c #12150E",
" r.	c #2C2C24",
".r.	c #BBBBB1",
"+r.	c #3E3F37",
"@r.	c #223030",
"#r.	c #000D13",
"$r.	c #111C20",
"%r.	c #061518",
"&r.	c #091717",
"*r.	c #07140D",
"=r.	c #09150B",
"-r.	c #061103",
";r.	c #152012",
">r.	c #172119",
",r.	c #C0C7D1",
"'r.	c #0B161C",
")r.	c #1C292F",
"!r.	c #121F28",
"~r.	c #697988",
"{r.	c #435362",
"]r.	c #2B3B4A",
"^r.	c #2A2E37",
"/r.	c #192C3D",
"(r.	c #415361",
"_r.	c #646D76",
":r.	c #000208",
"<r.	c #A9B9C6",
"[r.	c #4B6272",
"}r.	c #708B9C",
"|r.	c #3E5E6D",
"1r.	c #7292A1",
"2r.	c #425F6F",
"3r.	c #506D7D",
"4r.	c #728F9F",
"5r.	c #577381",
"6r.	c #6A8694",
"7r.	c #708A97",
"8r.	c #637986",
"9r.	c #7D8987",
"0r.	c #B8C4C2",
"ar.	c #BFCBC9",
"br.	c #9EAAAA",
"cr.	c #869193",
"dr.	c #6F7A7C",
"er.	c #A1ACAE",
"fr.	c #677A81",
"gr.	c #97A6AD",
"hr.	c #8E9DA4",
"ir.	c #79888F",
"jr.	c #4A5760",
"kr.	c #2E3F4F",
"lr.	c #3C5B6F",
"mr.	c #3F5E72",
"nr.	c #22211D",
"or.	c #262520",
"pr.	c #282722",
"qr.	c #1B1E15",
"rr.	c #C8C8BE",
"sr.	c #6C6E63",
"tr.	c #252821",
"ur.	c #192B2D",
"vr.	c #041413",
"wr.	c #0A1710",
"xr.	c #0A160C",
"yr.	c #081207",
"zr.	c #111B10",
"Ar.	c #242B23",
"Br.	c #656C72",
"Cr.	c #606B71",
"Dr.	c #051218",
"Er.	c #05131E",
"Fr.	c #586877",
"Gr.	c #4C5C69",
"Hr.	c #39484D",
"Ir.	c #1B222A",
"Jr.	c #000406",
"Kr.	c #1A2A39",
"Lr.	c #142736",
"Mr.	c #A1B1BE",
"Nr.	c #526876",
"Or.	c #668391",
"Pr.	c #6C8999",
"Qr.	c #617E8E",
"Rr.	c #577484",
"Sr.	c #3A5767",
"Tr.	c #4B6270",
"Ur.	c #415762",
"Vr.	c #404F56",
"Wr.	c #273331",
"Xr.	c #566260",
"Yr.	c #C4D0D0",
"Zr.	c #AFBABC",
"`r.	c #949FA1",
" s.	c #A0ABAD",
".s.	c #9EA9AB",
"+s.	c #8EA4AF",
"@s.	c #8397A0",
"#s.	c #73848B",
"$s.	c #76858A",
"%s.	c #758288",
"&s.	c #5C696F",
"*s.	c #5A6970",
"=s.	c #697780",
"-s.	c #6F7E85",
";s.	c #55636C",
">s.	c #404B51",
",s.	c #29383B",
"'s.	c #355468",
")s.	c #23221E",
"!s.	c #21201B",
"~s.	c #211E19",
"{s.	c #2F2C25",
"]s.	c #383530",
"^s.	c #22221A",
"/s.	c #1A1B13",
"(s.	c #1E2116",
"_s.	c #525246",
":s.	c #8F8F83",
"<s.	c #484A3D",
"[s.	c #252E29",
"}s.	c #1A2727",
"|s.	c #04151C",
"1s.	c #162930",
"2s.	c #0A1A1A",
"3s.	c #0E1A16",
"4s.	c #07120A",
"5s.	c #081209",
"6s.	c #1A241B",
"7s.	c #0D1C21",
"8s.	c #0E1D22",
"9s.	c #17262B",
"0s.	c #010F1C",
"as.	c #657380",
"bs.	c #74828F",
"cs.	c #1F2A2C",
"ds.	c #171F2A",
"es.	c #030B0D",
"fs.	c #5B7783",
"gs.	c #65818F",
"hs.	c #638090",
"is.	c #415E70",
"js.	c #59788A",
"ks.	c #557486",
"ls.	c #627A86",
"ms.	c #627681",
"ns.	c #192525",
"os.	c #728080",
"ps.	c #A8B6B6",
"qs.	c #CFDDDD",
"rs.	c #BECCCC",
"ss.	c #AAB8B8",
"ts.	c #8A9898",
"us.	c #849292",
"vs.	c #6C8591",
"ws.	c #7E929D",
"xs.	c #84979E",
"ys.	c #728188",
"zs.	c #7D8B8E",
"As.	c #89969C",
"Bs.	c #5B6C74",
"Cs.	c #65747B",
"Ds.	c #5D6B74",
"Es.	c #505E67",
"Fs.	c #394551",
"Gs.	c #3F4C55",
"Hs.	c #1C2A2A",
"Is.	c #202B27",
"Js.	c #3A596B",
"Ks.	c #527185",
"Ls.	c #252620",
"Ms.	c #292823",
"Ns.	c #34312A",
"Os.	c #3C3932",
"Ps.	c #3D3A33",
"Qs.	c #26261C",
"Rs.	c #27291E",
"Ss.	c #272B1D",
"Ts.	c #333426",
"Us.	c #B9BAAC",
"Vs.	c #545648",
"Ws.	c #2E3C3C",
"Xs.	c #000D12",
"Ys.	c #00090B",
"Zs.	c #172833",
"`s.	c #1B2F35",
" t.	c #071717",
".t.	c #0D1917",
"+t.	c #08130D",
"@t.	c #19231B",
"#t.	c #1A211A",
"$t.	c #909EA1",
"%t.	c #BFCED3",
"&t.	c #56656A",
"*t.	c #031217",
"=t.	c #0F1E23",
"-t.	c #021118",
";t.	c #0A1825",
">t.	c #04121F",
",t.	c #42505D",
"'t.	c #56646F",
")t.	c #4B5962",
"!t.	c #141C27",
"~t.	c #32454C",
"{t.	c #06151C",
"]t.	c #14202E",
"^t.	c #13120E",
"/t.	c #000811",
"(t.	c #62737D",
"_t.	c #99AFBA",
":t.	c #435B67",
"<t.	c #728C9B",
"[t.	c #425C6B",
"}t.	c #516B7C",
"|t.	c #678496",
"1t.	c #708FA1",
"2t.	c #638294",
"3t.	c #7D9CAE",
"4t.	c #698390",
"5t.	c #4B616C",
"6t.	c #5C6F76",
"7t.	c #394448",
"8t.	c #A3B1B1",
"9t.	c #AEBCBC",
"0t.	c #B5C3C3",
"at.	c #B6C4C4",
"bt.	c #859499",
"ct.	c #808B8F",
"dt.	c #7F8A8E",
"et.	c #182724",
"ft.	c #274658",
"gt.	c #39586A",
"ht.	c #333532",
"it.	c #333530",
"jt.	c #31322C",
"kt.	c #2D2C27",
"lt.	c #393931",
"mt.	c #4C4942",
"nt.	c #444138",
"ot.	c #393B2D",
"pt.	c #343827",
"qt.	c #505141",
"rt.	c #8F9080",
"st.	c #3D3F31",
"tt.	c #282B20",
"ut.	c #313B33",
"vt.	c #0F1F25",
"wt.	c #232D25",
"xt.	c #1E251D",
"yt.	c #1F261E",
"zt.	c #19231A",
"At.	c #132323",
"Bt.	c #A4B5BC",
"Ct.	c #9AACB0",
"Dt.	c #000816",
"Et.	c #0F1B29",
"Ft.	c #79868F",
"Gt.	c #1E2C2F",
"Ht.	c #28323E",
"It.	c #1B2737",
"Jt.	c #0A1D2B",
"Kt.	c #112732",
"Lt.	c #2A3C46",
"Mt.	c #00070B",
"Nt.	c #010103",
"Ot.	c #0A0E17",
"Pt.	c #09111C",
"Qt.	c #102030",
"Rt.	c #223241",
"St.	c #657982",
"Tt.	c #647A85",
"Ut.	c #788F9D",
"Vt.	c #738D9E",
"Wt.	c #647F90",
"Xt.	c #708D9F",
"Yt.	c #547387",
"Zt.	c #6D8EA1",
"`t.	c #7796A8",
" u.	c #657D89",
".u.	c #50646D",
"+u.	c #445255",
"@u.	c #33423F",
"#u.	c #283734",
"$u.	c #23322F",
"%u.	c #172623",
"&u.	c #91A09D",
"*u.	c #7C8B90",
"=u.	c #808E91",
"-u.	c #889699",
";u.	c #758384",
">u.	c #495A64",
",u.	c #1E2A28",
"'u.	c #1D2927",
")u.	c #233D4E",
"!u.	c #324D60",
"~u.	c #383A2F",
"{u.	c #3B3B2F",
"]u.	c #3C3C30",
"^u.	c #3E3E32",
"/u.	c #515244",
"(u.	c #4C4A3D",
"_u.	c #545245",
":u.	c #515240",
"<u.	c #323520",
"[u.	c #A5A792",
"}u.	c #C0C1AF",
"|u.	c #2D2F21",
"1u.	c #2A3024",
"2u.	c #000B0F",
"3u.	c #232B31",
"4u.	c #1F2F39",
"5u.	c #151C14",
"6u.	c #C6D4D7",
"7u.	c #98A6A9",
"8u.	c #2A383B",
"9u.	c #031016",
"0u.	c #050F18",
"au.	c #07111B",
"bu.	c #656F78",
"cu.	c #717E84",
"du.	c #5B696C",
"eu.	c #1D2637",
"fu.	c #091F2D",
"gu.	c #0D2531",
"hu.	c #050C12",
"iu.	c #040813",
"ju.	c #030E14",
"ku.	c #566A73",
"lu.	c #627886",
"mu.	c #758C9C",
"nu.	c #6B8596",
"ou.	c #698698",
"pu.	c #4C6B7F",
"qu.	c #557689",
"ru.	c #567587",
"su.	c #678494",
"tu.	c #627C89",
"uu.	c #526873",
"vu.	c #202C2A",
"wu.	c #2C3836",
"xu.	c #212D2B",
"yu.	c #738390",
"zu.	c #91A2AC",
"Au.	c #7B8A8F",
"Bu.	c #7E8D90",
"Cu.	c #637275",
"Du.	c #5D6A70",
"Eu.	c #64737A",
"Fu.	c #6D7B84",
"Gu.	c #65737E",
"Hu.	c #45535E",
"Iu.	c #303E47",
"Ju.	c #303E3F",
"Ku.	c #272E38",
"Lu.	c #152427",
"Mu.	c #162625",
"Nu.	c #1A2A3A",
"Ou.	c #2F4459",
"Pu.	c #304A5B",
"Qu.	c #001320",
"Ru.	c #212723",
"Su.	c #373A33",
"Tu.	c #32352A",
"Uu.	c #424534",
"Vu.	c #4F503E",
"Wu.	c #575944",
"Xu.	c #51503B",
"Yu.	c #54543C",
"Zu.	c #55553D",
"`u.	c #5D5D43",
" v.	c #6A6A52",
".v.	c #74745A",
"+v.	c #6A6A50",
"@v.	c #65654B",
"#v.	c #BFBEA9",
"$v.	c #D7D8C6",
"%v.	c #2B2F21",
"&v.	c #2F362E",
"*v.	c #3C4B4F",
"=v.	c #10242E",
"-v.	c #00050C",
";v.	c #000F17",
">v.	c #0C1A23",
",v.	c #1B3036",
"'v.	c #19282B",
")v.	c #2E2F27",
"!v.	c #414649",
"~v.	c #414F58",
"{v.	c #556066",
"]v.	c #0F2733",
"^v.	c #162D3B",
"/v.	c #1F3743",
"(v.	c #06050B",
"_v.	c #10101A",
":v.	c #151925",
"<v.	c #141B2B",
"[v.	c #09131C",
"}v.	c #75838E",
"|v.	c #5F717D",
"1v.	c #8299A7",
"2v.	c #809BAC",
"3v.	c #56778A",
"4v.	c #628396",
"5v.	c #6B8C9D",
"6v.	c #678492",
"7v.	c #637F8A",
"8v.	c #415963",
"9v.	c #4B6268",
"0v.	c #536567",
"av.	c #0B0A06",
"bv.	c #798B99",
"cv.	c #6B7986",
"dv.	c #6E7C85",
"ev.	c #616F78",
"fv.	c #89989D",
"gv.	c #8C9B9E",
"hv.	c #768588",
"iv.	c #59686D",
"jv.	c #47565D",
"kv.	c #606E77",
"lv.	c #4A5865",
"mv.	c #3F4D5A",
"nv.	c #485661",
"ov.	c #292E32",
"pv.	c #272938",
"qv.	c #232937",
"rv.	c #182A2A",
"sv.	c #2D485B",
"tv.	c #122E3C",
"uv.	c #242923",
"vv.	c #494D3F",
"wv.	c #454837",
"xv.	c #595C47",
"yv.	c #5F614B",
"zv.	c #54573C",
"Av.	c #646448",
"Bv.	c #6A6A4E",
"Cv.	c #696A4B",
"Dv.	c #737455",
"Ev.	c #7F8061",
"Fv.	c #7E7F60",
"Gv.	c #969577",
"Hv.	c #939276",
"Iv.	c #D9D9C1",
"Jv.	c #C9CAB8",
"Kv.	c #363A2C",
"Lv.	c #13262C",
"Mv.	c #2C2B26",
"Nv.	c #343233",
"Ov.	c #2C2A2D",
"Pv.	c #A4ADB2",
"Qv.	c #98A2AB",
"Rv.	c #829099",
"Sv.	c #758690",
"Tv.	c #54656F",
"Uv.	c #132B37",
"Vv.	c #142B39",
"Wv.	c #14263A",
"Xv.	c #1E3348",
"Yv.	c #223F51",
"Zv.	c #1D3442",
"`v.	c #000C16",
" w.	c #0C0910",
".w.	c #0D0D17",
"+w.	c #141A26",
"@w.	c #34424F",
"#w.	c #89969E",
"$w.	c #788993",
"%w.	c #688394",
"&w.	c #7392A6",
"*w.	c #5C7D90",
"=w.	c #4E6F82",
"-w.	c #7091A2",
";w.	c #7999A8",
">w.	c #688691",
",w.	c #526E79",
"'w.	c #4C6770",
")w.	c #2F484D",
"!w.	c #384D52",
"~w.	c #090804",
"{w.	c #0E0B06",
"]w.	c #0D1613",
"^w.	c #19221F",
"/w.	c #758594",
"(w.	c #687683",
"_w.	c #62707B",
":w.	c #6B7982",
"<w.	c #819095",
"[w.	c #5A6871",
"}w.	c #5A6672",
"|w.	c #313E46",
"1w.	c #1F212E",
"2w.	c #1D2331",
"3w.	c #1C2C2C",
"4w.	c #2A3342",
"5w.	c #3F5A6D",
"6w.	c #1E231D",
"7w.	c #2E332C",
"8w.	c #414335",
"9w.	c #63654F",
"0w.	c #6E6E56",
"aw.	c #64644A",
"bw.	c #79795D",
"cw.	c #797A5B",
"dw.	c #7C7D5E",
"ew.	c #858667",
"fw.	c #919272",
"gw.	c #999A7A",
"hw.	c #A9A88A",
"iw.	c #BAB99D",
"jw.	c #F0F0D8",
"kw.	c #B1B2A0",
"lw.	c #192E34",
"mw.	c #242223",
"nw.	c #39373A",
"ow.	c #434345",
"pw.	c #505B61",
"qw.	c #A0ADB5",
"rw.	c #B5C3CC",
"sw.	c #2D3E46",
"tw.	c #2C3D45",
"uw.	c #23313C",
"vw.	c #102633",
"ww.	c #19303E",
"xw.	c #1A3045",
"yw.	c #1E3D51",
"zw.	c #27485B",
"Aw.	c #5B7687",
"Bw.	c #203643",
"Cw.	c #071216",
"Dw.	c #06030A",
"Ew.	c #090913",
"Fw.	c #0E1824",
"Gw.	c #9CAAB5",
"Hw.	c #637581",
"Iw.	c #647E8F",
"Jw.	c #6B879C",
"Kw.	c #5D7C90",
"Lw.	c #69889A",
"Mw.	c #7E9EAD",
"Nw.	c #698694",
"Ow.	c #4D6975",
"Pw.	c #456069",
"Qw.	c #354E55",
"Rw.	c #4F5553",
"Sw.	c #748493",
"Tw.	c #96A4B1",
"Uw.	c #66747F",
"Vw.	c #677580",
"Ww.	c #6D7C81",
"Xw.	c #4D5B66",
"Yw.	c #1B212D",
"Zw.	c #2E3746",
"`w.	c #2F4052",
" x.	c #496573",
".x.	c #34372C",
"+x.	c #3F4134",
"@x.	c #525343",
"#x.	c #555742",
"$x.	c #6F6E59",
"%x.	c #6B6B51",
"&x.	c #76765A",
"*x.	c #8C8D6E",
"=x.	c #959677",
"-x.	c #9C9D7D",
";x.	c #AEAF8F",
">x.	c #B6B597",
",x.	c #CDCCB0",
"'x.	c #F9F9E1",
")x.	c #A9AA98",
"!x.	c #202318",
"~x.	c #0C1B20",
"{x.	c #363636",
"]x.	c #B9BEC2",
"^x.	c #9EAFB7",
"/x.	c #85939E",
"(x.	c #34474E",
"_x.	c #1E3138",
":x.	c #172A39",
"<x.	c #1A2F40",
"[x.	c #1F3449",
"}x.	c #193248",
"|x.	c #0F2F44",
"1x.	c #34596C",
"2x.	c #254458",
"3x.	c #526D7E",
"4x.	c #000B12",
"5x.	c #000A0B",
"6x.	c #05040C",
"7x.	c #090D16",
"8x.	c #465059",
"9x.	c #495B69",
"0x.	c #8194A5",
"ax.	c #698092",
"bx.	c #5B7689",
"cx.	c #708CA1",
"dx.	c #819EB0",
"ex.	c #9AB7C7",
"fx.	c #738F9D",
"gx.	c #364C57",
"hx.	c #43515E",
"ix.	c #546577",
"jx.	c #505D6D",
"kx.	c #626E7C",
"lx.	c #586470",
"mx.	c #627178",
"nx.	c #76858C",
"ox.	c #808F96",
"px.	c #5A6B73",
"qx.	c #556670",
"rx.	c #5F6973",
"sx.	c #4D5761",
"tx.	c #434D57",
"ux.	c #304050",
"vx.	c #506A79",
"wx.	c #262922",
"xx.	c #2E312A",
"yx.	c #35372C",
"zx.	c #36382B",
"Ax.	c #4C4E40",
"Bx.	c #5E5F4D",
"Cx.	c #78765F",
"Dx.	c #79775E",
"Ex.	c #8C8B6D",
"Fx.	c #A09F80",
"Gx.	c #A5A485",
"Hx.	c #B1B091",
"Ix.	c #BAB99A",
"Jx.	c #C0BFA0",
"Kx.	c #CDCCAE",
"Lx.	c #D7D6BA",
"Mx.	c #EBEAD5",
"Nx.	c #959686",
"Ox.	c #102229",
"Px.	c #333534",
"Qx.	c #94999D",
"Rx.	c #A7B9C3",
"Sx.	c #31454E",
"Tx.	c #3C5059",
"Ux.	c #2A3E45",
"Vx.	c #283847",
"Wx.	c #102536",
"Xx.	c #23384D",
"Yx.	c #203850",
"Zx.	c #173B51",
"`x.	c #1E445B",
" y.	c #30546A",
".y.	c #1C3D50",
"+y.	c #486575",
"@y.	c #2E4A55",
"#y.	c #001319",
"$y.	c #05040A",
"%y.	c #000108",
"&y.	c #2E3842",
"*y.	c #00020C",
"=y.	c #8D9DAA",
"-y.	c #6A7B8B",
";y.	c #6A8495",
">y.	c #7691A4",
",y.	c #6B8699",
"'y.	c #678295",
")y.	c #496475",
"!y.	c #405A69",
"~y.	c #3D5764",
"{y.	c #546474",
"]y.	c #465260",
"^y.	c #070F1A",
"/y.	c #01060C",
"(y.	c #4E5452",
"_y.	c #536677",
":y.	c #425363",
"<y.	c #4E5A68",
"[y.	c #505C68",
"}y.	c #606C78",
"|y.	c #53616A",
"1y.	c #4A5861",
"2y.	c #4E5F69",
"3y.	c #3E4852",
"4y.	c #364049",
"5y.	c #414B54",
"6y.	c #394345",
"7y.	c #2B3737",
"8y.	c #292A22",
"9y.	c #2B2C24",
"0y.	c #303227",
"ay.	c #37372B",
"by.	c #3F4030",
"cy.	c #535442",
"dy.	c #5C5B47",
"ey.	c #86846B",
"fy.	c #838266",
"gy.	c #989477",
"hy.	c #999677",
"iy.	c #B5B293",
"jy.	c #9A9778",
"ky.	c #A6A586",
"ly.	c #C1C0A1",
"my.	c #BDBC9D",
"ny.	c #D6D5B7",
"oy.	c #E0DFC3",
"py.	c #D3D2BD",
"qy.	c #616252",
"ry.	c #132128",
"sy.	c #25292C",
"ty.	c #5D6568",
"uy.	c #0F2028",
"vy.	c #4C5E68",
"wy.	c #8799A3",
"xy.	c #889CA3",
"yy.	c #5D6F79",
"zy.	c #354950",
"Ay.	c #3B4F56",
"By.	c #1F3042",
"Cy.	c #223448",
"Dy.	c #22485F",
"Ey.	c #1B455D",
"Fy.	c #274F68",
"Gy.	c #284E61",
"Hy.	c #4F7484",
"Iy.	c #1C3E48",
"Jy.	c #010812",
"Ky.	c #03020A",
"Ly.	c #020106",
"My.	c #586168",
"Ny.	c #00050F",
"Oy.	c #495561",
"Py.	c #8E9CA9",
"Qy.	c #617785",
"Ry.	c #728C9D",
"Sy.	c #577182",
"Ty.	c #415B6A",
"Uy.	c #4D6776",
"Vy.	c #4E6573",
"Wy.	c #506874",
"Xy.	c #4E6471",
"Yy.	c #485462",
"Zy.	c #6D7E90",
"`y.	c #5C6874",
" z.	c #6B7783",
".z.	c #4D5A63",
"+z.	c #57656E",
"@z.	c #3C4A53",
"#z.	c #5E6F79",
"$z.	c #6F7F8C",
"%z.	c #52626F",
"&z.	c #3F505A",
"*z.	c #58626C",
"=z.	c #39424B",
"-z.	c #3F4851",
";z.	c #252E35",
">z.	c #172323",
",z.	c #1D2D3A",
"'z.	c #1F3644",
")z.	c #384F5D",
"!z.	c #2E3025",
"~z.	c #313224",
"{z.	c #514F40",
"]z.	c #4F4E3C",
"^z.	c #75735C",
"/z.	c #76745B",
"(z.	c #969277",
"_z.	c #979376",
":z.	c #9D987A",
"<z.	c #A6A183",
"[z.	c #C0BD9C",
"}z.	c #A19E7D",
"|z.	c #ABA887",
"1z.	c #CAC7A8",
"2z.	c #D8D4B7",
"3z.	c #E7E5CC",
"4z.	c #C8C7B3",
"5z.	c #454636",
"6z.	c #2D2F2A",
"7z.	c #353734",
"8z.	c #4E4F53",
"9z.	c #5E6265",
"0z.	c #ADB2B5",
"az.	c #0B1C24",
"bz.	c #8D9EA6",
"cz.	c #74878D",
"dz.	c #22353B",
"ez.	c #2C3E4A",
"fz.	c #2D404F",
"gz.	c #223345",
"hz.	c #283E55",
"iz.	c #2D4961",
"jz.	c #1B405A",
"kz.	c #19455E",
"lz.	c #224B67",
"mz.	c #1A4661",
"nz.	c #1F4D65",
"oz.	c #114052",
"pz.	c #527C8A",
"qz.	c #02202B",
"rz.	c #03030B",
"sz.	c #000004",
"tz.	c #000109",
"uz.	c #566977",
"vz.	c #566D7B",
"wz.	c #536A78",
"xz.	c #475D6A",
"yz.	c #414A47",
"zz.	c #6F8495",
"Az.	c #506171",
"Bz.	c #6E7E8E",
"Cz.	c #616E7E",
"Dz.	c #6F7B87",
"Ez.	c #4D5E68",
"Fz.	c #5B6C76",
"Gz.	c #4C565F",
"Hz.	c #3C454E",
"Iz.	c #394F5C",
"Jz.	c #40535A",
"Kz.	c #242922",
"Lz.	c #4A4736",
"Mz.	c #5D5A47",
"Nz.	c #6B6952",
"Oz.	c #817D64",
"Pz.	c #7E7A5F",
"Qz.	c #868164",
"Rz.	c #A39E80",
"Sz.	c #9C9779",
"Tz.	c #A5A080",
"Uz.	c #C3BE9E",
"Vz.	c #C3C09F",
"Wz.	c #C9C6A5",
"Xz.	c #D2CFB0",
"Yz.	c #D5D2B3",
"Zz.	c #D9D5BA",
"`z.	c #E0DEC5",
" A.	c #C0BDAA",
".A.	c #4E4F41",
"+A.	c #22281E",
"@A.	c #151A13",
"#A.	c #2D2D2D",
"$A.	c #515254",
"%A.	c #3F4044",
"&A.	c #5D6164",
"*A.	c #9CA1A4",
"=A.	c #1B2A2F",
"-A.	c #485A5E",
";A.	c #63767C",
">A.	c #223846",
",A.	c #304256",
"'A.	c #25374D",
")A.	c #293F56",
"!A.	c #1F4B66",
"~A.	c #184363",
"{A.	c #11405E",
"]A.	c #1A506A",
"^A.	c #12495E",
"/A.	c #4D7E8F",
"(A.	c #082C3A",
"_A.	c #00070F",
":A.	c #455964",
"<A.	c #475B64",
"[A.	c #30424C",
"}A.	c #2D3538",
"|A.	c #8198A8",
"1A.	c #6D7A8A",
"2A.	c #727E8A",
"3A.	c #485963",
"4A.	c #374A51",
"5A.	c #202E2F",
"6A.	c #464B44",
"7A.	c #464739",
"8A.	c #4C4938",
"9A.	c #4D4A37",
"0A.	c #5C5743",
"aA.	c #66614B",
"bA.	c #87836A",
"cA.	c #847E64",
"dA.	c #8C876A",
"eA.	c #918A6D",
"fA.	c #9C9578",
"gA.	c #B0AA8A",
"hA.	c #B2AD8D",
"iA.	c #C1BC9C",
"jA.	c #D4CFAF",
"kA.	c #C6C3A4",
"lA.	c #D1CEAF",
"mA.	c #DEDABF",
"nA.	c #B8B5A2",
"oA.	c #38392B",
"pA.	c #35464A",
"qA.	c #06181C",
"rA.	c #16221E",
"sA.	c #747476",
"tA.	c #454648",
"uA.	c #83878A",
"vA.	c #93989B",
"wA.	c #708286",
"xA.	c #94A7AD",
"yA.	c #53676E",
"zA.	c #243A47",
"AA.	c #263D4B",
"BA.	c #2C4655",
"CA.	c #1C3345",
"DA.	c #1F3147",
"EA.	c #1D364C",
"FA.	c #224156",
"GA.	c #143A51",
"HA.	c #295474",
"IA.	c #255374",
"JA.	c #1B5471",
"KA.	c #07435B",
"LA.	c #386F83",
"MA.	c #1C4354",
"NA.	c #000008",
"OA.	c #04090F",
"PA.	c #02070D",
"QA.	c #5D6266",
"RA.	c #2C3135",
"SA.	c #677578",
"TA.	c #57666B",
"UA.	c #516269",
"VA.	c #3A4D54",
"WA.	c #14272D",
"XA.	c #0F2226",
"YA.	c #4F6163",
"ZA.	c #30322F",
"`A.	c #0F0B0C",
" B.	c #7C99A6",
".B.	c #69808E",
"+B.	c #758592",
"@B.	c #7B8996",
"#B.	c #54606C",
"$B.	c #56626E",
"%B.	c #47545D",
"&B.	c #162222",
"*B.	c #1C2B32",
"=B.	c #475A68",
"-B.	c #324242",
";B.	c #595E57",
">B.	c #4E4F3F",
",B.	c #565340",
"'B.	c #615C46",
")B.	c #5D5842",
"!B.	c #736F56",
"~B.	c #999275",
"{B.	c #A39D7D",
"]B.	c #A9A383",
"^B.	c #BDB797",
"/B.	c #BAB595",
"(B.	c #D1CCAC",
"_B.	c #B4AF8F",
":B.	c #CBC8A9",
"<B.	c #CECAAD",
"[B.	c #E0DCC3",
"}B.	c #B7B4A1",
"|B.	c #1F241D",
"1B.	c #37474C",
"2B.	c #182A31",
"3B.	c #243330",
"4B.	c #121D17",
"5B.	c #454545",
"6B.	c #3A3A3C",
"7B.	c #7C7D7F",
"8B.	c #9EA2A5",
"9B.	c #1B2A2D",
"0B.	c #415259",
"aB.	c #8A9EA7",
"bB.	c #455B66",
"cB.	c #1B3240",
"dB.	c #203A49",
"eB.	c #293B4F",
"fB.	c #203548",
"gB.	c #152E42",
"hB.	c #1B3A4E",
"iB.	c #19415B",
"jB.	c #224B6B",
"kB.	c #356385",
"lB.	c #1E5977",
"mB.	c #3A748A",
"nB.	c #285366",
"oB.	c #000B1A",
"pB.	c #000605",
"qB.	c #BFCACC",
"rB.	c #919FA2",
"sB.	c #6F7E83",
"tB.	c #08171C",
"uB.	c #0D1C1F",
"vB.	c #233235",
"wB.	c #435654",
"xB.	c #4D605C",
"yB.	c #6C7B76",
"zB.	c #98A39D",
"AB.	c #BAC1BA",
"BB.	c #CDD2CB",
"CB.	c #696C65",
"DB.	c #100C0D",
"EB.	c #8FA9B8",
"FB.	c #5D7381",
"GB.	c #435563",
"HB.	c #7A8A97",
"IB.	c #4F5B67",
"JB.	c #15211F",
"KB.	c #131F1D",
"LB.	c #5C6B6E",
"MB.	c #666C62",
"NB.	c #575644",
"OB.	c #67624C",
"PB.	c #666046",
"QB.	c #706A50",
"RB.	c #837E61",
"SB.	c #918A6E",
"TB.	c #A7A083",
"UB.	c #9E9878",
"VB.	c #ADA785",
"WB.	c #B3AD8B",
"XB.	c #C8C2A0",
"YB.	c #C5C0A0",
"ZB.	c #D8D3B5",
"`B.	c #D2CDAF",
" C.	c #C8C4A7",
".C.	c #C4C0A3",
"+C.	c #D6D0B6",
"@C.	c #E3DEC8",
"#C.	c #C4C1B0",
"$C.	c #414336",
"%C.	c #192521",
"&C.	c #0F1815",
"*C.	c #525657",
"=C.	c #979D9D",
"-C.	c #484C4D",
";C.	c #3A3E3D",
">C.	c #3C413D",
",C.	c #000E11",
"'C.	c #021116",
")C.	c #6A7D84",
"!C.	c #9BAFB8",
"~C.	c #1E3543",
"{C.	c #203747",
"]C.	c #22374A",
"^C.	c #143345",
"/C.	c #0D3044",
"(C.	c #1C4058",
"_C.	c #214464",
":C.	c #174264",
"<C.	c #205B7B",
"[C.	c #155672",
"}C.	c #35738C",
"|C.	c #38657A",
"1C.	c #000A1A",
"2C.	c #010600",
"3C.	c #000106",
"4C.	c #31363A",
"5C.	c #020804",
"6C.	c #08110E",
"7C.	c #060F0C",
"8C.	c #ABB5B4",
"9C.	c #A7B1B2",
"0C.	c #CED8D9",
"aC.	c #E9F5F5",
"bC.	c #DDE9E9",
"cC.	c #A8B3B5",
"dC.	c #7E898B",
"eC.	c #596863",
"fC.	c #8E9D96",
"gC.	c #C3CEC6",
"hC.	c #E3EDE4",
"iC.	c #C2C8BE",
"jC.	c #7F8279",
"kC.	c #262721",
"lC.	c #0F110C",
"mC.	c #2C2E2D",
"nC.	c #B0CBDC",
"oC.	c #8298A5",
"pC.	c #758793",
"qC.	c #4E5A66",
"rC.	c #1C1F24",
"sC.	c #11201D",
"tC.	c #101F1A",
"uC.	c #1B2934",
"vC.	c #3C4E5A",
"wC.	c #5B6D6F",
"xC.	c #5E645A",
"yC.	c #5E5D49",
"zC.	c #6E6A51",
"AC.	c #787356",
"BC.	c #7D785B",
"CC.	c #959072",
"DC.	c #AAA484",
"EC.	c #B5AF8D",
"FC.	c #C0BA98",
"GC.	c #C4BE9C",
"HC.	c #CAC5A5",
"IC.	c #CCC7A7",
"JC.	c #BEB99B",
"KC.	c #CAC6AB",
"LC.	c #CDC7AF",
"MC.	c #DBD8C7",
"NC.	c #4A4C3F",
"OC.	c #152626",
"PC.	c #1E2D2A",
"QC.	c #192322",
"RC.	c #818382",
"SC.	c #3C403F",
"TC.	c #757F7E",
"UC.	c #4B4F50",
"VC.	c #343537",
"WC.	c #8599A2",
"XC.	c #3D515C",
"YC.	c #182B3A",
"ZC.	c #112637",
"`C.	c #264353",
" D.	c #123143",
".D.	c #1E3E55",
"+D.	c #264D6E",
"@D.	c #1D5878",
"#D.	c #185977",
"$D.	c #2A6881",
"%D.	c #447289",
"&D.	c #000C1E",
"*D.	c #010207",
"=D.	c #0E130D",
"-D.	c #060C08",
";D.	c #A9AFAD",
">D.	c #C6CCCA",
",D.	c #C7CDCB",
"'D.	c #D6DFDE",
")D.	c #CFD8D7",
"!D.	c #F1FAF9",
"~D.	c #F9FFFF",
"{D.	c #E9F3F2",
"]D.	c #C5D2CB",
"^D.	c #C7D4CB",
"/D.	c #AEB8AF",
"(D.	c #6D756A",
"_D.	c #2D2F24",
":D.	c #171810",
"<D.	c #161813",
"[D.	c #343837",
"}D.	c #8EA7BB",
"|D.	c #8096A4",
"1D.	c #53646E",
"2D.	c #404A53",
"3D.	c #11201B",
"4D.	c #12211C",
"5D.	c #314345",
"6D.	c #5A6056",
"7D.	c #7D7C68",
"8D.	c #7D775D",
"9D.	c #7A7356",
"0D.	c #958E71",
"aD.	c #9B9575",
"bD.	c #A59F7F",
"cD.	c #B9B391",
"dD.	c #B7B18F",
"eD.	c #CAC4A2",
"fD.	c #D0CAA8",
"gD.	c #C2BC9A",
"hD.	c #CFCAAA",
"iD.	c #CDCAAB",
"jD.	c #C6C2A5",
"kD.	c #C3BFA4",
"lD.	c #CBC7AC",
"mD.	c #C3BDA5",
"nD.	c #D9D4BE",
"oD.	c #E9E6D5",
"pD.	c #4C4E41",
"qD.	c #1E2420",
"rD.	c #7E837F",
"sD.	c #77837F",
"tD.	c #606F6A",
"uD.	c #44484B",
"vD.	c #3A3B3D",
"wD.	c #020D11",
"xD.	c #00090C",
"yD.	c #314045",
"zD.	c #7A8990",
"AD.	c #83949C",
"BD.	c #102737",
"CD.	c #0C2834",
"DD.	c #14303E",
"ED.	c #1A354A",
"FD.	c #263F5D",
"GD.	c #193C5C",
"HD.	c #1B5271",
"ID.	c #175876",
"JD.	c #1B5874",
"KD.	c #4A788F",
"LD.	c #021325",
"MD.	c #01050E",
"ND.	c #000800",
"OD.	c #020A00",
"PD.	c #959A96",
"QD.	c #F0F5F1",
"RD.	c #CED3CF",
"SD.	c #CDD1D0",
"TD.	c #E1E5E4",
"UD.	c #DEE2E1",
"VD.	c #DADEDD",
"WD.	c #E2E6E7",
"XD.	c #999F9D",
"YD.	c #4F5853",
"ZD.	c #191A12",
"`D.	c #282A27",
" E.	c #363A39",
".E.	c #444A48",
"+E.	c #809AAE",
"@E.	c #95ABC0",
"#E.	c #7A8FA0",
"$E.	c #3A4B55",
"%E.	c #4B5763",
"&E.	c #4C5962",
"*E.	c #4B555F",
"=E.	c #3C4650",
"-E.	c #112019",
";E.	c #3F5560",
">E.	c #1B2F30",
",E.	c #4C5449",
"'E.	c #8A8974",
")E.	c #807A60",
"!E.	c #857E61",
"~E.	c #8B8565",
"{E.	c #A49E7E",
"]E.	c #ABA583",
"^E.	c #BDB795",
"/E.	c #C3BD9B",
"(E.	c #C6C09E",
"_E.	c #D1CBA9",
":E.	c #CBC5A3",
"<E.	c #A8A383",
"[E.	c #D5D0B0",
"}E.	c #E2DEC1",
"|E.	c #D5D1B4",
"1E.	c #C1BBA3",
"2E.	c #CEC9B3",
"3E.	c #E8E5D4",
"4E.	c #47493C",
"5E.	c #182929",
"6E.	c #1F2022",
"7E.	c #797E7A",
"8E.	c #1C2B24",
"9E.	c #869590",
"0E.	c #2B3A35",
"aE.	c #081213",
"bE.	c #7A8E99",
"cE.	c #203C47",
"dE.	c #092530",
"eE.	c #16303D",
"fE.	c #152C3E",
"gE.	c #182B49",
"hE.	c #1E3D5C",
"iE.	c #154A6A",
"jE.	c #155473",
"kE.	c #0F4C68",
"lE.	c #4B7B91",
"mE.	c #0D1E30",
"nE.	c #00060C",
"oE.	c #000A00",
"pE.	c #020204",
"qE.	c #686A67",
"rE.	c #ECEEEB",
"sE.	c #DDDFDC",
"tE.	c #DFE1DE",
"uE.	c #E9EBE8",
"vE.	c #D7D7D7",
"wE.	c #A7A9A8",
"xE.	c #525252",
"yE.	c #131915",
"zE.	c #100F0A",
"AE.	c #8399B0",
"BE.	c #54697E",
"CE.	c #6F8293",
"DE.	c #444E58",
"EE.	c #2C333B",
"FE.	c #0E1F17",
"GE.	c #112117",
"HE.	c #142320",
"IE.	c #374D58",
"JE.	c #243839",
"KE.	c #363E33",
"LE.	c #797863",
"ME.	c #888366",
"NE.	c #827C5C",
"OE.	c #9D9777",
"PE.	c #C9C3A1",
"QE.	c #BEB894",
"RE.	c #C3BD99",
"SE.	c #C1BB99",
"TE.	c #ABA686",
"UE.	c #D3CFB2",
"VE.	c #C5C1A4",
"WE.	c #D2D1B5",
"XE.	c #CDC9AE",
"YE.	c #C7C1AB",
"ZE.	c #E2DFCE",
"`E.	c #44463B",
" F.	c #2F3D3F",
".F.	c #0B191A",
"+F.	c #818C84",
"@F.	c #15241D",
"#F.	c #485752",
"$F.	c #6E7D78",
"%F.	c #1A2624",
"&F.	c #2E2F34",
"*F.	c #414449",
"=F.	c #0C110D",
"-F.	c #030D0E",
";F.	c #071B24",
">F.	c #739098",
",F.	c #324F57",
"'F.	c #142C38",
")F.	c #0E2132",
"!F.	c #1B2A47",
"~F.	c #274260",
"{F.	c #134665",
"]F.	c #175471",
"^F.	c #0A4763",
"/F.	c #4C7C92",
"(F.	c #192A3C",
"_F.	c #000900",
":F.	c #575755",
"<F.	c #F4F4F2",
"[F.	c #D6D6D4",
"}F.	c #F5F5F3",
"|F.	c #9E9E9C",
"1F.	c #99AFC5",
"2F.	c #617387",
"3F.	c #5D6E80",
"4F.	c #455562",
"5F.	c #14211A",
"6F.	c #15221B",
"7F.	c #314448",
"8F.	c #374139",
"9F.	c #7A7D6C",
"0F.	c #89856A",
"aF.	c #8D8868",
"bF.	c #B5AF8F",
"cF.	c #BCB694",
"dF.	c #BBB593",
"eF.	c #C7C19F",
"fF.	c #CCC6A2",
"gF.	c #DAD4B2",
"hF.	c #DDD8B8",
"iF.	c #D5D0B2",
"jF.	c #CDC9AC",
"kF.	c #BCB69C",
"lF.	c #C1BBA5",
"mF.	c #DCD9C8",
"nF.	c #334145",
"oF.	c #59645E",
"pF.	c #17231F",
"qF.	c #3E4146",
"rF.	c #233645",
"sF.	c #0D1F37",
"tF.	c #203B56",
"uF.	c #184660",
"vF.	c #205670",
"wF.	c #144860",
"xF.	c #567F93",
"yF.	c #243644",
"zF.	c #000802",
"AF.	c #2C3134",
"BF.	c #454543",
"CF.	c #BFBFBD",
"DF.	c #7F7F7D",
"EF.	c #61615F",
"FF.	c #A2B8CD",
"GF.	c #95AABD",
"HF.	c #2E3E4D",
"IF.	c #53616C",
"JF.	c #29383F",
"KF.	c #1C2B2E",
"LF.	c #1B292A",
"MF.	c #5A615A",
"NF.	c #90927A",
"OF.	c #ACA988",
"PF.	c #B6B191",
"QF.	c #C9C4A4",
"RF.	c #C6C29F",
"SF.	c #CECAA7",
"TF.	c #D0CBAB",
"UF.	c #C0BB9B",
"VF.	c #CBC6A8",
"WF.	c #BAB397",
"XF.	c #C9C3AB",
"YF.	c #CAC9B7",
"ZF.	c #35454C",
"`F.	c #21343B",
" G.	c #234254",
".G.	c #1B4253",
"+G.	c #123646",
"@G.	c #7D7F7E",
"#G.	c #13131B",
"$G.	c #161421",
"%G.	c #17141F",
"&G.	c #1A151C",
"*G.	c #1F1C17",
"=G.	c #1F1E23",
"-G.	c #100F17",
";G.	c #211E27",
">G.	c #1F1D22",
",G.	c #849EB1",
"'G.	c #A8BFD1",
")G.	c #576A79",
"!G.	c #2A3A49",
"~G.	c #2F3E45",
"{G.	c #243338",
"]G.	c #28373C",
"^G.	c #525D59",
"/G.	c #9FA38C",
"(G.	c #B9B695",
"_G.	c #BEB999",
":G.	c #C7C2A2",
"<G.	c #C5BF9D",
"[G.	c #BEBA97",
"}G.	c #C8C3A3",
"|G.	c #B6B194",
"1G.	c #C6C2A9",
"2G.	c #DCDACB",
"3G.	c #393B38",
"4G.	c #424848",
"5G.	c #112C37",
"6G.	c #6C8490",
"7G.	c #8B9DA7",
"8G.	c #4C4E4D",
"9G.	c #12121A",
"0G.	c #151320",
"aG.	c #15121D",
"bG.	c #161118",
"cG.	c #171312",
"dG.	c #161510",
"eG.	c #14131B",
"fG.	c #212028",
"gG.	c #1E1C21",
"hG.	c #25211E",
"iG.	c #22231D",
"jG.	c #25302C",
"kG.	c #B6CEE6",
"lG.	c #8197AE",
"mG.	c #425468",
"nG.	c #47586C",
"oG.	c #3D4E60",
"pG.	c #354457",
"qG.	c #384858",
"rG.	c #344152",
"sG.	c #3B4858",
"tG.	c #334050",
"uG.	c #404E5B",
"vG.	c #272A33",
"wG.	c #262932",
"xG.	c #262930",
"yG.	c #596460",
"zG.	c #9CA089",
"AG.	c #A4A482",
"BG.	c #A6A382",
"CG.	c #B2AF8E",
"DG.	c #B3AE8E",
"EG.	c #BFBA9A",
"FG.	c #B7B292",
"GG.	c #AFAA8A",
"HG.	c #B0AB8B",
"IG.	c #B6B193",
"JG.	c #B6B394",
"KG.	c #BCB99A",
"LG.	c #BCB89B",
"MG.	c #BBB59B",
"NG.	c #C3BEA8",
"OG.	c #E0DED1",
"PG.	c #404241",
"QG.	c #000A11",
"RG.	c #000F19",
"SG.	c #000C17",
"TG.	c #031722",
"UG.	c #1A2C38",
"VG.	c #20313B",
"WG.	c #2F3130",
"XG.	c #0B1411",
"YG.	c #111713",
"ZG.	c #1F241E",
"`G.	c #888D87",
" H.	c #A1A5A4",
".H.	c #9CA2A0",
"+H.	c #939997",
"@H.	c #6C7270",
"#H.	c #6D7170",
"$H.	c #6D6F6E",
"%H.	c #696B6A",
"&H.	c #747675",
"*H.	c #6A6E6D",
"=H.	c #666A69",
"-H.	c #757978",
";H.	c #787C7B",
">H.	c #797D7C",
",H.	c #293430",
"'H.	c #ADC8E3",
")H.	c #9EB8D1",
"!H.	c #7F97AF",
"~H.	c #516276",
"{H.	c #3B4A5F",
"]H.	c #2A374A",
"^H.	c #334051",
"/H.	c #333F4F",
"(H.	c #202A36",
"_H.	c #1F242A",
":H.	c #212129",
"<H.	c #21212B",
"[H.	c #22222C",
"}H.	c #24242E",
"|H.	c #21242B",
"1H.	c #989C85",
"2H.	c #9E9E7C",
"3H.	c #A29F7E",
"4H.	c #A3A07F",
"5H.	c #ACA787",
"6H.	c #B5B090",
"7H.	c #BBB696",
"8H.	c #AEA989",
"9H.	c #A49F81",
"0H.	c #9E997C",
"aH.	c #A19D80",
"bH.	c #9B977A",
"cH.	c #989779",
"dH.	c #A2A185",
"eH.	c #AEAC93",
"fH.	c #ACA88F",
"gH.	c #BCBAA5",
"hH.	c #DBDBCF",
"iH.	c #3B403A",
"jH.	c #3B3D3A",
"kH.	c #666C6C",
"lH.	c #00030E",
"mH.	c #010A0F",
"nH.	c #2F3334",
"oH.	c #0B140F",
"pH.	c #1C2723",
"qH.	c #121D19",
"rH.	c #16211D",
"sH.	c #1D1E19",
"tH.	c #1F211C",
"uH.	c #7F8581",
"vH.	c #D2D4D1",
"wH.	c #DCE1DB",
"xH.	c #D0D4D3",
"yH.	c #CED4D2",
"zH.	c #E1E7E5",
"AH.	c #D6DCDA",
"BH.	c #BCC0BF",
"CH.	c #3D4140",
"DH.	c #696D6C",
"EH.	c #EDF1F0",
"FH.	c #DEE0DF",
"GH.	c #E1E3E2",
"HH.	c #E5E7E6",
"IH.	c #DFE1E0",
"JH.	c #E3E7E6",
"KH.	c #EBEFEE",
"LH.	c #DDE1E0",
"MH.	c #DCE0DF",
"NH.	c #D7DBDA",
"OH.	c #E7EBEA",
"PH.	c #636766",
"QH.	c #8CA9C7",
"RH.	c #B5D0ED",
"SH.	c #5F7994",
"TH.	c #2C425A",
"UH.	c #23354B",
"VH.	c #506175",
"WH.	c #3D4C61",
"XH.	c #354459",
"YH.	c #232E40",
"ZH.	c #131C2B",
"`H.	c #242C37",
" I.	c #1B2026",
".I.	c #21232F",
"+I.	c #222430",
"@I.	c #999B85",
"#I.	c #999675",
"$I.	c #969372",
"%I.	c #9C997A",
"&I.	c #A8A586",
"*I.	c #B0AD8E",
"=I.	c #A6A384",
"-I.	c #9C987B",
";I.	c #908C71",
">I.	c #817F66",
",I.	c #888870",
"'I.	c #8B8A75",
")I.	c #888772",
"!I.	c #8A8873",
"~I.	c #A9A894",
"{I.	c #D9DBD0",
"]I.	c #404642",
"^I.	c #474B4A",
"/I.	c #0B100A",
"(I.	c #0A0F09",
"_I.	c #2E2F33",
":I.	c #2C2B31",
"<I.	c #0E0D15",
"[I.	c #08090E",
"}I.	c #010602",
"|I.	c #0C110A",
"1I.	c #0E130C",
"2I.	c #151811",
"3I.	c #101B17",
"4I.	c #0B1715",
"5I.	c #14201E",
"6I.	c #0E1A18",
"7I.	c #757B79",
"8I.	c #D7DDD9",
"9I.	c #D5D7D4",
"0I.	c #858A84",
"aI.	c #AFB5B3",
"bI.	c #CFD5D3",
"cI.	c #C9CFCD",
"dI.	c #656968",
"eI.	c #575B5A",
"fI.	c #5C605F",
"gI.	c #535756",
"hI.	c #BEC2C1",
"iI.	c #CCD0CF",
"jI.	c #444847",
"kI.	c #9FBCDA",
"lI.	c #6E89A6",
"mI.	c #46607B",
"nI.	c #223A54",
"oI.	c #223850",
"pI.	c #2D4159",
"qI.	c #415369",
"rI.	c #3B4C60",
"sI.	c #47566B",
"tI.	c #5C6B7E",
"uI.	c #59687B",
"vI.	c #5E6D80",
"wI.	c #465364",
"xI.	c #354252",
"yI.	c #20242F",
"zI.	c #232732",
"AI.	c #222631",
"BI.	c #8D8F79",
"CI.	c #9F9C7B",
"DI.	c #898667",
"EI.	c #939071",
"FI.	c #918E6F",
"GI.	c #A3A081",
"HI.	c #9E9B7C",
"II.	c #959176",
"JI.	c #87856C",
"KI.	c #7E7C65",
"LI.	c #6E6D59",
"MI.	c #6B6C5A",
"NI.	c #6F705E",
"OI.	c #6D6E5C",
"PI.	c #8C8D7D",
"QI.	c #CFD2C9",
"RI.	c #4D5351",
"SI.	c #595D5C",
"TI.	c #505453",
"UI.	c #403B3F",
"VI.	c #2D282C",
"WI.	c #090408",
"XI.	c #090307",
"YI.	c #060105",
"ZI.	c #0A0509",
"`I.	c #020701",
" J.	c #0D1009",
".J.	c #0E110A",
"+J.	c #10110B",
"@J.	c #BEC4C2",
"#J.	c #D2D6D5",
"$J.	c #7F817E",
"%J.	c #020806",
"&J.	c #B2B8B6",
"*J.	c #D2D8D6",
"=J.	c #7A7E7D",
"-J.	c #010504",
";J.	c #727675",
">J.	c #DFE3E2",
",J.	c #828685",
"'J.	c #ABC9E3",
")J.	c #738EA9",
"!J.	c #48647C",
"~J.	c #3B5166",
"{J.	c #748494",
"]J.	c #5C6979",
"^J.	c #626F7F",
"/J.	c #677484",
"(J.	c #43545E",
"_J.	c #27393D",
":J.	c #213033",
"<J.	c #878974",
"[J.	c #7E7A5D",
"}J.	c #8C886B",
"|J.	c #8F8E70",
"1J.	c #9F9E80",
"2J.	c #929173",
"3J.	c #8C8B6F",
"4J.	c #86846D",
"5J.	c #6D6F5A",
"6J.	c #606350",
"7J.	c #595B4D",
"8J.	c #54584A",
"9J.	c #5C6052",
"0J.	c #6A6C5E",
"aJ.	c #86887B",
"bJ.	c #CBD0C9",
"cJ.	c #433F40",
"dJ.	c #130D0F",
"eJ.	c #060002",
"fJ.	c #0F0609",
"gJ.	c #0A0404",
"hJ.	c #0B0505",
"iJ.	c #0A0605",
"jJ.	c #050702",
"kJ.	c #515558",
"lJ.	c #3A3E41",
"mJ.	c #131009",
"nJ.	c #151014",
"oJ.	c #131114",
"pJ.	c #101710",
"qJ.	c #091312",
"rJ.	c #B8C4D2",
"sJ.	c #BAC7DA",
"tJ.	c #C6D1E3",
"uJ.	c #84909C",
"vJ.	c #595F5F",
"wJ.	c #CFD3D2",
"xJ.	c #C9CDCC",
"yJ.	c #000402",
"zJ.	c #6D7371",
"AJ.	c #D9DFDD",
"BJ.	c #ADB3B1",
"CJ.	c #484C4B",
"DJ.	c #B0B4B3",
"EJ.	c #9CB8D0",
"FJ.	c #9AB6CC",
"GJ.	c #5C768D",
"HJ.	c #3A556A",
"IJ.	c #354E62",
"JJ.	c #42596B",
"KJ.	c #64798A",
"LJ.	c #667683",
"MJ.	c #8797A4",
"NJ.	c #7B8994",
"OJ.	c #8C9AA5",
"PJ.	c #8896A1",
"QJ.	c #7F8D96",
"RJ.	c #96A7AE",
"SJ.	c #9AADB3",
"TJ.	c #3B4E52",
"UJ.	c #4A5D61",
"VJ.	c #6C7F83",
"WJ.	c #364A4B",
"XJ.	c #334547",
"YJ.	c #2B3B3B",
"ZJ.	c #354545",
"`J.	c #898B76",
" K.	c #959174",
".K.	c #736F54",
"+K.	c #727155",
"@K.	c #868569",
"#K.	c #8E8D71",
"$K.	c #8A886F",
"%K.	c #85856B",
"&K.	c #7D7C67",
"*K.	c #70725D",
"=K.	c #696C5B",
"-K.	c #4E5244",
";K.	c #3C4238",
">K.	c #474C45",
",K.	c #454B41",
"'K.	c #969990",
")K.	c #D9DFDB",
"!K.	c #28343E",
"~K.	c #464241",
"{K.	c #0C0606",
"]K.	c #0E0808",
"^K.	c #0E0906",
"/K.	c #404143",
"(K.	c #5F6366",
"_K.	c #030710",
":K.	c #110E07",
"<K.	c #130E0A",
"[K.	c #140D14",
"}K.	c #140E18",
"|K.	c #150F19",
"1K.	c #121117",
"2K.	c #C3D2E9",
"3K.	c #BDCBE8",
"4K.	c #CCD7F3",
"5K.	c #808CA2",
"6K.	c #757B7B",
"7K.	c #D5D9D8",
"8K.	c #B4B8B7",
"9K.	c #454B49",
"0K.	c #C5CBC9",
"aK.	c #CBD1CF",
"bK.	c #DBDFDE",
"cK.	c #B3CEE1",
"dK.	c #668290",
"eK.	c #587281",
"fK.	c #45565E",
"gK.	c #7F8E95",
"hK.	c #96A5AC",
"iK.	c #6E7B81",
"jK.	c #808D93",
"kK.	c #919EA4",
"lK.	c #98A7AC",
"mK.	c #AFC1C3",
"nK.	c #A0B2B4",
"oK.	c #3F5153",
"pK.	c #354747",
"qK.	c #677979",
"rK.	c #768888",
"sK.	c #5F6F6F",
"tK.	c #324241",
"uK.	c #445453",
"vK.	c #3C4A4A",
"wK.	c #7F806E",
"xK.	c #A9A88C",
"yK.	c #78765D",
"zK.	c #716F56",
"AK.	c #7D7D65",
"BK.	c #73755F",
"CK.	c #6A6B59",
"DK.	c #626554",
"EK.	c #5A5E50",
"FK.	c #4C5246",
"GK.	c #454A43",
"HK.	c #3E453E",
"IK.	c #383E3A",
"JK.	c #373C35",
"KK.	c #727771",
"LK.	c #EDF6F5",
"MK.	c #313131",
"NK.	c #0B0706",
"OK.	c #6E7271",
"PK.	c #00010A",
"QK.	c #10131A",
"RK.	c #130E15",
"SK.	c #0E0814",
"TK.	c #13111E",
"UK.	c #12121C",
"VK.	c #06171F",
"WK.	c #37485A",
"XK.	c #C6D6F7",
"YK.	c #B7C9ED",
"ZK.	c #C1D1F3",
"`K.	c #7A89A6",
" L.	c #021422",
".L.	c #767C7C",
"+L.	c #D7DBDC",
"@L.	c #B5B9B8",
"#L.	c #C3C9C9",
"$L.	c #D2D8D8",
"%L.	c #5A6060",
"&L.	c #686C6B",
"*L.	c #989C9B",
"=L.	c #C4DBED",
"-L.	c #95ADB9",
";L.	c #516772",
">L.	c #596D76",
",L.	c #4C5F66",
"'L.	c #5F7278",
")L.	c #2A3838",
"!L.	c #686B5A",
"~L.	c #9E9E86",
"{L.	c #6E6C55",
"]L.	c #67674F",
"^L.	c #676953",
"/L.	c #636651",
"(L.	c #636655",
"_L.	c #55594A",
":L.	c #434945",
"<L.	c #333935",
"[L.	c #C0CACB",
"}L.	c #454746",
"|L.	c #060409",
"1L.	c #0B0507",
"2L.	c #555A60",
"3L.	c #3B3F48",
"4L.	c #010510",
"5L.	c #0A0E19",
"6L.	c #02060F",
"7L.	c #070B14",
"8L.	c #050912",
"9L.	c #110E15",
"0L.	c #13111C",
"aL.	c #090B17",
"bL.	c #000614",
"cL.	c #2A425A",
"dL.	c #B2CAEE",
"eL.	c #C0D7FF",
"fL.	c #C4DAFF",
"gL.	c #788FAE",
"hL.	c #000F1A",
"iL.	c #09181F",
"jL.	c #D9DDDE",
"kL.	c #BBBFC0",
"lL.	c #BBC1C1",
"mL.	c #DAE0E0",
"nL.	c #C2C6C5",
"oL.	c #CBCFCE",
"pL.	c #ACC3D1",
"qL.	c #657980",
"rL.	c #99ACB0",
"sL.	c #8C9EA2",
"tL.	c #99ABAD",
"uL.	c #707F82",
"vL.	c #546464",
"wL.	c #2F3D3D",
"xL.	c #5F6153",
"yL.	c #797B66",
"zL.	c #5A5945",
"AL.	c #565843",
"BL.	c #5B5D48",
"CL.	c #686A55",
"DL.	c #636452",
"EL.	c #646756",
"FL.	c #535748",
"GL.	c #4C5244",
"HL.	c #4A5046",
"IL.	c #414841",
"JL.	c #A4AFB3",
"KL.	c #00060B",
"LL.	c #434544",
"ML.	c #474948",
"NL.	c #07050A",
"OL.	c #17151A",
"PL.	c #030C09",
"QL.	c #0B0708",
"RL.	c #0C0608",
"SL.	c #4E504F",
"TL.	c #464A49",
"UL.	c #5E6369",
"VL.	c #858C94",
"WL.	c #0D161F",
"XL.	c #070E18",
"YL.	c #10141F",
"ZL.	c #121621",
"`L.	c #586C75",
" M.	c #63829F",
".M.	c #AFD0F3",
"+M.	c #B5D7FC",
"@M.	c #BBDCFF",
"#M.	c #90AFCC",
"$M.	c #415F77",
"%M.	c #454B4B",
"&M.	c #C2C6C7",
"*M.	c #CFD5D5",
"=M.	c #D9DFDF",
"-M.	c #6C7272",
";M.	c #8D9190",
">M.	c #899BA9",
",M.	c #C0D2DE",
"'M.	c #8E9C9D",
")M.	c #56594E",
"!M.	c #888979",
"~M.	c #5D5E4E",
"{M.	c #565747",
"]M.	c #5A5B4B",
"^M.	c #585B4A",
"/M.	c #575A49",
"(M.	c #515546",
"_M.	c #52584A",
":M.	c #4A5245",
"<M.	c #384345",
"[M.	c #737F7F",
"}M.	c #9DAAB0",
"|M.	c #15232D",
"1M.	c #0A1A21",
"2M.	c #00070C",
"3M.	c #606261",
"4M.	c #3B3F40",
"5M.	c #000704",
"6M.	c #373938",
"7M.	c #616362",
"8M.	c #6E757D",
"9M.	c #B2B9C1",
"0M.	c #4A535C",
"aM.	c #071019",
"bM.	c #0F1521",
"cM.	c #171B27",
"dM.	c #131722",
"eM.	c #081617",
"fM.	c #A0B2B6",
"gM.	c #CBE1EC",
"hM.	c #C1DCED",
"iM.	c #BADAF3",
"jM.	c #B5D8F8",
"kM.	c #BCE0FF",
"lM.	c #ACD2F6",
"mM.	c #B3D7F9",
"nM.	c #AFD2F0",
"oM.	c #B5D7F0",
"pM.	c #CAE7F9",
"qM.	c #C4D6E0",
"rM.	c #CFDCE2",
"sM.	c #ADB1B2",
"tM.	c #CACECF",
"uM.	c #BEC0BF",
"vM.	c #DEE4E4",
"wM.	c #C4CACA",
"xM.	c #6D7373",
"yM.	c #BABEBD",
"zM.	c #C5C9C8",
"AM.	c #8D9AA2",
"BM.	c #19191B",
"CM.	c #24282B",
"DM.	c #52554C",
"EM.	c #B0B2A5",
"FM.	c #717365",
"GM.	c #555749",
"HM.	c #606254",
"IM.	c #4E5243",
"JM.	c #676B5C",
"KM.	c #525648",
"LM.	c #4F5549",
"MM.	c #7A8589",
"NM.	c #8A979F",
"OM.	c #0F202D",
"PM.	c #05131B",
"QM.	c #454547",
"RM.	c #565759",
"SM.	c #818682",
"TM.	c #ACB5BE",
"UM.	c #505A63",
"VM.	c #050D1A",
"WM.	c #0D1522",
"XM.	c #0E151F",
"YM.	c #0A1614",
"ZM.	c #BDD4DC",
"`M.	c #B1CCDD",
" N.	c #B2D2EB",
".N.	c #B1D4F4",
"+N.	c #AFD2F8",
"@N.	c #B4DAFF",
"#N.	c #B2D6F8",
"$N.	c #B1D4F0",
"%N.	c #BADDF3",
"&N.	c #AECBDB",
"*N.	c #BCCED8",
"=N.	c #3D4142",
"-N.	c #C7CBCC",
";N.	c #DEDFE1",
">N.	c #D2D6D7",
",N.	c #B7C0BF",
"'N.	c #E4EDEC",
")N.	c #939C9B",
"!N.	c #A1AAA9",
"~N.	c #E2E6E5",
"{N.	c #919594",
"]N.	c #B2C0C9",
"^N.	c #636E74",
"/N.	c #5B5E57",
"(N.	c #86887D",
"_N.	c #787A6F",
":N.	c #5A5C4F",
"<N.	c #575B4D",
"[N.	c #616557",
"}N.	c #42483C",
"|N.	c #464E43",
"1N.	c #4B524A",
"2N.	c #47504B",
"3N.	c #78858B",
"4N.	c #142432",
"5N.	c #081720",
"6N.	c #323232",
"7N.	c #787A79",
"8N.	c #3D423E",
"9N.	c #818B94",
"0N.	c #020C18",
"aN.	c #151D2A",
"bN.	c #181E2C",
"cN.	c #141A28",
"dN.	c #C9DEE3",
"eN.	c #C7E1EE",
"fN.	c #C5E4F9",
"gN.	c #BEDFFE",
"hN.	c #B4D6FC",
"iN.	c #B6D7FF",
"jN.	c #AFCFF5",
"kN.	c #BEDDFA",
"lN.	c #C0DFF3",
"mN.	c #C4DEEB",
"nN.	c #CCDEE8",
"oN.	c #CDDCE1",
"pN.	c #373B3C",
"qN.	c #9A9B9D",
"rN.	c #BFC3C4",
"sN.	c #D8DEDE",
"tN.	c #CDD6D5",
"uN.	c #B5BEBD",
"vN.	c #D5DBDB",
"wN.	c #D9DDDC",
"xN.	c #676B6A",
"yN.	c #87919A",
"zN.	c #1C1D21",
"AN.	c #232428",
"BN.	c #272B2E",
"CN.	c #2D3027",
"DN.	c #5A5D54",
"EN.	c #3F4539",
"FN.	c #485045",
"GN.	c #1D2C3B",
"HN.	c #464646",
"IN.	c #110F12",
"JN.	c #676968",
"KN.	c #0F1511",
"LN.	c #6E7B84",
"MN.	c #7F8C95",
"NN.	c #000615",
"ON.	c #121B2A",
"PN.	c #161D2D",
"QN.	c #0D1520",
"RN.	c #0B0602",
"SN.	c #1A120F",
"TN.	c #191315",
"UN.	c #495D64",
"VN.	c #67829F",
"WN.	c #B1CDF5",
"XN.	c #BAD5FF",
"YN.	c #C0D9FF",
"ZN.	c #97B0CF",
"`N.	c #506A7B",
" O.	c #556C74",
".O.	c #5A6D74",
"+O.	c #BFC8C7",
"@O.	c #CAD0D0",
"#O.	c #C5CBCB",
"$O.	c #C3C7C6",
"%O.	c #515755",
"&O.	c #8A949D",
"*O.	c #292C31",
"=O.	c #171518",
"-O.	c #1E1E20",
";O.	c #4D524B",
">O.	c #565C52",
",O.	c #595C51",
"'O.	c #5F6355",
")O.	c #414439",
"!O.	c #3B3E35",
"~O.	c #3D433F",
"{O.	c #5B5B5B",
"]O.	c #0B0D08",
"^O.	c #060203",
"/O.	c #393B3A",
"(O.	c #646E78",
"_O.	c #0F1724",
":O.	c #161E2B",
"<O.	c #131B28",
"[O.	c #0C141F",
"}O.	c #0D0804",
"|O.	c #160E0C",
"1O.	c #120C0E",
"2O.	c #0D080E",
"3O.	c #00090A",
"4O.	c #000A0F",
"5O.	c #000412",
"6O.	c #BFD3F8",
"7O.	c #B8CBF5",
"8O.	c #CADEFF",
"9O.	c #677A98",
"0O.	c #000716",
"aO.	c #01141B",
"bO.	c #686E6E",
"cO.	c #DDE3E3",
"dO.	c #DBE1E1",
"eO.	c #9DA1A0",
"fO.	c #060910",
"gO.	c #3A3E47",
"hO.	c #2F3640",
"iO.	c #080B14",
"jO.	c #0F0607",
"kO.	c #100B08",
"lO.	c #68716C",
"mO.	c #5A6151",
"nO.	c #5B5F4E",
"oO.	c #3B3D30",
"pO.	c #3C3D38",
"qO.	c #38393B",
"rO.	c #3D4045",
"sO.	c #2C3A3A",
"tO.	c #2E3E3E",
"uO.	c #243233",
"vO.	c #92A1A4",
"wO.	c #3E4F57",
"xO.	c #04131A",
"yO.	c #555555",
"zO.	c #3D3D3D",
"AO.	c #090506",
"BO.	c #6F716C",
"CO.	c #101721",
"DO.	c #030C1B",
"EO.	c #323E54",
"FO.	c #C5D3F0",
"GO.	c #C4D1F1",
"HO.	c #C5D3EE",
"IO.	c #79859D",
"JO.	c #626866",
"KO.	c #878D8B",
"LO.	c #ABAFB2",
"MO.	c #DBDFE2",
"NO.	c #898D90",
"OO.	c #8C9093",
"PO.	c #171A1F",
"QO.	c #404652",
"RO.	c #616976",
"SO.	c #2D3743",
"TO.	c #2A3747",
"UO.	c #0A101C",
"VO.	c #150D0B",
"WO.	c #0E0603",
"XO.	c #3C4743",
"YO.	c #4B4F3E",
"ZO.	c #353729",
"`O.	c #414246",
" P.	c #40434A",
".P.	c #303E3E",
"+P.	c #344443",
"@P.	c #2F4143",
"#P.	c #000A12",
"$P.	c #0C0704",
"%P.	c #606060",
"&P.	c #808581",
"*P.	c #090911",
"=P.	c #353C4E",
"-P.	c #C8D0E7",
";P.	c #BEC9DF",
">P.	c #D3DEF2",
",P.	c #80889B",
"'P.	c #000110",
")P.	c #111822",
"!P.	c #BAC3C0",
"~P.	c #DBE4E1",
"{P.	c #787C7F",
"]P.	c #CFD3D6",
"^P.	c #C2C6C9",
"/P.	c #2A2E31",
"(P.	c #D6DADB",
"_P.	c #5F6160",
":P.	c #1C252F",
"<P.	c #505A66",
"[P.	c #6C7886",
"}P.	c #28394B",
"|P.	c #314455",
"1P.	c #0B0603",
"2P.	c #5D6864",
"3P.	c #8A9287",
"4P.	c #2F3626",
"5P.	c #545847",
"6P.	c #4B4D3F",
"7P.	c #393A34",
"8P.	c #444547",
"9P.	c #334342",
"0P.	c #2B3D3F",
"aP.	c #2F2F2D",
"bP.	c #575757",
"cP.	c #7D7D7B",
"dP.	c #565A59",
"eP.	c #050E17",
"fP.	c #1A222F",
"gP.	c #080B12",
"hP.	c #00010B",
"iP.	c #383F4F",
"jP.	c #C3CCDD",
"kP.	c #C1C9DC",
"lP.	c #D1DAEB",
"mP.	c #7C8692",
"nP.	c #00060F",
"oP.	c #616765",
"pP.	c #DBE1DF",
"qP.	c #CCD5D2",
"rP.	c #9FA8A5",
"sP.	c #6D7172",
"tP.	c #696D6E",
"uP.	c #9A9E9F",
"vP.	c #D0D4D5",
"wP.	c #626667",
"xP.	c #BABEBF",
"yP.	c #585A59",
"zP.	c #202125",
"AP.	c #272C32",
"BP.	c #5F6F7F",
"CP.	c #3C5164",
"DP.	c #294052",
"EP.	c #3F556A",
"FP.	c #3C5569",
"GP.	c #1D2F3D",
"HP.	c #1F2D3A",
"IP.	c #1A2632",
"JP.	c #000A13",
"KP.	c #030C11",
"LP.	c #070300",
"MP.	c #7F847D",
"NP.	c #6B6F61",
"OP.	c #6A6D5C",
"PP.	c #484941",
"QP.	c #404447",
"RP.	c #2D3B3B",
"SP.	c #364645",
"TP.	c #3A4C4E",
"UP.	c #0E1B28",
"VP.	c #535353",
"WP.	c #7B7B79",
"XP.	c #0B131E",
"YP.	c #161C2A",
"ZP.	c #2C3441",
"`P.	c #272F3A",
" Q.	c #D4DAD8",
".Q.	c #E0E4E5",
"+Q.	c #E4E8E9",
"@Q.	c #B5B9BA",
"#Q.	c #5C6061",
"$Q.	c #091521",
"%Q.	c #6F7F8E",
"&Q.	c #2E4459",
"*Q.	c #355065",
"=Q.	c #2B475C",
"-Q.	c #355167",
";Q.	c #324E64",
">Q.	c #345368",
",Q.	c #4C6B80",
"'Q.	c #284358",
")Q.	c #2C394A",
"!Q.	c #233040",
"~Q.	c #34404E",
"{Q.	c #0A1517",
"]Q.	c #091418",
"^Q.	c #0D1A20",
"/Q.	c #030E12",
"(Q.	c #7F8375",
"_Q.	c #535645",
":Q.	c #46483D",
"<Q.	c #344444",
"[Q.	c #48575A",
"}Q.	c #00060E",
"|Q.	c #434341",
"1Q.	c #6C7175",
"2Q.	c #0B151F",
"3Q.	c #060803",
"4Q.	c #6F7372",
"5Q.	c #606463",
"6Q.	c #1E2731",
"7Q.	c #37576E",
"8Q.	c #2E4E65",
"9Q.	c #33536A",
"0Q.	c #47677C",
"aQ.	c #385469",
"bQ.	c #233247",
"cQ.	c #243144",
"dQ.	c #293545",
"eQ.	c #2A3644",
"fQ.	c #15262E",
"gQ.	c #112229",
"hQ.	c #091314",
"iQ.	c #484A45",
"jQ.	c #84867B",
"kQ.	c #5D5E50",
"lQ.	c #4F5040",
"mQ.	c #616155",
"nQ.	c #6B6E63",
"oQ.	c #495450",
"pQ.	c #7E8A8A",
"qQ.	c #CBD6D8",
"rQ.	c #000910",
"sQ.	c #6B6B69",
"tQ.	c #51514F",
"uQ.	c #3E454B",
"vQ.	c #06110D",
"wQ.	c #1C2730",
"xQ.	c #07111A",
"yQ.	c #99ACBB",
"zQ.	c #496072",
"AQ.	c #4F6A7F",
"BQ.	c #36556A",
"CQ.	c #527289",
"DQ.	c #3F5F76",
"EQ.	c #51748A",
"FQ.	c #3E5F72",
"GQ.	c #738EA1",
"HQ.	c #31465B",
"IQ.	c #47576E",
"JQ.	c #4D5E72",
"KQ.	c #526176",
"LQ.	c #546376",
"MQ.	c #49586B",
"NQ.	c #4C596A",
"OQ.	c #384452",
"PQ.	c #112027",
"QQ.	c #26373F",
"RQ.	c #0A1920",
"SQ.	c #0D120C",
"TQ.	c #272A31",
"UQ.	c #424441",
"VQ.	c #C2C3BB",
"WQ.	c #8A8B7D",
"XQ.	c #474838",
"YQ.	c #53564F",
"ZQ.	c #565D56",
"`Q.	c #4B5451",
" R.	c #7B8787",
".R.	c #A7B2B4",
"+R.	c #26343B",
"@R.	c #31312F",
"#R.	c #5D6969",
"$R.	c #172434",
"%R.	c #152131",
"&R.	c #1D2831",
"*R.	c #B4C4D1",
"=R.	c #49687D",
"-R.	c #5E7E93",
";R.	c #6C8CA1",
">R.	c #708FA3",
",R.	c #7493A5",
"'R.	c #95B2C2",
")R.	c #85A2B2",
"!R.	c #829CAB",
"~R.	c #65778B",
"{R.	c #76879B",
"]R.	c #647589",
"^R.	c #56677B",
"/R.	c #58677C",
"(R.	c #455467",
"_R.	c #626F80",
":R.	c #5B6775",
"<R.	c #1B2A31",
"[R.	c #192730",
"}R.	c #46555C",
"|R.	c #4C4C4C",
"1R.	c #B9BAB4",
"2R.	c #8B897D",
"3R.	c #555344",
"4R.	c #444535",
"5R.	c #686A5C",
"6R.	c #75786D",
"7R.	c #6E756D",
"8R.	c #494A4E",
"9R.	c #859096",
"0R.	c #010D0D",
"aR.	c #848E8D",
"bR.	c #08151D",
"cR.	c #111F2C",
"dR.	c #142132",
"eR.	c #0F1B2B",
"fR.	c #201F1B",
"gR.	c #151410",
"hR.	c #494F4D",
"iR.	c #69747A",
"jR.	c #94A2AB",
"kR.	c #677985",
"lR.	c #7590A1",
"mR.	c #89A6B6",
"nR.	c #9CB8C6",
"oR.	c #A0BAC7",
"pR.	c #CDE5F1",
"qR.	c #CEE4EF",
"rR.	c #879BA6",
"sR.	c #6B7C8C",
"tR.	c #8C9DAF",
"uR.	c #7F90A2",
"vR.	c #516274",
"wR.	c #58677A",
"xR.	c #3A4A5A",
"yR.	c #3E4E5E",
"zR.	c #404D5E",
"AR.	c #2E3C47",
"BR.	c #223138",
"CR.	c #3C3D37",
"DR.	c #4D4B3F",
"ER.	c #686657",
"FR.	c #515443",
"GR.	c #64685A",
"HR.	c #767E73",
"IR.	c #6E7772",
"JR.	c #35403C",
"KR.	c #818B8C",
"LR.	c #55565A",
"MR.	c #93969F",
"NR.	c #2B323C",
"OR.	c #6B7471",
"PR.	c #172639",
"QR.	c #152233",
"RR.	c #0F1925",
"SR.	c #141F27",
"TR.	c #A2ADB3",
"UR.	c #6C7B82",
"VR.	c #95A7B1",
"WR.	c #9FB7C3",
"XR.	c #98B2BF",
"YR.	c #A4BECB",
"ZR.	c #ACC6D3",
"`R.	c #A6BECA",
" S.	c #8CA2AD",
".S.	c #99ADB6",
"+S.	c #A3B6BD",
"@S.	c #76878F",
"#S.	c #586A78",
"$S.	c #324251",
"%S.	c #2D3D4C",
"&S.	c #24323D",
"*S.	c #687274",
"=S.	c #353A3D",
"-S.	c #080A05",
";S.	c #6F6C63",
">S.	c #888679",
",S.	c #494A38",
"'S.	c #3D402D",
")S.	c #575B4C",
"!S.	c #60665A",
"~S.	c #5E655E",
"{S.	c #68716E",
"]S.	c #CCD6D5",
"^S.	c #3E4148",
"/S.	c #90949F",
"(S.	c #343B45",
"_S.	c #8D989A",
":S.	c #626B68",
"<S.	c #091219",
"[S.	c #081420",
"}S.	c #374659",
"|S.	c #101D2D",
"1S.	c #0C1824",
"2S.	c #060D15",
"3S.	c #1B191C",
"4S.	c #3E4241",
"5S.	c #C4D3D8",
"6S.	c #BBCCD3",
"7S.	c #A0B4BD",
"8S.	c #799098",
"9S.	c #7A9199",
"0S.	c #80979F",
"aS.	c #7B8F98",
"bS.	c #6C7F86",
"cS.	c #6D7E85",
"dS.	c #2B3946",
"eS.	c #202D36",
"fS.	c #233038",
"gS.	c #132124",
"hS.	c #6C7174",
"iS.	c #262626",
"jS.	c #D8D5CE",
"kS.	c #BBB9AC",
"lS.	c #555644",
"mS.	c #3A3D2A",
"nS.	c #3B4135",
"oS.	c #5B625B",
"pS.	c #E0E7E0",
"qS.	c #DFE8E7",
"rS.	c #00070A",
"sS.	c #727981",
"tS.	c #000607",
"uS.	c #0E1A26",
"vS.	c #243346",
"wS.	c #304155",
"xS.	c #18273A",
"yS.	c #0A1728",
"zS.	c #091523",
"AS.	c #17161B",
"BS.	c #151318",
"CS.	c #919B9C",
"DS.	c #C3CFCF",
"ES.	c #B7C2C4",
"FS.	c #728184",
"GS.	c #7C8E92",
"HS.	c #809399",
"IS.	c #8DA0A6",
"JS.	c #687B81",
"KS.	c #798A91",
"LS.	c #798488",
"MS.	c #6A7B82",
"NS.	c #142223",
"OS.	c #7C8083",
"PS.	c #C5C5BD",
"QS.	c #D4D2C6",
"RS.	c #6E6F5D",
"SS.	c #575A47",
"TS.	c #2F3221",
"US.	c #575D5D",
"VS.	c #6A6F6B",
"WS.	c #9CA298",
"XS.	c #FAFFF6",
"YS.	c #0F1C20",
"ZS.	c #6C737B",
"`S.	c #575C5F",
" T.	c #293646",
".T.	c #314053",
"+T.	c #17283A",
"@T.	c #081422",
"#T.	c #19171A",
"$T.	c #232325",
"%T.	c #C9D4D0",
"&T.	c #8F9998",
"*T.	c #788482",
"=T.	c #839191",
"-T.	c #98A6A6",
";T.	c #90A0A0",
">T.	c #6A797C",
",T.	c #6A787B",
"'T.	c #94A1A7",
")T.	c #7A858B",
"!T.	c #848F95",
"~T.	c #737E84",
"{T.	c #727F85",
"]T.	c #6B6F72",
"^T.	c #282826",
"/T.	c #787772",
"(T.	c #AAAA9E",
"_T.	c #383927",
":T.	c #636653",
"<T.	c #333527",
"[T.	c #4A4D42",
"}T.	c #3A3F3B",
"|T.	c #959792",
"1T.	c #F4F8EA",
"2T.	c #DAE0D4",
"3T.	c #16222B",
"4T.	c #0E1D25",
"5T.	c #010E16",
"6T.	c #565F66",
"7T.	c #868F98",
"8T.	c #000305",
"9T.	c #828A8C",
"0T.	c #253242",
"aT.	c #344356",
"bT.	c #36475B",
"cT.	c #2B3C50",
"dT.	c #0A1624",
"eT.	c #04070E",
"fT.	c #131116",
"gT.	c #040A06",
"hT.	c #464C4A",
"iT.	c #C2CBC6",
"jT.	c #8D9890",
"kT.	c #727D77",
"lT.	c #828D89",
"mT.	c #879391",
"nT.	c #A2AEAC",
"oT.	c #7A8686",
"pT.	c #86939B",
"qT.	c #75828A",
"rT.	c #79868C",
"sT.	c #6D7B7E",
"tT.	c #5D6B6E",
"uT.	c #283335",
"vT.	c #A2A298",
"wT.	c #949585",
"xT.	c #3E3F2D",
"yT.	c #383A2C",
"zT.	c #333738",
"AT.	c #D0D1CB",
"BT.	c #F7F9EB",
"CT.	c #010B0A",
"DT.	c #071820",
"ET.	c #1B191A",
"FT.	c #00020A",
"GT.	c #4D565F",
"HT.	c #919BA4",
"IT.	c #7C858A",
"JT.	c #5E6669",
"KT.	c #37485C",
"LT.	c #06101A",
"MT.	c #030905",
"NT.	c #616564",
"OT.	c #9EA59E",
"PT.	c #778178",
"QT.	c #787F77",
"RT.	c #687269",
"ST.	c #959F96",
"TT.	c #828C83",
"UT.	c #69736B",
"VT.	c #85908A",
"WT.	c #7F8A90",
"XT.	c #83919A",
"YT.	c #7E8C95",
"ZT.	c #515B64",
"`T.	c #68727B",
" U.	c #5E605D",
".U.	c #070C06",
"+U.	c #75756B",
"@U.	c #FFFFF1",
"#U.	c #C5C6B6",
"$U.	c #56584A",
"%U.	c #323433",
"&U.	c #323335",
"*U.	c #B1B1B1",
"=U.	c #FBFCF6",
"-U.	c #B4B5A5",
";U.	c #161A0B",
">U.	c #010A0C",
",U.	c #00040D",
"'U.	c #313B45",
")U.	c #8D97A0",
"!U.	c #899297",
"~U.	c #61696C",
"{U.	c #000908",
"]U.	c #09111E",
"^U.	c #253245",
"/U.	c #334257",
"(U.	c #26364D",
"_U.	c #1B2C40",
":U.	c #101D2E",
"<U.	c #000301",
"[U.	c #C6CAC9",
"}U.	c #B9BFBD",
"|U.	c #6F766E",
"1U.	c #7F877C",
"2U.	c #80887D",
"3U.	c #727A6F",
"4U.	c #838B80",
"5U.	c #939B90",
"6U.	c #79837B",
"7U.	c #6C766E",
"8U.	c #8E9897",
"9U.	c #75838C",
"0U.	c #778284",
"aU.	c #6F7982",
"bU.	c #828C96",
"cU.	c #535552",
"dU.	c #020902",
"eU.	c #404036",
"fU.	c #DADBCD",
"gU.	c #F0F1E1",
"hU.	c #96988A",
"iU.	c #6C6D65",
"jU.	c #525453",
"kU.	c #7B7C7E",
"lU.	c #FDFDFD",
"mU.	c #B8B9B1",
"nU.	c #1E1C0D",
"oU.	c #121406",
"pU.	c #242B2D",
"qU.	c #54585B",
"rU.	c #040811",
"sU.	c #000611",
"tU.	c #848D96",
"uU.	c #020C0B",
"vU.	c #1E2B3E",
"wU.	c #26354A",
"xU.	c #25354C",
"yU.	c #18293D",
"zU.	c #0E1B2C",
"AU.	c #081118",
"BU.	c #121912",
"CU.	c #0C130C",
"DU.	c #010705",
"                                                                                                                                                                                                                                                                                                                                                                                                                                                                                                                                                                                                                                                                                                                                                                                                                                                                                                                                                                                                                                                                                                                                                                                                                                                                                                                                                                                                                                                                                                                                                                                                                                                                                                                                                                                                                                                                        ",
"                                                                                                                                                                                                                                                                                                                                                                                                                                                                                                                                                                                                                                                                                                                                                                                                                                                                                                                                                                                                                                                                                                                                                                                                                                                                                                                                                                                                                                                                                                                                                                                                                                                                                                                                                                                                                                                                        ",
"                                                                                                                                                                                                                                                                                                                                                                                                                                                                                                                                                                                                                                                                                                                                                                                                                                                                                                                                                                                                                                                                                                                                                                                                                                                                                                                                                                                                                                                                                                                                                                                                                                                                                                                                                                                                                                                                        ",
"                                                                                                                                                                                                                                                                                                                                                                                                                                                                                                                                                                                                                                                                                                                                                                                                                                                                                                                                                                                                                                                                                                                                                                                                                                                                                                                                                                                                                                                                                                                                                                                                                                                                                                                                                                                                                                                                        ",
"                                                                                                                                                                                                                                                                                                                                                                                                                                                                                                                                                                                                                                                                                                                                                                                                                                                                                                                                                                                                                                                                                                                                                                                                                                                                                                                                                                                                                                                                                                                                                                                                                                                                                                                                                                                                                                                                        ",
"                                                                                                                                                                                                                                                                                                                                                                                                                                                                                                                                                                                                                                                                                                                                                                                                                                                                                                                                                                                                                                                                                                                                                                                                                                                                                                                                                                                                                                                                                                                                                                                                                                                                                                                                                                                                                                                                        ",
"                                                                                                                                                                                                                                                                                                                                                                                                                                                                                                                                                                                                                                                                                                                                                                                                                                                                                                                                                                                                                                                                                                                                                                                                                                                                                                                                                                                                                                                                                                                                                                                                                                                                                                                                                                                                                                                                        ",
"                                                                                                                                                                                                                                                                                                                                                                                                                                                                                                                                                                                                                                                                                                                                                                                                                                                                                                                                                                                                                                                                                                                                                                                                                                                                                                                                                                                                                                                                                                                                                                                                                                                                                                                                                                                                                                                                        ",
"                                                                                                                                                                                                                                                                                                                                                                                                                                                                                                                                                                                                                                                                                                                                                                                                                                                                                                                                                                                                                                                                                                                                                                                                                                                                                                                                                                                                                                                                                                                                                                                                                                                                                                                                                                                                                                                                        ",
"                                                                                                                                                                                                                                                                                                                                                                                                                                                                                                                                                                                                                                                                                                                                                                                                                                                                                                                                                                                                                                                                                                                                                                                                                                                                                                                                                                                                                                                                                                                                                                                                                                                                                                                                                                                                                                                                        ",
"                                                                                                                                                                                                                                                                                                                                                                                                                                                                                                                                                                                                                                                                                                                                                                                                                                                                                                                                                                                                                                                                                                                                                                                                                                                                                                                                                                                                                                                                                                                                                                                                                                                                                                                                                                                                                                                                        ",
"                                                                                                                                                                                                                                                                                                                                                                                                                                                                                                                                                                                                                                                                                                                                                                                                                                                                                                                                                                                                                                                                                                                                                                                                                                                                                                                                                                                                                                                                                                                                                                                                                                                                                                                                                                                                                                                                        ",
"                                                                                                                                                                                                                                                                                                                                                                                                                                                                                                                                                                                                                                                                                                                                                                                                                                                                                                                                                                                                                                                                                                                                                                                                                                                                                                                                                                                                                                                                                                                                                                                                                                                                                                                                                                                                                                                                        ",
"                                                                                                                                                                                                                                                                                                                                                                                                                                                                                                                                                                                                                                                                                                                                                                                                                                                                                                                                                                                                                                                                                                                                                                                                                                                                                                                                                                                                                                                                                                                                                                                                                                                                                                                                                                                                                                                                        ",
"                                                                                                                                                                                                                                                                                                                                                                                                                                                                                                                                                                                                                                                                                                                                                                                                                                                                                                                                                                                                                                                                                                                                                                                                                                                                                                                                                                                                                                                                                                                                                                                                                                                                                                                                                                                                                                                                        ",
"                                                                                                                                                                                                                                                                                                                                                                                                                                                                                                                                                                                                                                                                                                                                                                                                                                                                                                                                                                                                                                                                                                                                                                                                                                                                                                                                                                                                                                                                                                                                                                                                                                                                                                                                                                                                                                                                        ",
"                                                                                                                                                                                                                                                                                                                                                                                                                                                                                                                                                                                                                                                                                                                                                                                                                                                                                                                                                                                                                                                                                                                                                                                                                                                                                                                                                                                                                                                                                                                                                                                                                                                                                                                                                                                                                                                                        ",
"                                                                                                                                                                                                                                                                                                                                                                                                                                                                                                                                                                                                                                                                                                                                                                                                                                                                                                                                                                                                                                                                                                                                                                                                                                                                                                                                                                                                                                                                                                                                                                                                                                                                                                                                                                                                                                                                        ",
"                                                                                                                                                                                                                                                                                                                                                                                                                                                                                                                                                                                                                                                                                                                                                                                                                                                                                                                                                                                                                                                                                                                                                                                                                                                                                                                                                                                                                                                                                                                                                                                                                                                                                                                                                                                                                                                                        ",
"                                                                                                                                                                                                                                                                                                                                                                                                                                                                                                                                                                                                                                                                                                                                                                                                                                                                                                                                                                                                                                                                                                                                                                                                                                                                                                                                                                                                                                                                                                                                                                                                                                                                                                                                                                                                                                                                        ",
"                                                                                                                                                                                                                                                                                                                                                                                                                                                                                                                                                                                                                                                                                                                                                                                                                                                                                                                                                                                                                                                                                                                                                                                                                                                                                                                                                                                                                                                                                                                                                                                                                                                                                                                                                                                                                                                                        ",
"                                                                                                                                                                                                                                                                                                                                                                                                                                                                                                                                                                                                                                                                                                                                                                                                                                                                                                                                                                                                                                                                                                                                                                                                                                                                                                                                                                                                                                                                                                                                                                                                                                                                                                                                                                                                                                                                        ",
"                                                                                                                                                                                                                                                                                                                                                                                                                                                                                                                                                                                                                                                                                                                                                                                                                                                                                                                                                                                                                                                                                                                                                                                                                                                                                                                                                                                                                                                                                                                                                                                                                                                                                                                                                                                                                                                                        ",
"                                                                                                                                                                                                                                                                                                                                                                                                                                                                                                                                                                                                                                                                                                                                                                                                                                                                                                                                                                                                                                                                                                                                                                                                                                                                                                                                                                                                                                                                                                                                                                                                                                                                                                                                                                                                                                                                        ",
"                                                                                                                                                                                                                                                                                                                                                                                                                                                                                                                                                                                                                                                                                                                                                                                                                                                                                                                                                                                                                                                                                                                                                                                                                                                                                                                                                                                                                                                                                                                                                                                                                                                                                                                                                                                                                                                                        ",
"                                                                                                                                                                                                                                                                                                                                                                                                                                                                                                                                                                                                                                                                                                                                                                                                                                                                                                                                                                                                                                                                                                                                                                                                                                                                                                                                                                                                                                                                                                                                                                                                                                                                                                                                                                                                                                                                        ",
"                                                                                                                                                                                                                                                                                                                                                                                                                                                                                                                                                                                                                                                                                                                                                                                                                                                                                                                                                                                                                                                                                                                                                                                                                                                                                                                                                                                                                                                                                                                                                                                                                                                                                                                                                                                                                                                                        ",
"                                                                                                                                                                                                                                                                                                                                                                                                                                                                                                                                                                                                                                                                                                                                                                                                                                                                                                                                                                                                                                                                                                                                                                                                                                                                                                                                                                                                                                                                                                                                                                                                                                                                                                                                                                                                                                                                        ",
"                                                                                                                                                                                                                                                                                                                                                                                                                                                                                                                                                                                                                                                                                                                                                                                                                                                                                                                                                                                                                                                                                                                                                                                                                                                                                                                                                                                                                                                                                                                                                                                                                                                                                                                                                                                                                                                                        ",
"                                                                                                                                                                                                                                                                                                                                                                                                                                                                                                                                                                                                                                                                                                                                                                                                                                                                                                                                                                                                                                                                                                                                                                                                                                                                                                                                                                                                                                                                                                                                                                                                                                                                                                                                                                                                                                                                        ",
"                                                                                                                                                                                                                                                                                                                                                                                                                                                                                                                                                                                                                                                                                                                                                                                                                                                                                                                                                                                                                                                                                                                                                                                                                                                                                                                                                                                                                                                                                                                                                                                                                                                                                                                                                                                                                                                                        ",
"                                                                                                                                                                                                                                                                                                                                                                                                                                                                                                                                                                                                                                                                                                                                                                                                                                                                                                                                                                                                                                                                                                                                                                                                                                                                                                                                                                                                                                                                                                                                                                                                                                                                                                                                                                                                                                                                        ",
"                                                                                                                                                                                                                                                                                                                                                                                                                                                                                                                                                                                                                                                                                                                                                                                                                                                                                                                                                                                                                                                                                                                                                                                                                                                                                                                                                                                                                                                                                                                                                                                                                                                                                                                                                                                                                                                                        ",
"                                                                                                                                                                                                                                                                                                                                                                                                                                                                                                                                                                                                                                                                                                                                                                                                                                                                                                                                                                                                                                                                                                                                                                                                                                                                                                                                                                                                                                                                                                                                                                                                                                                                                                                                                                                                                                                                        ",
"                                                                                                                                                                                                                                                                                                                                                                                                                                                                                                                                                                                                                                                                                                                                                                                                                                                                                                                                                                                                                                                                                                                                                                                                                                                                                                                                                                                                                                                                                                                                                                                                                                                                                                                                                                                                                                                                        ",
"                                                                                                                                                                                                                                                                                                                                                                                                                                                                                                                                                                                                                                                                                                                                                                                                                                                                                                                                                                                                                                                                                                                                                                                                                                                                                                                                                                                                                                                                                                                                                                                                                                                                                                                                                                                                                                                                        ",
"                                                                                                                                                                                                                                                                                                                                                                                                                                                                                                                                                                                                                                                                                                                                                                                                                                                                                                                                                                                                                                                                                                                                                                                                                                                                                                                                                                                                                                                                                                                                                                                                                                                                                                                                                                                                                                                                        ",
"                                                                                                                                                                                                                                                                                                                                                                                                                                                                                                                                                                                                                                                                                                                                                                                                                                                                                                                                                                                                                                                                                                                                                                                                                                                                                                                                                                                                                                                                                                                                                                                                                                                                                                                                                                                                                                                                        ",
"                                                                                                                                                                                                                                                                                                                                                                                                                                                                                                                                                                                                                                                                                                                                                                                                                                                                                                                                                                                                                                                                                                                                                                                                                                                                                                                                                                                                                                                                                                                                                                                                                                                                                                                                                                                                                                                                        ",
"                                                                                                                                                                                                                                                                                                                                                                                                                                                                                                                                                                                                                                                                                                                                                                                                                                                                                                                                                                                                                                                                                                                                                                                                                                                                                                                                                                                                                                                                                                                                                                                                                                                                                                                                                                                                                                                                        ",
"                                                                                                                                                                                                                                                                                                                                                                                                                                                                                                                                                                                                                                                                                                                                                                                                                                                                                                                                                                                                                                                                                                                                                                                                                                                                                                                                                                                                                                                                                                                                                                                                                                                                                                                                                                                                                                                                        ",
"                                                                                                                                                                                                                                                                                                                                                                                                                                                                                                                                                                                                                                                                                                                                                                                                                                                                                                                                                                                                                                                                                                                                                                                                                                                                                                                                                                                                                                                                                                                                                                                                                                                                                                                                                                                                                                                                        ",
"                                                                                                                                                                                                                                                                                                                                                                                                                                                                                                                                                                                                                                                                                                                                                                                                                                                                                                                                                                                                                                                                                                                                                                                                                                                                                                                                                                                                                                                                                                                                                                                                                                                                                                                                                                                                                                                                        ",
"                                                                                                                                                                                                                                                                                                                                                                                                                                                                                                                                                                                                                                                                                                                                                                                                                                                                                                                                                                                                                                                                                                                                                                                                                                                                                                                                                                                                                                                                                                                                                                                                                                                                                                                                                                                                                                                                        ",
"                                                                                                                                                                                                                                                                                                                                                                                                                                                                                                                                                                                                                                                                                                                                                                                                                                                                                                                                                                                                                                                                                                                                                                                                                                                                                                                                                                                                                                                                                                                                                                                                                                                                                                                                                                                                                                                                        ",
"                                                                                                                                                                                                                                                                                                                                                                                                                                                                                                                                                                                                                                                                                                                                                                                                                                                                                                                                                                                                                                                                                                                                                                                                                                                                                                                                                                                                                                                                                                                                                                                                                                                                                                                                                                                                                                                                        ",
"                                                                                                                                                                                                                                                                                                                                                                                                                                                                                                                                                                                                                                                                                                                                                                                                                                                                                                                                                                                                                                                                                                                                                                                                                                                                                                                                                                                                                                                                                                                                                                                                                                                                                                                                                                                                                                                                        ",
"                                                                                                                                                                                                                                                                                                                                                                                                                                                                                                                                                                                                                                                                                                                                                                                                                                                                                                                                                                                                                                                                                                                                                                                                                                                                                                                                                                                                                                                                                                                                                                                                                                                                                                                                                                                                                                                                        ",
"                                                                                                                                                                                                                                                                                                                                                                                                                                                                                                                                                                                                                                                                                                                                                                                                                                                                                                                                                                                                                                                                                                                                                                                                                                                                                                                                                                                                                                                                                                                                                                                                                                                                                                                                                                                                                                                                        ",
"                                                                                                                                                                                                                                                                                                                                                                                                                                                                                                                                                                                                                                                                                                                                                                                                                                                                                                                                                                                                                                                                                                                                                                                                                                                                                                                                                                                                                                                                                                                                                                                                                                                                                                                                                                                                                                                                        ",
"                                                                                                                                                                                                                                                                                                                                                                                                                                                                                                                                                                                                                                                                                                                                                                                                                                                                                                                                                                                                                                                                                                                                                                                                                                                                                                                                                                                                                                                                                                                                                                                                                                                                                                                                                                                                                                                                        ",
"                                                                                                                                                                                                                                                                                                                                                                                                                                                                                                                                                                                                                                                                                                                                                                                                                                                                                                                                                                                                                                                                                                                                                                                                                                                                                                                                                                                                                                                                                                                                                                                                                                                                                                                                                                                                                                                                        ",
"                                                                                                                                                                                                                                                                                                                                                                                                                                                                                                                                                                                                                                                                                                                                                                                                                                                                                                                                                                                                                                                                                                                                                                                                                                                                                                                                                                                                                                                                                                                                                                                                                                                                                                                                                                                                                                                                        ",
"                                                                                                                                                                                                                                                                                                                                                                                                                                                                                                                                                                                                                                                                                                                                                                                                                                                                                                                                                                                                                                                                                                                                                                                                                                                                                                                                                                                                                                                                                                                                                                                                                                                                                                                                                                                                                                                                        ",
"                                                                                                                                                                                                                                                                                                                                                                                                                                                                                                                                                                                                                                                                                                                                                                                                                                                                                                                                                                                                                                                                                                                                                                                                                                                                                                                                                                                                                                                                                                                                                                                                                                                                                                                                                                                                                                                                        ",
"                                                                                                                                                                                                                                                                                                                                                                                                                                                                                                                                                                                                                                                                                                                                                                                                                                                                                                                                                                                                                                                                                                                                                                                                                                                                                                                                                                                                                                                                                                                                                                                                                                                                                                                                                                                                                                                                        ",
"                                                                                                                                                                                                                                                                                                                                                                                                                                                                                                                                                                                                                                                                                                                                                                                                                                                                                                                                                                                                                                                                                                                                                                                                                                                                                                                                                                                                                                                                                                                                                                                                                                                                                                                                                                                                                                                                        ",
"                                                                                                                                                                                                                                                                                                                                                                                                                                                                                                                                                                                                                                                                                                                                                                                                                                                                                                                                                                                                                                                                                                                                                                                                                                                                                                                                                                                                                                                                                                                                                                                                                                                                                                                                                                                                                                                                        ",
"                                                                                                                                                                                                                                                                                                                                                                                                                                                                                                                                                                                                                                                                                                                                                                                                                                                                                                                                                                                                                                                                                                                                                                                                                                                                                                                                                                                                                                                                                                                                                                                                                                                                                                                                                                                                                                                                        ",
"                                                                                                                                                                                                                                                                                                                                                                                                                                                                                                                                                                                                                                                                                                                                                                                                                                                                                                                                                                                                                                                                                                                                                                                                                                                                                                                                                                                                                                                                                                                                                                                                                                                                                                                                                                                                                                                                        ",
"                                                                                                                                                                                                                                                                                                                                                                                                                                                                                                                                                                                                                                                                                                                                                                                                                                                                                                                                                                                                                                                                                                                                                                                                                                                                                                                                                                                                                                                                                                                                                                                                                                                                                                                                                                                                                                                                        ",
"                                                                                                                                                                                                                                                                                                                                                                                                                                                                                                                                                                                                                                                                                                                                                                                                                                                                                                                                                                                                                                                                                                                                                                                                                                                                                                                                                                                                                                                                                                                                                                                                                                                                                                                                                                                                                                                                        ",
"                                                                                                                                                                                                                                                                                                                                                                                                                                                                                                                                                                                                                                                                                                                                                                                                                                                                                                                                                                                                                                                                                                                                                                                                                                                                                                                                                                                                                                                                                                                                                                                                                                                                                                                                                                                                                                                                        ",
"                                                                                                                                                                                                                                                                                                                                                                                                                                                                                                                                                                                                                                                                                                                                                                                                                                                                                                                                                                                                                                                                                                                                                                                                                                                                                                                                                                                                                                                                                                                                                                                                                                                                                                                                                                                                                                                                        ",
"                                                                                                                                                                                                                                                                                                                                                                                                                                                                                                                                                                                                                                                                                                                                                                                                                                                                                                                                                                                                                                                                                                                                                                                                                                                                                                                                                                                                                                                                                                                                                                                                                                                                                                                                                                                                                                                                        ",
"                                                                                                                                                                                                                                                                                                                                                                                                                                                                                                                                                                                                                                                                                                                                                                                                                                                                                                                                                                                                                                                                                                                                                                                                                                                                                                                                                                                                                                                                                                                                                                                                                                                                                                                                                                                                                                                                        ",
"                                                                                                                                                                                                                                                                                                                                                                                                                                                                                                                                                                                                                                                                                                                                                                                                                                                                                                                                                                                                                                                                                                                                                                                                                                                                                                                                                                                                                                                                                                                                                                                                                                                                                                                                                                                                                                                                        ",
"                                                                                                                                                                                                                                                                                                                                                                                                                                                                                                                                                                                                                                                                                                                                                                                                                                                                                                                                                                                                                                                                                                                                                                                                                                                                                                                                                                                                                                                                                                                                                                                                                                                                                                                                                                                                                                                                        ",
"                                                                                                                                                                                                                                                                                                                                                                                                                                                                                                                                                                                                                                                                                                                                                                                                                                                                                                                                                                                                                                                                                                                                                                                                                                                                                                                                                                                                                                                                                                                                                                                                                                                                                                                                                                                                                                                                        ",
"                                                                                                                                                                                                                                                                                                                                                                                                                                                                                                                                                                                                                                                                                                                                                                                                                                                                                                                                                                                                                                                                                                                                                                                                                                                                                                                                                                                                                                                                                                                                                                                                                                                                                                                                                                                                                                                                        ",
"                                                                                                                                                                                                                                                                                                                                                                                                                                                                                                                                                                                                                                                                                                                                                                                                                                                                                                                                                                                                                                                                                                                                                                                                                                                                                                                                                                                                                                                                                                                                                                                                                                                                                                                                                                                                                                                                        ",
"                                                                                                                                                                                                                                                                                                                                                                                                                                                                                                                                                                                                                                                                                                                                                                                                                                                                                                                                                                                                                                                                                                                                                                                                                                                                                                                                                                                                                                                                                                                                                                                                                                                                                                                                                                                                                                                                        ",
"                                                                                                                                                                                                                                                                                                                                                                                                                                                                                                                                                                                                                                                                                                                                                                                                                                                                                                                                                                                                                                                                                                                                                                                                                                                                                                                                                                                                                                                                                                                                                                                                                                                                                                                                                                                                                                                                        ",
"                                                                                                                                                                                                                                                                                                                                                                                                                                                                                                                                                                                                                                                                                                                                                                                                                                                                                                                                                                                                                                                                                                                                                                                                                                                                                                                                                                                                                                                                                                                                                                                                                                                                                                                                                                                                                                                                        ",
"                                                                                                                                                                                                                                                                                                                                                                                                                                                                                                                                                                                                                                                                                                                                                                                                                                                                                                                                                                                                                                                                                                                                                                                                                                                                                                                                                                                                                                                                                                                                                                                                                                                                                                                                                                                                                                                                        ",
"                                                                                                                                                                                                                                                                                                                                                                                                                                                                                                                                                                                                                                                                                                                                                                                                                                                                                                                                                                                                                                                                                                                                                                                                                                                                                                                                                                                                                                                                                                                                                                                                                                                                                                                                                                                                                                                                        ",
"                                                                                                                                                                                                                                                                                                                                                                                                                                                                                                                                                                                                                                                                                                                                                                                                                                                                                                                                                                                                                                                                                                                                                                                                                                                                                                                                                                                                                                                                                                                                                                                                                                                                                                                                                                                                                                                                        ",
"                                                                                                                                                                                                                                                                                                                                                                                                                                                                                                                                                                                                                                                                                                                                                                                                                                                                                                                                                                                                                                                                                                                                                                                                                                                                                                                                                                                                                                                                                                                                                                                                                                                                                                                                                                                                                                                                        ",
"                                                                                                                                                                                                                                                                                                                                                                                                                                                                                                                                                                                                                                                                                                                                                                                                                                                                                                                                                                                                                                                                                                                                                                                                                                                                                                                                                                                                                                                                                                                                                                                                                                                                                                                                                                                                                                                                        ",
"                                                                                                                                                                                                                                                                                                                                                                                                                                                                                                                                                                                                                                                                                                                                                                                                                                                                                                                                                                                                                                                                                                                                                                                                                                                                                                                                                                                                                                                                                                                                                                                                                                                                                                                                                                                                                                                                        ",
"                                                                                                                                                                                                                                                                                                                                                                                                                                                                                                                                                                                                                                                                                                                                                                                                                                                                                                                                                                                                                                                                                                                                                                                                                                                                                                                                                                                                                                                                                                                                                                                                                                                                                                                                                                                                                                                                        ",
"                                                                                                                                                                                                                                                                                                                                                                                                                                                                                                                                                                                                                                                                                                                                                                                                                                                                                                                                                                                                                                                                                                                                                                                                                                                                                                                                                                                                                                                                                                                                                                                                                                                                                                                                                                                                                                                                        ",
"                                                                                                                                                                                                                                                                                                                                                                                                                                                                                                                                                                                                                                                                                                                                                                                                                                                                                                                                                                                                                                                                                                                                                                                                                                                                                                                                                                                                                                                                                                                                                                                                                                                                                                                                                                                                                                                                        ",
"                                                                                                                                                                                                                                                                                                                                                                                                                                                                                                                                                                                                                                                                                                                                                                                                                                                                                                                                                                                                                                                                                                                                                                                                                                                                                                                                                                                                                                                                                                                                                                                                                                                                                                                                                                                                                                                                        ",
"                                                                                                                                                                                                                                                                                                                                                                                                                                                                                                                                                                                                                                                                                                                                                                                                                                                                                                                                                                                                                                                                                                                                                                                                                                                                                                                                                                                                                                                                                                                                                                                                                                                                                                                                                                                                                                                                        ",
"                                                                                                                                                                                                                                                                                                                                                                                                                                                                                                                                                                                                                                                                                                                                                                                                                                                                                                                                                                                                                                                                                                                                                                                                                                                                                                                                                                                                                                                                                                                                                                                                                                                                                                                                                                                                                                                                        ",
"                                                                                                                                                                                                                                                                                                                                                                                                                                                                                                                                                                                                                                                                                                                                                                                                                                                                                                                                                                                                                                                                                                                                                                                                                                                                                                                                                                                                                                                                                                                                                                                                                                                                                                                                                                                                                                                                        ",
"                                                                                                                                                                                                                                                                                                                                                                                                                                                                                                                                                                                                                                                                                                                                                                                                                                                                                                                                                                                                                                                                                                                                                                                                                                                                                                                                                                                                                                                                                                                                                                                                                                                                                                                                                                                                                                                                        ",
"                                                                                                                                                                                                                                                                                                                                                                                                                                                                                                                                                                                                                                                                                                                                                                                                                                                                                                                                                                                                                                                                                                                                                                                                                                                                                                                                                                                                                                                                                                                                                                                                                                                                                                                                                                                                                                                                        ",
"                                                                                                                                                                                                                                                                                                                                                                                                                                                                                                                                                                                                                                                                                                                                                                                                                                                                                                                                                                                                                                                                                                                                                                                                                                                                                                                                                                                                                                                                                                                                                                                                                                                                                                                                                                                                                                                                        ",
"                                                                                                                                                                                                                                                                                                                                                                                                                                                                                                                                                                                                                                                                                                                                                                                                                                                                                                                                                                                                                                                                                                                                                                                                                                                                                                                                                                                                                                                                                                                                                                                                                                                                                                                                                                                                                                                                        ",
"                                                                                                                                                                                                                                                                                                                                                                                                                                                                                                                                                                                                                                                                                                                                                                                                                                                                                                                                                                                                                                                                                                                                                                                                                                                                                                                                                                                                                                                                                                                                                                                                                                                                                                                                                                                                                                                                        ",
"                                                                                                                                                                                                                                                                                                                                                                                                                                                                                                                                                                                                                                                                                                                                                                                                                                                                                                                                                                                                                                                                                                                                                                                                                                                                                                                                                                                                                                                                                                                                                                                                                                                                                                                                                                                                                                                                        ",
"                                                                                                                                                                                                                                                                                                                                                                                                                                                                                                                                                                                                                                                                                                                                                                                                                                                                                                                                                                                                                                                                                                                                                                                                                                                                                                                                                                                                                                                                                                                                                                                                                                                                                                                                                                                                                                                                        ",
"                                                                                                                                                                                                                                                                                                                                                                                                                                                                                                                                                                                                                                                                                                                                                                                                                                                                                                                                                                                                                                                                                                                                                                                                                                                                                                                                                                                                                                                                                                                                                                                                                                                                                                                                                                                                                                                                        ",
"                                                                                                                                                                                                                                                                                                                                                                                                                                                                                                                                                                                                                                                                                                                                                                                                                                                                                                                                                                                                                                                                                                                                                                                                                                                                                                                                                                                                                                                                                                                                                                                                                                                                                                                                                                                                                                                                        ",
"                                                                                                                                                                                                                                                                                                                                                                                                                                                                                                                                                                                                                                                                                                                                                                                                                                                                                                                                                                                                                                                                                                                                                                                                                                                                                                                                                                                                                                                                                                                                                                                                                                                                                                                                                                                                                                                                        ",
"                                                                                                                                                                                                                                                                                                                                                                                                                                                                                                                                                                                                                                                                                                                                                                                                                                                                                                                                                                                                                                                                                                                                                                                                                                                                                                                                                                                                                                                                                                                                                                                                                                                                                                                                                                                                                                                                        ",
"                                                                                                                                                                                                                                                                                                                                                                                                                                                                                                                                                                                                                                                                                                                                                                                                                                                                                                                                                                                                                                                                                                                                                                                                                                                                                                                                                                                                                                                                                                                                                                                                                                                                                                                                                                                                                                                                        ",
"                                                                                                                                                                                                                                                                                                                                                                                                                                                                                                                                                                                                                                                                                                                                                                                                                                                                                                                                                                                                                                                                                                                                                                                                                                                                                                                                                                                                                                                                                                                                                                                                                                                                                                                                                                                                                                                                        ",
"                                                                                                                                                                                                                                                                                                                                                                                                                                                                                                                                                                                                                                                                                                                                                                                                                                                                                                                                                                                                                                                                                                                                                                                                                                                                                                                                                                                                                                                                                                                                                                                                                                                                                                                                                                                                                                                                        ",
"                                                                                                                                                                                                                                                                                                                                                                                                                                                                                                                                                                                                                                                                                                                                                                                                                                                                                                                                                                                                                                                                                                                                                                                                                                                                                                                                                                                                                                                                                                                                                                                                                                                                                                                                                                                                                                                                        ",
"                                                                                                                                                                                                                                                                                                                                                                                                                                                                                                                                                                                                                                                                                                                                                                                                                                                                                                                                                                                                                                                                                                                                                                                                                                                                                                                                                                                                                                                                                                                                                                                                                                                                                                                                                                                                                                                                        ",
"                                                                                                                                                                                                                                                                                                                                                                                                                                                                                                                                                                                                                                                                                                                                                                                                                                                                                                                                                                                                                                                                                                                                                                                                                                                                                                                                                                                                                                                                                                                                                                                                                                                                                                                                                                                                                                                                        ",
"                                                                                                                                                                                                                                                                                                                                                                                                                                                                                                                                                                                                                                                                                                                                                                                                                                                                                                                                                                                                                                                                                                                                                                                                                                                                                                                                                                                                                                                                                                                                                                                                                                                                                                                                                                                                                                                                        ",
"                                                                                                                                                                                                                                                                                                                                                                                                                                                                                                                                                                                                                                                                                                                                                                                                                                                                                                                                                                                                                                                                                                                                                                                                                                                                                                                                                                                                                                                                                                                                                                                                                                                                                                                                                                                                                                                                        ",
"                                                                                                                                                                                                                                                                                                                                                                                                                                                                                                                                                                                                                                                                                                                                                                                                                                                                                                                                                                                                                                                                                                                                                                                                                                                                                                                                                                                                                                                                                                                                                                                                                                                                                                                                                                                                                                                                        ",
"                                                                                                                                                                                                                                                                                                                                                                                                                                                                                                                                                                                                                                                                                                                                                                                                                                                                                                                                                                                                                                                                                                                                                                                                                                                                                                                                                                                                                                                                                                                                                                                                                                                                                                                                                                                                                                                                        ",
"                                                                                                                                                                                                                                                                                                                                                                                                                                                                                                                                                                                                                                                                                                                                                                                                                                                                                                                                                                                                                                                                                                                                                                                                                                                                                                                                                                                                                                                                                                                                                                                                                                                                                                                                                                                                                                                                        ",
"                                                                                                                                                                                                                                                                                                                                                                                                                                                                                                                                                                                                                                                                                                                                                                                                                                                                                                                                                                                                                                                                                                                                                                                                                                                                                                                                                                                                                                                                                                                                                                                                                                                                                                                                                                                                                                                                        ",
"                                                                                                                                                                                                                                                                                                                                                                                                                                                                                                                                                                                                                                                                                                                                                                                                                                                                                                                                                                                                                                                                                                                                                                                                                                                                                                                                                                                                                                                                                                                                                                                                                                                                                                                                                                                                                                                                        ",
"                                                                                                                                                                                                                                                                                                                                                                                                                                                                                                                                                                                                                                                                                                                                                                                                                                                                                                                                                                                                                                                                                                                                                                                                                                                                                                                                                                                                                                                                                                                                                                                                                                                                                                                                                                                                                                                                        ",
"                                                                                                                                                                                                                                                                                                                                                                                                                                                                                                                                                                                                                                                                                                                                                                                                                                                                                                                                                                                                                                                                                                                                                                                                                                                                                                                                                                                                                                                                                                                                                                                                                                                                                                                                                                                                                                                                        ",
"                                                                                                                                                                                                                                                                                                                                                                                                                                                                                                                                                                                                                                                                                                                                                                                                                                                                                                                                                                                                                                                                                                                                                                                                                                                                                                                                                                                                                                                                                                                                                                                                                                                                                                                                                                                                                                                                        ",
"                                                                                                                                                                                                                                                                                                                                                                                                                                                                                                                                                                                                                                                                                                                                                                                                                                                                                                                                                                                                                                                                                                                                                                                                                                                                                                                                                                                                                                                                                                                                                                                                                                                                                                                                                                                                                                                                        ",
"                                                                                                                                                                                                                                                                                                                                                                                                                                                                                                                                                                                                                                                                                                                                                                                                                                                                                                                                                                                                                                                                                                                                                                                                                                                                                                                                                                                                                                                                                                                                                                                                                                                                                                                                                                                                                                                                        ",
"                                                                                                                                                                                                                                                                                                                                                                                                                                                                                                                                                                                                                                                                                                                                                                                                                                                                                                                                                                                                                                                                                                                                                                                                                                                                                                                                                                                                                                                                                                                                                                                                                                                                                                                                                                                                                                                                        ",
"                                                                                                                                                                                                                                                                                                                                                                                                                                                                                                                                                                                                                                                                                                                                                                                                                                                                                                                                                                                                                                                                                                                                                                                                                                                                                                                                                                                                                                                                                                                                                                                                                                                                                                                                                                                                                                                                        ",
"                                                                                                                                                                                                                                                                                                                                                                                                                                                                                                                                                                                                                                                                                                                                                                                                                                                                                                                                                                                                                                                                                                                                                                                                                                                                                                                                                                                                                                                                                                                                                                                                                                                                                                                                                                                                                                                                        ",
"                                                                                                                                                                                                                                                                                                                                                                                                                                                                                                                                                                                                                                                                                                                                                                                                                                                                                                                                                                                                                                                                                                                                                                                                                                                                                                                                                                                                                                                                                                                                                                                                                                                                                                                                                                                                                                                                        ",
"                                                                                                                                                                                                                                                                                                                                                                                                                                                                                                                                                                                                                                                                                                                                                                                                                                                                                                                                                                                                                                                                                                                                                                                                                                                                                                                                                                                                                                                                                                                                                                                                                                                                                                                                                                                                                                                                        ",
"                                                                                                                                                                                                                                                                                                                                                                                                                                                                                                                                                                                                                                                                                                                                                                                                                                                                                                                                                                                                                                                                                                                                                                                                                                                                                                                                                                                                                                                                                                                                                                                                                                                                                                                                                                                                                                                                        ",
"                                                                                                                                                                                                                                                                                                                                                                                                                                                                                                                                                                                                                                                                                                                                                                                                                                                                                                                                                                                                                                                                                                                                                                                                                                                                                                                                                                                                                                                                                                                                                                                                                                                                                                                                                                                                                                                                        ",
"                                                                                                                                                                                                                                                                                                                                                                                                                                                                                                                                                                                                                                                                                                                                                                                                                                                                                                                                                                                                                                                                                                                                                                                                                                                                                                                                                                                                                                                                                                                                                                                                                                                                                                                                                                                                                                                                        ",
"                                                                                                                                                                                                                                                                                                                                                                                                                                                                                                                                                                                                                                                                                                                                                                                                                                                                                                                                                                                                                                                                                                                                                                                                                                                                                                                                                                                                                                                                                                                                                                                                                                                                                                                                                                                                                                                                        ",
"                                                                                                                                                                                                                                                                                                                                                                                                                                                                                                                                                                                                                                                                                                                                                                                                                                                                                                                                                                                                                                                                                                                                                                                                                                                                                                                                                                                                                                                                                                                                                                                                                                                                                                                                                                                                                                                                        ",
"                                                                                                                                                                                                                                                                                                                                                                                                                                                                                                                                                                                                                                                                                                                                                                                                                                                                                                                                                                                                                                                                                                                                                                                                                                                                                                                                                                                                                                                                                                                                                                                                                                                                                                                                                                                                                                                                        ",
"                                                                                                                                                                                                                                                                                                                                                                                                                                                                                                                                                                                                                                                                                                                                                                                                                                                                                                                                                                                                                                                                                                                                                                                                                                                                                                                                                                                                                                                                                                                                                                                                                                                                                                                                                                                                                                                                        ",
"                                                                                                                                                                                                                                                                                                                                                                                                                                                                                                                                                                                                                                                                                                                                                                                                                                                                                                                                                                                                                                                                                                                                                                                                                                                                                                                                                                                                                                                                                                                                                                                                                                                                                                                                                                                                                                                                        ",
"                                                                                                                                                                                                                                                                                                                                                                                                                                                                                                                                                                                                                                                                                                                                                                                                                                                                                                                                                                                                                                                                                                                                                                                                                                                                                                                                                                                                                                                                                                                                                                                                                                                                                                                                                                                                                                                                        ",
"                                                                                                                                                                                                                                                                                                                                                                                                                                                                                                                                                                                                                                                                                                                                                                                                                                                                                                                                                                                                                                                                                                                                                                                                                                                                                                                                                                                                                                                                                                                                                                                                                                                                                                                                                                                                                                                                        ",
"                                                                                                                                                                                                                                                                                                                                                                                                                                                                                                                                                                                                                                                                                                                                                                                                                                                                                                                                                                                                                                                                                                                                                                                                                                                                                                                                                                                                                                                                                                                                                                                                                                                                                                                                                                                                                                                                        ",
"                                                                                                                                                                                                                                                                                                                                                                                                                                                                                                                                                                                                                                                                                                                                                                                                                                                                                                                                                                                                                                                                                                                                                                                                                                                                                                                                                                                                                                                                                                                                                                                                                                                                                                                                                                                                                                                                        ",
"                                                                                                                                                                                                                                                                                                                                                                                                                                                                                                                                                                                                                                                                                                                                                                                                                                                                                                                                                                                                                                                                                                                                                                                                                                                                                                                                                                                                                                                                                                                                                                                                                                                                                                                                                                                                                                                                        ",
"                                                                                                                                                                                                                                                                                                                                                                                                                                                                                                                                                                                                                                                                                                                                                                                                                                                                                                                                                                                                                                                                                                                                                                                                                                                                                                                                                                                                                                                                                                                                                                                                                                                                                                                                                                                                                                                                        ",
"                                                                                                                                                                                                                                                                                                                                                                                                                                                                                                                                                                                                                                                                                                                                                                                                                                                                                                                                                                                                                                                                                                                                                                                                                                                                                                                                                                                                                                                                                                                                                                                                                                                                                                                                                                                                                                                                        ",
"                                                                                                                                                                                                                                                                                                                                                                                                                                                                                                                                                                                                                                                                                                                                                                                                                                                                                                                                                                                                                                                                                                                                                                                                                                                                                                                                                                                                                                                                                                                                                                                                                                                                                                                                                                                                                                                                        ",
"                                                                                                                                                                                                                                                                                                                                                                                                                                                                                                                                                                                                                                                                                                                                                                                                                                                                                                                                                                                                                                                                                                                                                                                                                                                                                                                                                                                                                                                                                                                                                                                                                                                                                                                                                                                                                                                                        ",
"                                                                                                                                                                                                                                                                                                                                                                                                                                                                                                                                                                                                                                                                                                                                                                                                                                                                                                                                                                                                                                                                                                                                                                                                                                                                                                                                                                                                                                                                                                                                                                                                                                                                                                                                                                                                                                                                        ",
"                                                                                                                                                                                                                                                                                                                                                                                                                                                                                                                                                                                                                                                                                                                                                                                                                                                                                                                                                                                                                                                                                                                                                                                                                                                                                                                                                                                                                                                                                                                                                                                                                                                                                                                                                                                                                                                                        ",
"                                                                                                                                                                                                                                                                                                                                                                                                                                                                                                                                                                                                                                                                                                                                                                                                                                                                                                                                                                                                                                                                                                                                                                                                                                                                                                                                                                                                                                                                                                                                                                                                                                                                                                                                                                                                                                                                        ",
"                                                                                                                                                                                                                                                                                                                                                                                                                                                                                                                                                                                                                                                                                                                                                                                                                                                                                                                                                                                                                                                                                                                                                                                                                                                                                                                                                                                                                                                                                                                                                                                                                                                                                                                                                                                                                                                                        ",
"                                                                                                                                                                                                                                                                                                                                                                                                                                                                                                                                                                                                                                                                                                                                                                                                                                                                                                                                                                                                                                                                                                                                                                                                                                                                                                                                                                                                                                                                                                                                                                                                                                                                                                                                                                                                                                                                        ",
"                                                                                                                                                                                                                                                                                                                                                                                                                                                                                                                                                                                                                                                                                                                                                                                                                                                                                                                                                                                                                                                                                                                                                                                                                                                                                                                                                                                                                                                                                                                                                                                                                                                                                                                                                                                                                                                                        ",
"                                                                                                                                                                                                                                                                                                                                                                                                                                                                                                                                                                                                                                                                                                                                                                                                                                                                                                                                                                                                                                                                                                                                                                                                                                                                                                                                                                                                                                                                                                                                                                                                                                                                                                                                                                                                                                                                        ",
"                                                                                                                                                                                                                                                                                                                                                                                                                                                                                                                                                                                                                                                                                                                                                                                                                                                                                                                                                                                                                                                                                                                                                                                                                                                                                                                                                                                                                                                                                                                                                                                                                                                                                                                                                                                                                                                                        ",
"                                                                                                                                                                                                                                                                                                                                                                                                                                                                                                                                                                                                                                                                                                                                                                                                                                                                                                                                                                                                                                                                                                                                                                                                                                                                                                                                                                                                                                                                                                                                                                                                                                                                                                                                                                                                                                                                        ",
"                                                                                                                                                                                                                                                                                                                                                                                                                                                                                                                                                                                                                                                                                                                                                                                                                                                                                                                                                                                                                                                                                                                                                                                                                                                                                                                                                                                                                                                                                                                                                                                                                                                                                                                                                                                                                                                                        ",
"                                                                                                                                                                                                                                                                                                                                                                                                                                                                                                                                                                                                                                                                                                                                                                                                                                                                                                                                                                                                                                                                                                                                                                                                                                                                                                                                                                                                                                                                                                                                                                                                                                                                                                                                                                                                                                                                        ",
"                                                                                                                                                                                                                                                                                                                                                                                                                                                                                                                                                                                                                                                                                                                                                                                                                                                                                                                                                                                                                                                                                                                                                                                                                                                                                                                                                                                                                                                                                                                                                                                                                                                                                                                                                                                                                                                                        ",
"                                                                                                                                                                                                                                                                                                                                                                                                                                                                                                                                                                                                                                                                                                                                                                                                                                                                                                                                                                                                                                                                                                                                                                                                                                                                                                                                                                                                                                                                                                                                                                                                                                                                                                                                                                                                                                                                        ",
"                                                                                                                                                                                                                                                                                                                                                                                                                                                                                                                                                                                                                                                                                                                                                                                                                                                                                                                                                                                                                                                                                                                                                                                                                                                                                                                                                                                                                                                                                                                                                                                                                                                                                                                                                                                                                                                                        ",
"                                                                                                                                                                                                                                                                                                                                                                                                                                                                                                                                                                                                                                                                                                                                                                                                                                                                                                                                                                                                                                                                                                                                                                                                                                                                                                                                                                                                                                                                                                                                                                                                                                                                                                                                                                                                                                                                        ",
"                                                                                                                                                                                                                                                                                                                                                                                                                                                                                                                                                                                                                                                                                                                                                                                                                                                                                                                                                                                                                                                                                                                                                                                                                                                                                                                                                                                                                                                                                                                                                                                                                                                                                                                                                                                                                                                                        ",
"                                                                                                                                                                                                                                                                                                                                                                                                                                                                                                                                                                                                                                                                                                                                                                                                                                                                                                                                                                                                                                                                                                                                                                                                                                                                                                                                                                                                                                                                                                                                                                                                                                                                                                                                                                                                                                                                        ",
"                                                                                                                                                                                                                                                                                                                                                                                                                                                                                                                                                                                                                                                                                                                                                                                                                                                                                                                                                                                                                                                                                                                                                                                                                                                                                                                                                                                                                                                                                                                                                                                                                                                                                                                                                                                                                                                                        ",
"                                                                                                                                                                                                                                                                                                                                                                                                                                                                                                                                                                                                                                                                                                                                                                                                                                                                                                                                                                                                                                                                                                                                                                                                                                                                                                                                                                                                                                                                                                                                                                                                                                                                                                                                                                                                                                                                        ",
"                                                                                                                                                                                                                                                                                                                                                                                                                                                                                                                                                                                                                                                                                                                                                                                                                                                                                                                                                                                                                                                                                                                                                                                                                                                                                                                                                                                                                                                                                                                                                                                                                                                                                                                                                                                                                                                                        ",
"                                                                                                                                                                                                                                                                                                                                                                                                                                                                                                                                                                                                                                                                                                                                                                                                                                                                                                                                                                                                                                                                                                                                                                                                                                                                                                                                                                                                                                                                                                                                                                                                                                                                                                                                                                                                                                                                        ",
"                                                                                                                                                                                                                                                                                                                                                                                                                                                                                                                                                                                                                                                                                                                                                                                                                                                                                                                                                                                                                                                                                                                                                                                                                                                                                                                                                                                                                                                                                                                                                                                                                                                                                                                                                                                                                                                                        ",
"                                                                                                                                                                                                                                                                                                                                                                                                                                                                                                                                                                                                                                                                                                                                                                                                                                                                                                                                                                                                                                                                                                                                                                                                                                                                                                                                                                                                                                                                                                                                                                                                                                                                                                                                                                                                                                                                        ",
"                                                                                                                                                                                                                                                                                                                                                                                                                                                                                                                                                                                                                                                                                                                                                                                                                                                                                                                                                                                                                                                                                                                                                                                                                                                                                                                                                                                                                                                                                                                                                                                                                                                                                                                                                                                                                                                                        ",
"                                                                                                                                                                                                                                                                                                                                                                                                                                                                                                                                                                                                                                                                                                                                                                                                                                                                                                                                                                                                                                                                                                                                                                                                                                                                                                                                                                                                                                                                                                                                                                                                                                                                                                                                                                                                                                                                        ",
"                                                                                                                                                                                                                                                                                                                                                                                                                                                                                                                                                                                                                                                                                                                                                                                                                                                                                                                                                                                                                                                                                                                                                                                             .  +  @  #  $  %  &  *  =  -  ;  >  ,  '  )  !  ~  {  ]  ^                                                                                                                                                                                                                                                                                                                                                                                                                                                                                                                                                                                                                 ",
"                                                                                                                                                                                                                                                                                                                                                                                                                                                                                                                                                                                                                                                                                                                                                                                                                                                                                                                                                                                                                                                                                                                                       /  (  _  :  <  [  }  |  1  2  3  4  5  6  7  8  9  0  a  b  c  d  e  f  g  h  i  j  k  l  m  n  o  p  q  r  s  t                                                                                                                                                                                                                                                                                                                                                                                                                                                                                                                                                                                                                 ",
"                                                                                                                                                                                                                                                                                                                                                                                                                                                                                                                                                                                                                                                                                                                                                                                                                                                                                                                                                                                                                                                                                                                                    u  v  w  x  y  z  A  B  C  D  E  F  G  H  I  J  K  L  M  N  O  P  Q  R  S  T  U  V  W  X  Y  Z  `   . .. +. @. #. $.                                                                                                                                                                                                                                                                                                                                                                                                                                                                                                                                                                                                                ",
"                                                                                                                                                                                                                                                                                                                                                                                                                                                                                                                                                                                                                                                                                                                                                                                                                                                                                                                                                                                                                                                                                                                                    %. &. *. =. -. ;. >. ,. '. ). !. ~. {. ]. ^. /. (. _. :. <. [. }. |. 1. 2. 3. 4. 5. 6. 7. 8. 9. 0. a. b. c. d. e. f.                                                                                                                                                                                                                                                                                                                                                                                                                                                                                                                                                                                                                ",
"                                                                                                                                                                                                                                                                                                                                                                                                                                                                                                                                                                                                                                                                                                                                                                                                                                                                                                                                                                                                                                                                                                                                    g. h. i. j. k. l. m. n. o. p. q. r. s. t. u. v. w. x. y. z. A. B. C. D. E. F. G. H. I. J. K. L. M. N. O. P. Q. R. S.                                                                                                                                                                                                                                                                                                                                                                                                                                                                                                                                                                                                                ",
"                                                                                                                                                                                                                                                                                                                                                                                                                                                                                                                                                                                                                                                                                                                                                                                                                                                                                                                                                                                                                                                                                                                                    T. U. V. W. X. Y. Z. `.  + .+ ++ @+ #+ $+ %+ &+ *+ =+ -+ ;+ >+ ,+ '+ )+ !+ ~+ {+ ]+ ^+ /+ (+ _+ :+ <+ [+ }+ |+ 1+ 2+                                                                                                                                                                                                                                                                                                                                                                                                                                                                                                                                                                                                                ",
"                                                                                                                                                                                                                                                                                                                                                                                                                                                                                                                                                                                                                                                                                                                                                                                                                                                                                                                                                                                                                                                                                                                                    3+ 4+ 5+ 6+ 7+ 8+ 9+ 0+ a+ b+ c+ d+ e+ f+ g+ h+ i+ j+ k+ l+ m+ n+ o+ p+ q+ r+ s+ t+ u+ v+ w+ x+ y+ z+ A+ B+ C+ D+ E+                                                                                                                                                                                                                                                                                                                                                                                                                                                                                                                                                                                                                ",
"                                                                                                                                                                                                                                                                                                                                                                                                                                                                                                                                                                                                                                                                                                                                                                                                                                                                                                                                                                                                                                                                                                                                    F+ G+ H+ I+ J+ K+ L+ M+ N+ O+ P+ Q+ R+ S+ T+ U+ V+ W+ X+ Y+ Z+ `+  @ .@ +@ @@ #@ $@ %@ &@ *@ =@ -@ ;@ >@ ,@ '@ )@ !@                                                                                                                                                                                                                                                                                                                                                                                                                                                                                                                                                                                                                ",
"                                                                                                                                                                                                                                                                                                                                                                                                                                                                                                                                                                                                                                                                                                                                                                                                                                                                                                                                                                                                                                                                                                                                    ~@ {@ ]@ ^@ /@ (@ _@ :@ <@ [@ }@ |@ 1@ 2@ 3@ 4@ 5@ 6@ 7@ 8@ 9@ 0@ a@ b@ c@ d@ e@ f@ g@ h@ i@ j@ k@ l@ m@ n@ o@ p@ q@                                                                                                                                                                                                                                                                                                                                                                                                                                                                                                                                                                                                                ",
"                                                                                                                                                                                                                                                                                                                                                                                                                                                                                                                                                                                                                                                                                                                                                                                                                                                                                                                                                                                                                                                                                                                                    r@ s@ t@ u@ v@ w@ x@ y@ z@ A@ B@ C@ D@ E@ F@ G@ H@ b+ I@ J@ K@ L@ M@ N@ O@ P@ e@ Q@ R@ i@ S@ T@ U@ V@ W@ X@ Y@ Z@ `@                                                                                                                                                                                                                                                                                                                                                                                                                                                                                                                                                                                                                ",
"                                                                                                                                                                                                                                                                                                                                                                                                                                                                                                                                                                                                                                                                                                                                                                                                                                                                                                                                                                                                                                                                                                                                     # .# +# @# ## $# %# &# *# A@ =# -# ;# ># ,# '# )# H@ !# ~# {# ]# ^# /# (# _# :# <# [# }# |# 1# 2# 3# 4# 5# 6# 7# 8#                                                                                                                                                                                                                                                                                                                                                                                                                                                                                                                                                                                                                ",
"                                                                                                                                                                                                                                                                                                                                                                                                                                                                                                                                                                                                                                                                                                                                                                                                                                                                                                                                                                                                                                                                                                                                    9# 0# a# b# c# d# e# f# g# h# i# j# k# l# m# n# o# p# b+ q# r# s# t# u# v# w# x# y# z# A# B# C# D# E# F# G# H# I# J#                                                                                                                                                                                                                                                                                                                                                                                                                                                                                                                                                                                                                ",
"                                                                                                                                                                                                                                                                                                                                                                                                                                                                                                                                                                                                                                                                                                                                                                                                                                                                                                                                                                                                                                                                                                                                    K# L# M# N# O# P# Q# R# S# T# U# V# W# X# Y# Z# `#  $ .$ +$ @$ #$ $$ %$ &$ *$ =$ -$ ;$ >$ ,$ '$ )$ !$ ~$ {$ ]$ ^$ /$ ($                                                                                                                                                                                                                                                                                                                                                                                                                                                                                                                                                                                                             ",
"                                                                                                                                                                                                                                                                                                                                                                                                                                                                                                                                                                                                                                                                                                                                                                                                                                                                                                                                                                                                                                                                                                                                    _$ :$ <$ [$ }$ |$ 1$ 2$ 3$ 4$ 5$ 6$ 7$ 8$ 9$ 0$ a$ b$ c$ d$ e$ f$ g$ h$ i$ j$ k$ l$ m$ n$ o$ p$ q$ r$ s$ t$ u$ ~. v$ w$                                                                                                                                                                                                                                                                                                                                                                                                                                                                                                                                                                                                             ",
"                                                                                                                                                                                                                                                                                                                                                                                                                                                                                                                                                                                                                                                                                                                                                                                                                                                                                                                                                                                                                                                                                                                                    x$ y$ z$ A$ B$ C$ D$ E$ 7$ F$ G$ H$ I$ J$ K$ L$ M$ M$ N$ O$ P$ Q$ R$ S$ T$ U$ V$ W$ X$ Y$ Z$ `$  % .% +% @% #% $% %% &%                                                                                                                                                                                                                                                                                                                                                                                                                                                                                                                                                                                                             ",
"                                                                                                                                                                                                                                                                                                                                                                                                                                                                                                                                                                                                                                                                                                                                                                                                                                                                                                                                                                                                                                                                                                                                    *% =% -% ;% >% ,% '% )% !% ~% {% ]% ^% /% (% _% :% <% [% }% f$ |% 1% 2% 3% 4% 5% 6% 7% 8% 9% 0% a% b% c% d% e% f% g% h%                                                                                                                                                                                                                                                                                                                                                                                                                                                                                                                                                                                                             ",
"                                                                                                                                                                                                                                                                                                                                                                                                                                                                                                                                                                                                                                                                                                                                                                                                                                                                                                                                                                              i% j%                         k% l%                                                                                                          m% n% o% p% q% r% s% t% u% v% w% x% y% z% A% B% C% D% E% F% G% H% I% J% K% L% M% N% O% P% Q% R% S% T% U% V% W% X% Y% Z% `%  & .&                                                                                                                                                                                                                                                                                                                                                                                                                                                                                                                                                                                                             ",
"                                                                                                                                                                                                                                                                                                                                                                                                                                                                                                                                                                                                                                                                                                                                                                                                                                                                                                                                                                              +& @&                         #& $& %&                                                                                        && *& =& -& ;& >& ,& '& )& !& ~& {& ]& ^& /& (& _& :& <& [& }& |& 1& 2& 3& 4& 5& 6& K% 7& 8& 9& 0& a& b& c& d& T% e& f& g& h& i& j& k& l& m& q% n&                                                                                                                                                                                                                                                                                                                                                                                                                                                                                                                                                                                                          ",
"                                                                                                                                                                                                                                                                                                                                                                                                                                                                                                                                                                                                                                                                                                                                                                                                                                                                                                                                                                           o& p& q&                         r& s& t&                                                                               u& v& w& x& y& z& A& B& C& D& E& F& G& H& I& J& K& L& M& N& O& P& Q& R& S& T& U& V& W& X& Y& Z& `&  * .* +* @* #* $* U% %* &* ** =* -* ;* >* ,* '* f  )* !*                                                                                                                                                                                                                                                                                                                                                                                                                                                                                                                                                                                                          ",
"                                                                                                                                                                                                                                                                                                                                                                                                                                                                                                                                                                                                                                                                                                                                                                                                                                                                                                                                                                           ~* {* ]*                         ^* /* (*                                                                         _* :* <* [* }* C& |* 1* 2* 3* 4* 5* 6* 7* 8* 9* 0* a* b* c* d* e* f* g* h* i* j* k* l* m* n* o* p* q* r* s* t* u* v* w* x* y* z* A* B* C* D* E* F* G* H* I* J* K*                                                                                                                                                                                                                                                                                                                                                                                                                                                                                                                                                                                                          ",
"                                                                                                                                                                                                                                                                                                                                                                                                                                                                                                                                                                                                                                                                                                                                                                                                                                                                                                                                                                           L* M* N*                         O* P* Q*                                                                      R* S* T* U* V* W* X* Y* Z* `*  = X* .= += @= #= $= %= &= *= == -= ;= >= ,= '= )= != ~= {= ]= ^= /= (= _= := <= [= }= |= 1= 2= 3= 4= 5= 6= 7= 8= 9= 0= a= b= c= d= e=                                                                                                                                                                                                                                                                                                                                                                                                                                                                                                                                                                                                          ",
"                                                                                                                                                                                                                                                                                                                                                                                                                                                                                                                                                                                                                                                                                                                                                                                                                                                                                                                                                                              f= g=                      h= i= j= k=                                                                   l= m= n= o= p= q= r= s= t= u= 1* v= w= x= y= z= A= B= C= D= E= F= G= H= I= J= K= L= M= N= O= P= Q= R= S= T= U= V= W= X= Y= Z= `=  - .- +- @- @- #- $- %- &- *- =- -- ;- >-                                                                                                                                                                                                                                                                                                                                                                                                                                                                                                                                                                                                       ",
"                                                                                                                                                                                                                                                                                                                                                                                                                                                                                                                                                                                                                                                                                                                                                                                                                                                                                                                                                                              ,- '- )-                !- ~- {- ]-                                                                      ^- /- (- _- :- <- [- s= }- |- 1* 1- 2- 3- 4- 5- 6- 7- 8- 9- 0- a- b- c- d- e- f- g- h- i- j- k- l- m- n- o- p- q- r- s- t- u- v- w- x- y- z- A- z- B- C- D- E- F- G- H- I-                                                                                                                                                                                                                                                                                                                                                                                                                                                                                                                                                                                                       ",
"                                                                                                                                                                                                                                                                                                                                                                                                                                                                                                                                                                                                                                                                                                                                                                                                                                                                                                                                                                              J- K- L- M- N-    O- P- Q- R- S- T-                                                                   U- V- W- x& X- r=  = t- [- Y- 1- Z- `-  ; .; +; y= @; #; 7- $; %; &; *; =; -; ;; >; ,; '; ); !; ~; {; ]; ^; /; (; _; :- :; <; [; }; |; 1; 2; 3; 4; 5; 6; 7; 8; 9; 0; a; b; c;                                                                                                                                                                                                                                                                                                                                                                                                                                                                                                                                                                                                       ",
"                                                                                                                                                                                                                                                                                                                                                                                                                                                                                                                                                                                                                                                                                                                                                                                                                                                                                                                                                                           d; e; f; g; h; i; j; k; l; m; n; o; p;                                                                   q; r; s; t; u; v; w; B& [- x; y; z; A; B; C; D; W* E; F; G; H; I; J; K; L; M; 8  N; O; P; Q; R; S; T; U; V; W; X; Y; Z; `;  > .> +> @> #> $> $> %> &> *> => -> ;> >> ,> '> )>                                                                                                                                                                                                                                                                                                                                                                                                                                                                                                                                                                                                       ",
"                                                                                                                                                                                                                                                                                                                                                                                                                                                                                                                                                                                                                                                                                                                                                                                                                                                                                                                                                                        !> ~> {> ]> ^> /> (> _> :> <> [> }> |> 1>                                                                   2> 3> 4> 5> |- `* 6> 7> 8> ;& B& 9> A; 0> a> b> c> d> e> f> g> h> i> j> k> l> m> n> o> p> q> r> s> t> u> v> w> x> y> z> A> B> C> D> E> F> G> k. H> I> J> K> L> L> M> N> O> P>                                                                                                                                                                                                                                                                                                                                                                                                                                                                                                                                                                                                       ",
"                                                                                                                                                                                                                                                                                                                                                                                                                                                                                                                                                                                                                                                                                                                                                                                                                                                                                                                                                                        Q> R> S> T> U> V> W> C- X> Y> Z> `>  , .,                                                                   +, @, #, 5> $, %, &, *, ;& =, w= -, ;, >, ,, ', ), !, ~, {, ], ^, /, (, _, :, <, [, }, |, 1, 2, 3, 4, 5, 6, 7, 8, B> 9, 0, a, b, c, d, e, C> f, g, h, i, j, k, l, m, n, o, p,                                                                                                                                                                                                                                                                                                                                                                                                                                                                                                                                                                                                       ",
"                                                                                                                                                                                                                                                                                                                                                                                                                                                                                                                                                                                                                                                                                                                                                                                                                                                                                                                                                                        q, r, s, t, u, v, w, x, y, z, A, B, C, D,                                                                   E, @, F, 5> G, H, I, J, ;& K, L, 1- M, N, O, P, Q, R, S, T, U, V, W, X, Y, Z, `,  ' .' |> +' @' #' $' %' &' *' =' -' ;' >' ,' '' )' !' ~' {' ]' ^' /' (' _' :' <' [' }' |' 1'                                                                                                                                                                                                                                                                                                                                                                                                                                                                                                                                                                                                       ",
"                                                                                                                                                                                                                                                                                                                                                                                                                                                                                                                                                                                                                                                                                                                                                                                                                                                                                                                                                                        2' 3' 4' 5' 6' 7' 8' 9' 0' 9' a' b' c' d'                                                                   e' f' g' h' i' j' k' l' #, m' 6> n' o' p' q' r' s' t' F; u' v' w' x' y' z' A' B' C' D' E' +' @' F' G' H' I' J' K' L' M' N' O' P' Q' R' S' T' h, Q' (, (' U' V' W' X' Y' Z' `'                                                                                                                                                                                                                                                                                                                                                                                                                                                                                                                                                                                                       ",
"                                                                                                                                                                                                                                                                                                                                                                                                                                                                                                                                                                                                                                                                                                                                                                                                                                                                                                                                                                         ) .) +) @) #) $) %) &) *) =) -) ;) >) N. ,) ')                                                             )) !) ~) {) ]) ^) /) () _) _) :) <) [) }) |) 1) 2) 3) 4) 8- 5) W. 6) 7) 8) 9) 0) a) b) c) d) e) f) g) h) i) j) k) l) m) n) P' b) R' B' o) p) q) r) r) L' s) t) t) u) v) => w)                                                                                                                                                                                                                                                                                                                                                                                                                                                                                                                                                                                                       ",
"                                                                                                                                                                                                                                                                                                                                                                                                                                                                                                                                                                                                                                                                                                                                                                                                                                                                                                                                                                        x) y) z) A) B) C) D) E) F) G) H) I) J) K) L) M) N) O) P) Q)                                                 R) S) T) U) w> V) W) X) Y) Z) `)  ! .! +! 1) @! #! $! %! &! *! y$ =! O  -! ;! >! ,! '! )! !! ~! {! ]! ^! /! >! (! _! P' :! 9, <! [! B> }! |! |! 1! 2! 3! u) 4! 5! 6! 7! 8! 9!                                                                                                                                                                                                                                                                                                                                                                                                                                                                                                                                                                                                       ",
"                                                                                                                                                                                                                                                                                                                                                                                                                                                                                                                                                                                                                                                                                                                                                                                                                                                                                                                                                                  0! a! b! c! d! e! f! g! h! i! j! k! l! m! n! o! p! q! r! s! t! u! v! w! x! y! z!                                  A! B! C! D! Y* E! F! G! H! I! J! Z- K! L! M! N! O! P! Q! R! S! T! U! V! W! /' =' X! ~' !' Y! C> ]! Z! `!  ~ .~ +~ Z' @~ #~ $~ %~ &~ *~ =~ -~ ;~ >~ ,~ '~ )~ !~ ~~ {~ ]~ 8! ^~                                                                                                                                                                                                                                                                                                                                                                                                                                                                                                                                                                                                       ",
"                                                                                                                                                                                                                                                                                                                                                                                                                                                                                                                                                                                                                                                                                                                                                                                                                                                                                                                        /~ (~ _~ :~ <~ [~                      }~ |~ 1~ 2~ 3~ 4~ 5~ _> 6~ 7~ 8~ 9~ 9~ 0~ a~ b~ c~ d~ e~ 6~ _> k' f~ g~ h~ E& i~ j~ k~ l~ m~ n~ o~                   p~ q~ r~ s~ t~ u~ 3> v~ w~ x~ y~  = z~ z= A~ B~ C~ D~ E~ F~ G~ H~ I~ J~ K~ )! 1, L~ )! M~ <! N~ O~ P~ /! Q~ #~ R~ S~ T~ U~ #~ V~ %~ *~ W~ X~ Y~ Z~ `~  { .{ +{ @{ #{ ${ %{ i. &{                                                                                                                                                                                                                                                                                                                                                                                                                                                                                                                                                                                                    ",
"                                                                                                                                                                                                                                                                                                                                                                                                                                                                                                                                                                                                                                                                                                                                                                                                                                                                                                            *{ ={ -{ ;{ >{ ,{ '{ ){ !{ ~{ {{ ]{ ^{ /{ ({ _{ :{ <{ [{ }{ |{ 1{ 2{ 3{ 4{ 5{ 6{ 7{ 8{ 9{ 0{ a{ b{ c{ d{ e{ f{ g{ h{ a{ i{ j{ k{ l{ d% m{ x; n{ o{ p{ q{ r{ s{ t{ u{    v{ w{ x{ y{ !, z{ A{ B{ .= C{ w; D{ E{ F{ G{ H{ I{ J{ 2{ 4' K{ L{ M{ K  N{ O{ b) 9, P{ P{ Q{ R{ S{ T{ /! U{ V{ W{ X{ F- Y{ Z{ W~ Y~ `{  ] .] +] @] #] $] %] &] *] %] =] -] ;] >]                                                                                                                                                                                                                                                                                                                                                                                                                                                                                                                                                                                                    ",
"                                                                                                                                                                                                                                                                                                                                                                                                                                                                                                                                                                                                                                                                                                                                                                                                                                                                                                            ,] '] )] !] ~] {] ]] ^] /] (] _] :] <] [] }] |] 1] 2] 3] 4] 5] 6] 7] 8] t{ 9] 0] a] b] c] d] e] f] g] h] i] j] k] l] m] n] o] D! p] q] r] p; s] t] u] v] w] J{ x] y] z]    A] B] C] D] %! E] 5- F] F] D{ A= %! G{ H{ G] H] I] o% J] K] L] M] N] O] P] Y! M~ c, Q] R] R{ S] T]  ~ U] V] W] X] Y] [! Z]  ] `]  ^ .^ -) +^ @^ #^ .] $^ %^ &^ *^ =^ -^ ;^ >^                                                                                                                                                                                                                                                                                                                                                                                                                                                                                                                                                                                                    ",
"                                                                                                                                                                                                                                                                                                                                                                                                                                                                                                                                                                                                                                                                                                                                                                                                                                                                                                            ,^ '^ )^ !^ ~^ {^ ]^ ^^ /^ (^ _^ :^ <^ [^ }^ |^ 1^ 2^ 3^ 4^ 5^ 6^ 7^ 8^ 9^ 0^ a^ b^ .! c^ $, q! d^ e^ f^ g^ h^ i^ j^ k^ l^ m^ B; w~ n^ o^ p^ q^ r^ s^ t^ u^ v^ w^ x^ y^       z^ A^ B^ B~ C^ D^ D& 7* n{ @; E^ F^ F^ G^ H^ I^ J^ K^ L^ M^ N^ O^ P^ Q^ R^ o) Y{ S^ T^ U^ V^ W^ #^ X^ Y^ Z^ `^  / <! ./  ] $] +/ @/ *) *) #/ .] +/ $/ %/ &/ */ `~ =/ -/ ;/                                                                                                                                                                                                                                                                                                                                                                                                                                                                                                                                                                                                    ",
"                                                                                                                                                                                                                                                                                                                                                                                                                                                                                                                                                                                                                                                                                                                                                                                                                                                                                                         >/ ,/ '/ )/ !/ ~/ {/ ]/ ^/ // (/ _/ :/ </ [/ }/ |/ 1/ 2/ 3/ 4/ 5/ 6/ 7/ 8/ 9/ 0/ a/ b/ c/ w] d/ e/ q^ f/ g/ f] h/ i/ j/ k/ l/ m/ n/ o/ p/ q/ p^ r/ s/ t/ [- 1* u/ v/ w/ x/ y/       z/ A/ B/ C/ D/ E/ F/ G/ H/ I/ J/ K/ L/ M/ H{ N/ O/ P/ Q/ R/ S/ q/ L  T/ Y! U/ V/ W/ X/ ./ Y/ +/ Z/ `/  ( 7) I> Y{ .( +( @( #( $( %( &( *( =( #^ -( ;( >( ,( .^ '( )( !(                                                                                                                                                                                                                                                                                                                                                                                                                                                                                                                                                                                                    ",
"                                                                                                                                                                                                                                                                                                                                                                                                                                                                                                                                                                                                                                                                                                                                                                                                                                                                                                         ~( {( ]( ^( /( (( _( :( <( [( }( |( 1( 2( 3( 4( 5( 6( 7( 8( 9( 0( a( b( c( d( e( f( g( h( i( j( k( l( 9] m( n( o( p( q( r( s( 1* t( *, u( u( v( w( ~- x( u= y( z( A( B( C( D( E( F( G( H( I( J( K( L( F/ @; B~ M( N( O( O( P( Q( R( H/ S( T( U( V( W( X( Y( %~ Z( `(  _ ._ +_ @_ #] `~ b) #_ b) e, B> $_ %_ &_ *_ =_ -_ ;_ >_ ,_ '_ %) )_ !_ ~_ {_ ]_ ^_ /_                                                                                                                                                                                                                                                                                                                                                                                                                                                                                                                                                                                                    ",
"                                                                                                                                                                                                                                                                                                                                                                                                                                                                                                                                                                                                                                                                                                                                                                                                                                                                                                         (_ __ :_ <_ p~ [_ }_ |_ 1_ 2_ 3_ 4_ 5_ 6_ 7_ 8_ 9_ 0_ a_ b_ c_ d_ e_ f_ g_ h_ i_ j_ k_ l_ m_ n_ o_ p_ q_ r_ s_ t_ u_ v_ w_ C{ x_ y_ r~ z_ A_ i{ B_ A& G, C_ D_ E_ D- F_ G_ H_ I_ J_ K_ L_ M_ N_ N_ O_ P_ C~ S, Q_ R_ S_ T_ U_ V_ W_ X_ Y_ d/ Z_ `_  : .: +: :' @: %~ #: $: %: &: `{ *: m) =: -: U/ ;: >: ,: ': ): d^ !: !: ~: {: {: ]: ^: /: (: _: :: <: [:                                                                                                                                                                                                                                                                                                                                                                                                                                                                                                                                                                                                    ",
"                                                                                                                                                                                                                                                                                                                                                                                                                                                                                                                                                                                                                                                                                                                                                                                                                                                                                                         }: |: 1: 2: 3: 4: 5: E$ 6: 7: 8: 9: 0: a: b: c: d: e: f: g: h: i: j: k: l: m: n: o: p: q: r: s: t: u: v: w: x: y: z: A: B: C: D: E: F: G: H: <) I: J: K: L: M: N: O: P: Q: R: S: T: U: V: W: X: Y: Z: `:  < .< +< R_ @< #< $< %< &< *< =< -< ;< >< .' ,< '< )< !< Z] Z] ~< {< ]< ^< /< (< _< :< << [< }< |< 1< 2< K, 3< 4< 5< 6< 7< 8< 9< 0< a< b< c< d< e< f< g< h< i< j< j< k< l< m< n< o< p< q< r<                                                                                                                                                                                                                                                                                                                                                                                                                                                                                                                                                          ",
"                                                                                                                                                                                                                                                                                                                                                                                                                                                                                                                                                                                                                                                                                                                                                                                                                                                                                                         s< t< u< v< w< x< y< z< A< B< C< D< E< F< G< H< I< J< K< L< M< N< O< P< Q< R< S< T< U< V< W< X< Y< Z< `<  [ .[ +[ @[ #[ $[ %[ &[ *[ =[ -[ ;[ D{ s= >[ ,[ '[ )[ M: ![ W> ~[ {[ D! ][ ^[ /[ ([ _[ ;< :[ <[ G/ [[ +< }[ |[ 1[ 2[ 3[ W_ 4[ u< 5[ 6[ 7[ 8[ 9[ 0[ a[ b[ c[ l, d[ e[ d) f[ Z, g[ h[ i[ D' j[ k[ l[ m[ m[ n[ o[ p[ q[ r[ s[ t[ u[ v[ w[ x[ y[ z[ A[ B[ C[ D[ E[ :$ F[ G[ H[ I[ J[ K[ L[ M[ N[ O[ P[                                                                                                                                                                                                                                                                                                                                                                                                                                                                                                                                                    ",
"                                                                                                                                                                                                                                                                                                                                                                                                                                                                                                                                                                                                                                                                                                                                                                                                                                                                                                         Q[ R[ S[ T[ U[ V[ W[ X[ Y[ Z[ `[  } .} +} @} #} $} %} &} *} =} -} ;} >} ,} '} )} !} ~} {} ]} ^} /} (} _} :} <} [} }} |} 1} 2} 3} 4} 5} 6} 7} 8} 9} I{ s/ 0} a} (> b} c} d} e} (> f} g} h} 4~ i} j} b] n% a] k} l} m} n} o} p} q} r} F{ s} t} u} v} w} ;> x} y} z} ^< A} B} X^ C} D} E} F} G} H} I} J} K} L} M} N} O} P} Q} R} S} v] T} U} V} W} X} Y} Z} `} u,  | .| +| @| #| $| %| &| *| =| -| ;| >| ,| '|                                                                                                                                                                                                                                                                                                                                                                                                                                                                                                                                                    ",
"                                                                                                                                                                                                                                                                                                                                                                                                                                                                                                                                                                                                                                                                                                                                                                                                                                                                                                         )| !| ~| {| ]| ^| /| (| _| :| <| [| }| p~ || 1| 2| 3| 4| 5| 6| 7| 8| 9| 0| a| b| c| d| e| f| g| h| i| j| k| l| m| n| ]] o| p| q| r| s| t| u| v| w| x| y| z| E: A| B| C| D| E| G! F| () G| H| I| #= E& J| K| 3) L| M| N| O| P| k} K| Q| R| R! S| T| U| V| W| X| Y| Z| `|  1 .1 -~ +1 J' !~ @1 #1 $1 %1 &1 *1 =1 -1 ;1 >1 ,1 '1 )1 !1 ~1 {1 ]1 ^1 /1 (1 _1 :1 <1 [1 }1 d, '! ,! |1 11 21 31 41 51 61 71 81 91 01                                                                                                                                                                                                                                                                                                                                                                                                                                                                                                                                                 ",
"                                                                                                                                                                                                                                                                                                                                                                                                                                                                                                                                                                                                                                                                                                                                                                                                                                                                                                            a1 b1 c1 d1 e1 f1 g1 h1 i1 j1 k1 l1 m1 n1 o1 p1 q1 r1 s1 t1 u1 v1 w1 x1 =} y1 z1 A1 B1 C1 D1 E1 F1 G1 H1 I1 J1 K1 c_ L1 M1 N1 O1 P1 Q1 R1 S1 T1 U1 V1 W1 X1 Y1 c/ Z1 k} J| w_ l/ i' x{ `1  2 .2 +2 @2 #2 $2 %2 &2 *2 =2 -2 ;2 >2 ,2 '2 )2 !2 ~2 {2 ]2 ^2 +^ /2 (2 _2 :2 u, <2 -' [2 }2 |2 12 22 32 42 52 62 72 82 92 02 a2 b2 c2 d2 e2 f2 g2 `{ h2 i2 j2 k2 l2 m2 n2 o2 p2 q2 r2 s2 t2 u2 v2 w2 x2 y2 z2 A2                                                                                                                                                                                                                                                                                                                                                                                                                                                                                                                                                 ",
"                                                                                                                                                                                                                                                                                                                                                                                                                                                                                                                                                                                                                                                                                                                                                                                                                                                                                                            B2 C2 D2 E2 F2 G2 H2 I2 J2 K2 L2 M2 N2 O2 P2 Q2 R2 S2 T2 U2 V2 W2 X2 Y2 Z2 `2  3 .3 +3 @3 #3 $3 %3 &3 *3 =3 -3 ;3 >3 ,3 '3 h| )3 !3 ~3 {3 ]3 ^3 /3 (3 _3 :3 <3 [3 }3 |3 13 B! y] 23 V* h= 33 43 r; 53 63 73 83 93 03 a3 b3 C~ c3 d3 d! '& e3 f3 g3 h3 i3 j3 k3 a[ l3 m3 n3 S^ }! o3 &: o) p/ p3 q3 r3 s3 t3 u3 v3 w3 x3 y3 z3 A3 B3 C3 D3 E3 F3 h2 G3 H3 I3 J3 K3 L3 M3 N3 O3 P3 Q3 R3 S3 T3 U3 V3 W3 X3 Y3                                                                                                                                                                                                                                                                                                                                                                                                                                                                                                                                                 ",
"                                                                                                                                                                                                                                                                                                                                                                                                                                                                                                                                                                                                                                                                                                                                                                                                                                                                                                            Z3 p{ `3  4 .4 +4 @4 #4 $4 *, %4 &4 *4 =4 -4 ;4 >4 ,4 '4 )4 !4 ~4 {4 ]4 ^4 /4 (4 _4 :4 <4 [4 }4 |4 14 24 34 44 54 64 74 84 94 04 a4 b4 c4 d4 e4 f4 g4 h4 i4 j4 k4 l4 m4 n4 o4 p4 q4 r4 s4 t4 u4 v4 E/ w4 x4 y4 z4 {( A4 B4 C4 D4 E4 F4 G4 ;< i{ H4 I4 J4 K4 h3 L4 M4 N4 O4 P4 Q4 R4 S4 T4 W( U4 V4 W4 X4 Y4 Z4 `4  5 .5 +5 @5 #5 $5 %5 &5 *5 =5 -5 ;5 >5 ,5 '5 )5 !5 ~5 {5 ]5 ^5 /5 (5 _5 :5 <5 [5 }5 |5 15                                                                                                                                                                                                                                                                                                                                                                                                                                                                                                                                                 ",
"                                                                                                                                                                                                                                                                                                                                                                                                                                                                                                                                                                                                                                                                                                                                                                                                                                                                                                            25 35 45 55 65 75 85 95 1* 05 :[ a5 b5 c5 d5 e5 f5 g5 h5 i5 j5 k5 l5 m5 n5 o5 p5 q5 r5 s5 t5 u5 v5 w5 x5 y5 z5 A5 Q< B5 C5 D5 E5 F5 G5 H5 I5 J5 K5 L5 M5 N5 O5 P5 Q5 R5 S5 T5 U5 V5 W5 X5 Y5 Z5 `5 2~  6 .6 .6 +6 @6 #6 $6 %6 &6 *6 =6 -6 _[ ;6 >6 ,6 '6 )6 !6 ~6 {6 ]6 ^6 /6 0* /6 (6 _6 :6 <6 [6 }6 |6 16 26 36 46 56 66 76 86 96 06 a6 +1 b6 c6 d6 e6 f6 g6 _, h6 i6 j6 k6 l6 m6 n6 o6 p6 q6 r6 >> s6 t6                                                                                                                                                                                                                                                                                                                                                                                                                                                                                                                                                 ",
"                                                                                                                                                                                                                                                                                                                                                                                                                                                                                                                                                                                                                                                                                                                                                                                                                                                                                                            u6 v6 w6 x6 y6 z6 A6 B6 C6 D6 3{ ^( E6 F6 G6 H6 I6 J6 K6 L6 M6 N6 O6 P6 Q6 R6 S6 T6 U6 V6 W6 X6 Y6 Z6 `6  7 .7 +7 @7 #7 $7 %7 &7 *7 =7 -7 ;7 >7 '3 ,7 '7 )7 !7 ~7 {7 ]7 ^7 /7 (7 _7 :7 <7 [7 }7 |7 17 27 37 47 57 B: 67 77 87 97 07 a7 b7 c7 d7 e7 f7 m! g7 h7 i7 j7 k7 l7 m7 n7 o7 ~2 p7 q7 r7 s7 t7 u7 v7 e+ w7 x7 y7 z7 A7 B7 C7 D7 E7 U/ <! b) T' F7 G7 H7 I7 J7 I> K7 L7 M7 N7 O7 P7 Q7 R7 S7 T7 U7 V7 W7             X7 Y7                                                                                                                                                                                                                                                                                                                                                                                                                                                                                                                            ",
"                                                                                                                                                                                                                                                                                                                                                                                                                                                                                                                                                                                                                                                                                                                                                                                                                                                                                                            || Z7 `7  8 .8 +8 @8 #8 6> $8 %8 &8 *8 =8 -8 ;8 >8 ,8 '8 )8 !8 ~8 {8 ]8 ^8 /8 (8 _8 :8 <8 [8 }8 |8 18 28 38 48 58 68 78 88 98 08 a8 b8 c8 d8 e8 m| f8 g8 h8 i8 j8 k8 l8 m8 n8 o8 p8 q8 r8 s8 t8 u8 v8 w8 x8 y8 z8 A8 B8 C8 D8 E8 F8 G8 H8 I8 J8 K8 L8 M8 N8 O8 D' P8 Q8 R8 S8 T8 U8 V8 W8 X8 Y8 Z8 `8  9 .9 +9 @9 #9 $9 %9 &9 *9 =9 .# -9 ;9 >9 ,9 '9 )9 !9 ~9 {9 ]9 K; ^9 /9 (9 _9 :9 <9 [9 }9 |9 19 29 39 49 59 69 79 89 99 09 a9 b9 c9 d9 e9                                                                                                                                                                                                                                                                                                                                                                                                                                                                                                             ",
"                                                                                                                                                                                                                                                                                                                                                                                                                                                                                                                                                                                                                                                                                                                                                                                                                                                                                                            f9 g9 `7 h9 i9 j9 k9 l9 m9 n9 o9 p9 q9 r9 s9 t9 u9 v9 w9 x9 y9 z9 A9 B9 C9 D9 E9 F9 G9 H9 I9 J9 K9 L9 p5 M9 N9 O9 P9 Q9 R9 S9 T9 U9 V9 W9 X9 Y9 Z9 `9  0 .0 +0 @0 #0 $0 %0 &0 &0 *0 =0 -0 ;0 >0 ,0 '0 )0 !0 ~0 {0 ]0 ^0 /0 (0 _0 :0 <0 [0 }0 |0 10 20 30 40 50 60 70 80 90 00 a0 b0 a0 c0 d0 e0 f0 g0 h0 i0 j0 k0 l0 m0 n0 o0 p0 q0 r0 A( s0 t0 }$ u0 v0 w0 x0 y0 z0 A0 B0 C0 D0 E0 |+ F0 G0 H0 I0 J0 K0 L0 M0 N0 O0 P0 Q0 R0 S0 T0 U0 V0 W0 X0 Y0                                                                                                                                                                                                                                                                                                                                                                                                                                                                                                          ",
"                                                                                                                                                                                                                                                                                                                                                                                                                                                                                                                                                                                                                                                                                                                                                                                                                                                                                                            Z0 `0  a .a +a @a #a $a %a &a E& *a =a -a ;a >a ,a 'a )a !a !a ~a {a ]a ^a /a (a _a :a <a [a }a |a 1a 2a 3a 4a 5a 6a 7a 8a 9a 0a aa ba ca da ea fa ga d| 44 5( ha ia ja ka la ma na oa pa qa ra sa N< ta ua va wa xa ya za Aa Ba Ca Da Ea Fa Ga Ha ], Ia Ja Ka La Ma Na Oa Pa Qa Ra Sa Ta Ua Va Wa Xa Ya Za `a  b .b +b @b __ #b $b %b &b *b =b -b ;b N] >b ,b 'b )b !b f/ g0 ~b {b ]b ^b /b (b _b ^6 :b <b D7 [b }b |b 1b 2b 3b 4b 5b 6b 7b 8b 9b 0b                                                                                                                                                                                                                                                                                                                                                                                                                                                                                                       ",
"                                                                                                                                                                                                                                                                                                                                                                                                                                                                                                                                                                                                                                                                                                                                                                                                                                                                                                               ab t& bb cb db eb fb gb hb ib jb kb lb mb nb ob pb qb rb sb tb ub vb wb xb na yb zb Ab Bb Cb Db Eb Fb Gb Hb Ib Jb Kb Lb Mb Nb Ob Pb Qb Rb Sb Tb Ub Vb Wb Xb Yb Zb `b  c .c +c @c #c $c %c &c *c =c -c ;c >c ,c 'c )c !c ~c {c ]c ^c $} /c (c _c :c <c [c }c |c 1c 2c L) 3c 4c 5c 6c 7c 8c 9c (2 0c ac bc cc dc ec fc gc hc b7 ic jc kc lc mc nc  & oc pc qc rc q7 sc tc uc vc wc xc yc |  zc Ac Bc Cc Dc Ec Fc Gc Hc Ic Jc Kc Lc Mc Nc Oc Pc Qc Rc Sc                                                                                                                                                                                                                                                                                                                                                                                                                                                                                                    ",
"                                                                                                                                                                                                                                                                                                                                                                                                                                                                                                                                                                                                                                                                                                                                                                                                                                                                                                                  Tc Uc Vc Wc Xc N2 v6 Yc Zc `c  d .d +d @d #d $d %d &d *d =d -d ;d ub >d ,d 'd )d !d ~d {d ]d ^d /d (d _d :d <d [d }d |d 1d 2d 3d 4d 5d 6d 7d 8d 9d 0d ad bd h4 cd N6 dd ed fd gd hd $c id (a $c jd kd ld l: md nd od pd qd rd sd td ud vd wd xd yd zd Ad Bd I= %1 Cd Z_ Dd Ed Fd Gd Hd Id Jd Kd z, Ld Md Nd Od Pd ,* y- Qd Rd Sd Td Ud Vd kc Wd Xd m& $1 Yd Zd `d  e .e +e @e #e $e %e &e *e =e -e ;e >e ,e 'e )e !e ~e {e ]e ^e /e (e _e :e <e [e }e |e 1e 2e 3e 4e 5e 6e 7e 8e 9e 0e ae t@ be ce de ee fe ge                                                                                                                                                                                                                                                                                                                                                                                                                                        ",
"                                                                                                                                                                                                                                                                                                                                                                                                                                                                                                                                                                                                                                                                                                                                                                                                                                                                                                                     he ie je ke le me ne oe pe qe re se te ue ve we !a xe na ye #c ze Ae Be ub Ce De Ee Fe Ge He Ie Je Ke Le Me Ne Oe Pe Qe Re Se Te Ue Ve We Xe Ye Ze `e  f .f +f @f #f $f %f &f 8( *f =f -f $c ;f >f ,f 'f )f !f `b ~f {f ]f ^f /f (f _f :f <f [f }f |f 1f 2f 3f 0] 4f 5f 6f R0 7f 8f 9f o^ .' 0f af bf cf df ef ff e} gf hf b~ if jf kf lf Td mf nf of pf qf rf sf tf uf vf wf xf yf zf ;e Af Bf Cf Df Ef Ff Gf Hf If Jf If Kf Lf Mf Nf Of Pf Qf Rf Sf Tf Uf Vf Wf Xf Yf Zf `f  g .g +g @g #g $g %g G0 b[ &g *g                                                                                                                                                                                                                                                                                                                                                                                                                                     ",
"                                                                                                                                                                                                                                                                                                                                                                                                                                                                                                                                                                                                                                                                                                                                                                                                                                                                                                                        =g -g ;g >g ,g 'g )g !g ~g {g ]g ^g /g (g ;d _g :g <g [g }g |g Ae Be 1g ]8 2g 3g 4g 5g 6g 7g 8g 9g 0g ag bg cg dg eg fg C{ gg hg ig jg kg lg mg ng og pg qg rg sg tg ug vg wg xg yg zg Ag Bg Cg Dg we Eg Fg Gg Hg ye Ig f_ Jg Kg Lg Mg Ng Og Pg Qg Rg Sg Tg Ug Vg Wg Xg Yg Zg `g P*  h .h +h p3 @h #h $h %h &h *h =h -h ;h >h if ,h 'h )h g] !h Ya b7 ~h {h ]h ^h [- /h (h _h :h <h [h }h |h Xf 1h 2h 3h 4h 5h 6h 7h 8h 9h 0h ah k< bh ch dh D[ E. eh fh gh hh ih jh kh lh mh nh oh ph qh rh -. sh th uh vh wh                                                                                                                                                                                                                                                                                                                                                                                                                                  ",
"                                                                                                                                                                                                                                                                                                                                                                                                                                                                                                                                                                                                                                                                                                                                                                                                                                                                                                                        xh yh zh Ah Bh Ch Dh Eh Fh Gh Hh Ih Jh P6 Kh g8 Lh +0 Mh Nh Oh ~a Ae Ph Qh Rh Sh Th Uh Vh Wh Xh Yh Zh `h  i .i +i @i #i $i %i &i *i =i -i ;i >i ,i 'i )i !i ~i {i ]i ^i /i (i _i :i <i {7 [i }i |i 1i 2i 3i la 4i 5i na 6i 7i 8i 9i m| 0i ai bi ci di ei fi gi hi ii ji ki li mi ni oi pi qi ri si ti ui vi =i wi xi yi zi Ai Oa Bi e0 ~[ Ci c{ Di m] Ei Fi #, &, 3> Gi Hi Ii Ji Ki Li Mi Ni Oi Pi Qi Ri Si Ti Ui Vi Wi Xi Yi Zi `i  j .j +j @j #j $j O> %j &j *j =j -j ;j >j ,j 'j )j |1 !j ~j {j ]j ^j /j (j _j                                                                                                                                                                                                                                                                                                                                                                                                                               ",
"                                                                                                                                                                                                                                                                                                                                                                                                                                                                                                                                                                                                                                                                                                                                                                                                                                                                                                                           :j <j [j }j |j 1j 2j 3j 4j 5j 6j 7j 8j 9j 0j aj bj cj dj ej fj 'd gj hj ij jj kj lj mj nj oj pj qj rj sj tj uj vj wj xj D| w= yj zj u- Aj Bj Cj u} Dj Ej Fj Gj Hj Ij Jj Kj Lj Mj Nj Oj b| Pj Qj Rj Sj Tj Uj Vj Wj Gg 'd Xj Yj vb Zj `j Lh  k .k +k @k #k $k %k &k *k =k -k ;k >k ,k /- 'k )k !k ~k 7* {k w^ ]k ^k /k (k _k w- k^ :k <k [k b7 }k e} *i |- |k /h 1k 2k s- 3k 4k 5k 6k 7k 8k 9k 0k ak bk ck dk ek fk %j gk hk ik jk kk lk mk nk ok pk qk rk sk tk uk vk wk xk yk zk Ak Bk Ck #/ Dk Ek Fk Gk Hk Ik                                                                                                                                                                                                                                                                                                                                                                                                                               ",
"                                                                                                                                                                                                                                                                                                                                                                                                                                                                                                                                                                                                                                                                                                                                                                                                                                                                                                                           Jk Kk Lk Mk Nk Ok Pk Qk Rk Sk Tk Uk Vk Wk Xk Yk Zk `k  l .l +l -3 @l #l $l %l &l *l =l -l ;l >l ,l 'l )l !l ~l {l ]l ^l /l (l _l :l l{ <l [l u/ }l |l 9f 1l 2l 3l 4l 5l 6l 7l 8l 9l 0l al bl cl dl el fl gl hl il jl kl ll ml nl ol pl ql Gg l| rl 44 sl '} tl ul vl wl xl yl zl Al Bl Cl Dl El U* Fl 43 Gl Hl Il Jl Kl Ll G: Ml Nl Ol hc Pl Ql Rl Sl Tl Ul Vl Wl Xl Yl A{ Zl `l  m .m +m @m #m $m ^5 %m &m *m =m -m ;m >m ,m 'm )m !m ~m {m ]m ^m /m (m _m :m <m [m }m |m 1m 2m 2m 3m 8' 4m 5m 6m 7m 8m 9m 0m                                                                                                                                                                                                                                                                                                                                                                                                                               ",
"                                                                                                                                                                                                                                                                                                                                                                                                                                                                                                                                                                                                                                                                                                                                                                                                                                                                                                                           am bm cm dm em fm gm hm im jm km lm mm nm om pm qm rm sm )7 gj tm @l um vm wm xm ym zm Am Bm Cm Dm Em Fm Gm Hm Im Jm Km Lm Mm Nm Om Pm x( V) Qm x> Rm Sm Tm Um Vm Wm Xm Ym C: Zm `m  n .n +n @n #n $n %n &n *n =n -n ;n >n ,n 'n Mh fj )n !n ~n {n D9 ]n ^n /n (n !} _n :n <n [n }n |n 1n 2n 3n 4n 5n 6n 7n 8n 9n 0n an Ki bn 4{ cn dn en 4* 5* 1k J| z= fn gn hn in Ji jn kn ln mn nn on pn qn rn sn tn un vn wn xn yn zn An Bn Cn Dn En Fn Gn Hn In Hn Gn Jn Kn Ln Mn Nn On Pn Qn Rn Sn Tn Un Vn Wn Xn Yn Zn                                                                                                                                                                                                                                                                                                                                                                                                                               ",
"                                                                                                                                                                                                                                                                                                                                                                                                                                                                                                                                                                                                                                                                                                                                                                                                                                                                                                                           `n  o .o +o 4@ @o #o $o %o &o *o =o -o ;o >o ,o 'o )o !o ~o {o -3 ]o ^o /o (o _o :o <o [o }o |o 1o 2o 3o 4o 5o 6o 7o R# 8o 9o 0o ao bo co x] do eo n] fo go ho v} io jo ko o] lo mo no oo po qo ro so to uo vo wo xo yo zo Ao Bo jl Co Xj wb Yj Do Eo $c Fo Go Ho Io Jo Ko e8 Lo Mo No Oo Po Qo Ro So To Uo Vo Wo Xo _l Yo Zo `o  p .p +p @p #p $p %p &p *p =p -p ;p >p ,p 'p == )p o) !p ~p {p ]p ^p /p (p _p :p <p [p }p |p 1p 2p 3p 4p 5p 6p 7p 8p 9p 0p ap bp cp dp ep fp gp hp ip jp kp lp mp np op pp qp                                                                                                                                                                                                                                                                                                                                                                                                                               ",
"                                                                                                                                                                                                                                                                                                                                                                                                                                                                                                                                                                                                                                                                                                                                                                                                                                                                                                                           rp sp tp 6@ up vp wp xp yp zp Ap Bp Cp Dp Ep Fp Gp Hp Ip Jp Kp Lp Mp }^ Np Op Pp Qp Rp Sp Tp Up Vp Wp Xp Yp Zp `p  q kb .q =4 +q @q #q $q %q &q *q =q -q ;q >q ,q 'q )q !q ~q eo {q ]q ^q /q (q _q :q <q [q }q |q 1q 2q 3q 4q 5q 6q 7q 8q 9q id 0q 'd 'd >f aq >f :g bq cq dq eq fq gq hq iq jq kq lq mq nq oq pq qq rq sq tq uq vq wq xq yq zq Aq Bq Cq Dq Eq Fq Gq Hq Iq Tm Jq Kq e, Lq [p Mq Nq |p Oq Pq Qq Rq Sq Tq Uq Vq Wq Xq Yq Zq `q  r .r +r Nn ap @r #r $r %r &r *r =r -r ;r >r ,r 'r )r !r ~r {r ]r                                                                                                                                                                                                                                                                                                                                                                                                                               ",
"                                                                                                                                                                                                                                                                                                                                                                                                                                                                                                                                                                                                                                                                                                                                                                                                                                                                                                                           ^r /r (r _r :r <r up [r }r |r 1r 2r 3r 4r 5r 6r 7r 8r 9r 0r ar br cr dr er fr gr hr ir jr kr lr mr nr Wp or pr qr rr sr tr ur vr wr xr yr zr Ar Br Cr Dr Er [6 Fr Gr 6> Hr Ir Jr Kr Lr Mr Nr Or Pr Qr Rr Sr Tr Ur Vr Wr Xr Yr Zr `r  s .s +s @s #s {n $s ub %s tb &s *s =s -s ;s &s 1g ;7 >s ,s 's )s !s ~s {s ]s ^s /s (s _s :s <s [s }s |s 1s 2s 3s 4s 5s 6s 7s 8s 9s 0s as S^ Y> Y/ bs cs b' b' b' ds es fs gs hs (: (: is js ks Xq En ls ms |m Nn ns os ds ps qs Ln rs ss ts us vs ws us xs ys zs As Bs '|                                                                                                                                                                                                                                                                                                                                                                                                                               ",
"                                                                                                                                                                                                                                                                                                                                                                                                                                                                                                                                                                                                                                                                                                                                                                                                                                                                                                                              Cs Ds Es Fs Gs Hs Is Js Ks Ls Ms Ns :r Os Ps Qs Rs Ss Ts Us Vs Ws Xs Ys Zs `s  t .t +t @t #t $t %t &t *t =t -t ;t >t ,t 't )t !t ~t {t ]t ^t /t (t _t :t <t [t co }t |t 1t 2t o] eo 0{ eo L) 3t 4t 5t 4~ 6t 7t 8t 9t 0t at bt ct dt et ft gt ht it jt kt lt id }g mt ;s &s *s nt Oh Oh ej ot pt qt rt R< st tt ut vt wt xt yt zt At Bt Ct Dt Et Ft Gt z/ Ht It Jt Kt Lt (2 Mt Nt Ot Pt Qt cs cs Rt St Tt Kn Ut Vt Wt :p Xt is Yt ks Zt Zt ns `t :p :p es Yt  u .u Jn Nq +u @u #u $u ap %u &u *u =u -u ;u >u                                                                                                                                                                                                                                                                                                                                                                                                                               ",
"                                                                                                                                                                                                                                                                                                                                                                                                                                                                                                                                                                                                                                                                                                                                                                                                                                                                                                                              ,u 'u (r )u V+ !u ~u {u ]u ^u /u (u _u :u <u [u }u |u 1u 2u 3u 4u 5u 6u 7u 8u 9u 0u au bu cu du eu fu gu hu iu ju ku lu mu nu ou pu qu ru su tu uu vu wu xu yu zu Au Bu Cu Du j} Eu Fu Gu Hu L) 3t 4t c] Iu s] Ju Ku Lu Mu Nu Ou Pu Qu Ru Su Tu Uu Vu Wu Xu Yu Zu `u Co  v `j .v ol +v @v ot ll hd #v $v %v kt fd &v *v =v -v ;v >v ,v 'v )v !v ~v {v ]v ^v /v (v _v ok :v 7' <v %( [v }v b' |v 1v 2v 2v 2v 3v 4v Pq os fs is is 5v Zt Zt 6v 6v 7v ^: es 8v *r 9v fp *r 0v av bv Mn cv dv ev fv gv hv Y! iv jv                                                                                                                                                                                                                                                                                                                                                                                                                            ",
"                                                                                                                                                                                                                                                                                                                                                                                                                                                                                                                                                                                                                                                                                                                                                                                                                                                                                                                              kv lv mv  o nv ov pv qv rv sv tv uv vv wv xv yv zv Av Bv Cv Dv Ev Fv Gv Hv Iv E$ Jv Kv Lv Mv Nv Ov Pv Qv Rv Sv Tv Uv Vv Wv Xv ~t Yv Zv `v  w .w +w @w #w $w %w &w *w =w -w ;w >w ,w q^ do 'w )w !w ~w {w ]w r! ^w 5{ bn /w  p (w _w :w <w [w }w |w 1w 2w 3w 4w 5w 6w 7w `k 8w 9w 0w aw bw )n cw dw ew fw gw fw hw 64 iw jw kw lw mw nw ow pw qw rw sw tw uw vw ww xw yw zw Aw Bw k3 9' Cw Dw Dw Dw Rt 2v |v Vt Vt 0< Ew Fw Gw Hw Hw Iw Iw Jw Kw Lw Mw Nw (: Yt Ow Ow Pw /: Qw Rw Sw Tw Uw Vw Ww Xw d6 Yw iv Zw `w  x                                                                                                                                                                                                                                                                                                                                                                                                                      ",
"                                                                                                                                                                                                                                                                                                                                                                                                                                                                                                                                                                                                                                                                                                                                                                                                                                                                                                                              .x +x @x #x $x %x &x *x =x -x ;x >x ,x 'x )x !x ~x {x ]x ^x /x (x _x :x <x [x }x |x 1x 2x 3x 4x 5x 6x 7x 8x 9x 0x ax bx cx dx ex fx gx hx ix jx kx lx mx nx cx ox px Ic qx /t rx sx tx ux F= B_ vx D6 wx Wd xx yx zx e] w^ Ax Bx E~ t_ Cx Dx Ex Fx Gx Hx Ix Jx Kx Lx Mx Nx Ox Px Qx Rx Sx Tx Ux {a *s Vx Wx Xx Yx Zx `x  y .y +y @y #y $y :/ %y &y *y =y -y ;y >y ,y 'y )y  , !y ~y {y ]y Pq ^y ^y Pq /y (y (y _y Ew ^: Fw Gw Hw :y <y [y Mw Kw j3 }y |y 1y +' 2y 3y 4y 5y 6y 7y 8y 9y 0y &^ ay by cy o) j. dy ey fy gy hy iy jy ky                                                                                                                                                                                                                                                                                                                                                                                                       ",
"                                                                                                                                                                                                                                                                                                                                                                                                                                                                                                                                                                                                                                                                                                                                                                                                                                                                                                                              ly my ny oy py qy ry sy gm ty uy vy wy y4 q[ )x xy yy zy Ay By Cy Dy Ey Fy Gy Hy Iy q9 Jy Ky Ly My Ny Oy k1 Py Qy Ry Sy Ty Uy Vy Wy Xy Yy Zy `y lx lx  z .z +z !t @z #z $z %z &z *z =z -z ;z a- >z ,z 'z )z ^) !z Wd ~z {z ]z ^z /z (z ui _z :z <z [z }z |z 1z 2z 3z 4z 5z 6z 7z 8z 9z 0z az bz cz Dg dz ez ma fz gz @v hz iz jz kz lz mz nz oz pz qz rz sz tz uz vz wz xz yz zz zz Az Bz Cz os ns ns /y Dz Dz Dz Ew ^: Ez Tq Fz Hw Gz [y Hz Hz B, B, Iz @^ Jz Kz Lz Lz -( Mz Nz Oz Pz Qz Rz Sz Tz Uz Vz Wz Xz Yz Zz `z  A .A +A @A #A $A                                                                                                                                                                                                                                                                                                                                                                                                 ",
"                                                                                                                                                                                                                                                                                                                                                                                                                                                                                                                                                                                                                                                                                                                                                                                                                                                                                                                              %A &A *A =A -A ;A >A ,A 'A )A !A ~A {A ]A ^A u] /A (A _A :A <A [A }A |A 1A 2A +x 3A 4A 5A 6A 7A 8A 9A 0A aA bA cA dA dA eA fA gA hA iA jA kA lA mA nA $w oA pA 9x qA 't $z .w wy rA sA tA r/ uA vA wA xA yA zA Kl AA BA 1l CA DA EA FA GA HA IA P* JA z) KA LA MA NA OA PA QA RA SA TA UA VA WA XA Io YA Eo ZA Dg `A  B  B .B Oh y9 dz Fg +B @B #B $B %B &B *B =B -B b* `, ;B >B #: ,B 'B )B !B ~B {B ]B ^B /B /B Bw `> (B _B :B <B (p [B }B w[ Z> |B $( `] 1B 2B 3B 4B N7 5B 6B 7B 8B 9B 0B aB bB cB dB eB fB s. gB hB iB jB #A kB lB mB nB                                                                                                                                                                                                                                                                                                                                                                                              ",
"                                                                                                                                                                                                                                                                                                                                                                                                                                                                                                                                                                                                                                                                                                                                                                                                                                                                                                                              oB :u pB qB rB sB sy tB uB vB zp wB xB 7< nf yB zB !# AB BB CB DB EB FB GB HB IB JB KB LB MB NB OB PB QB RB SB eA TB UB VB WB XB YB ZB Q/ `B  C .C +C @C #C $C %C &C *C =C -C ;C >C ,C R! 'C )C 3{ T- 5{ T- !C ~C {C ]C ^C /C (C _C :C <C [C }C %= G& |C 1C 2C 3C 4C 5C 6C 7C 8C 9C 0C s| aC bC cC <} dC eC fC Io ot gC hC iC *s jC kC lC mC nC oC pC qC rC sC tC uC vC wC xC yC zC AC @_ BC CC DC EC FC GC HC {B FC IC /2 JC KC %] $/ Jz |B >_ LC MC NC OC PC ;~ ;~ QC E3 {! RC SC TC UC VC WC XC $> YC ZC `C  D .D +D @D #D $= .e $D vf #= %D                                                                                                                                                                                                                                                                                                                                                                                           ",
"                                                                                                                                                                                                                                                                                                                                                                                                                                                                                                                                                                                                                                                                                                                                                                                                                                                                                                                              &D *D =D -D ;D ;A >D ,D 'D )D !D ~D {D ]D ^D /D (D _D :D <D [D }D |D 1D 2D 3D 4D 5D 6D 7D 8D 9D 0D aD bD cD dD eD {A fD A| gD hD xc iD 2{ jD I^ b3 kD lD v] _h +) mD nD oD pD qD rD sD g. vc tD uD O; vD t} J{ wD xD J, 3< ,q f/ yD zD AD ^) 'q BD CD DD ED FD GD HD ID JD KD LD MD ND OD PD QD RD SD TD UD VD WD XD YD ZD pt `D 1g  E .E .E +E @E #E $E %E &E *E =E -E k7 7, ;E >E y, ,E 'E |B >_ Z> )E LC !E ~E {E ]E ^E /E .{ J'  ^ (E SC _E :E <E [E }E @: |E N{ U  1E 2E 3E 4E 5E 6E 7E 8E 9E 0E aE bE cE dE eE fE gE hE iE 'C jE kE lE Er                                                                                                                                                                                                                                                                                                                                                                                           ",
"                                                                                                                                                                                                                                                                                                                                                                                                                                                                                                                                                                                                                                                                                                                                                                                                                                                                                                                              mE nE oE pE qE rE sE Kk Ms tE uE vE K8 wE xE yE zE AE BE CE DE 4o EE 4D FE GE HE IE JE KE LE 9D ME o0 Vv NE OE PE QE P_ RE Cd SE TE r/ G& UE VE  p WE I^ XE XE =z YE ZE `E  F .F +F @F #F tD vf R| $F %F :h &F *F =F  e -F ;F >F ,F 'F p] )F :) G! =i w^ !F J] ~F {F ]F ^F /F (F _F :F <F [F }F |F 1F 2F 3F 4F 5F 6F 7F b8 8F 9F 0F aF bF |i cF ^] dF eF fF gF hF iF jF kf kF lF mF y, nF <v oF pF FC qF Rq rF sF tF uF #: X~ ^E ^E vF U{ wF xF yF zF AF BF Z  CF DF j. EF q> FF (9 GF HF IF JF KF LF MF NF OF PF @D ]( QF dE RF ey g. SF TF UF VF WF                                                                                                                                                                                                                                                                                                                                                                                     ",
"                                                                                                                                                                                                                                                                                                                                                                                                                                                                                                                                                                                                                                                                                                                                                                                                                                                                                                                                 XF YF ZF pE `F  G .G bm +G @G #G $G %G &G *G !t =G -G zh ;G >G ,G 'G )G !G ~G {G ]G ^G /G (G Ny _G :G <G [G }G |G QE 1G 6t 2G :[ 6[ 3G 4G 5G 7* 6G >2 7G I| 8* iD {> 8G 9G 0G aG bG tf cG uD dG 1G I= eG fG F4 gG hG iG jG kG 2C I] lG =, Z- mG +- nG oG pG ]) qG rG sG tG {C uG o% vG wG xG yG zG AG BG CG DG EG FG GG HG IG JG KG LG MG NG OG PG QG RG SG TG UG VG 6< WG XG YG ZG ZG ]E 0c Rq qF /B ^B `G  H .H +H >) @H #H $H xz %H &H *H =H -H ;H >H ,H 'H )H !H ~H {H ]H ^H t% /H (H _H :H <H [H }H |H 1H 2H 3H 4H TF 5H 6H 5H 7H /& 8H 9H 0H aH                                                                                                                                                                                                                                                                                                                                                                                  ",
"                                                                                                                                                                                                                                                                                                                                                                                                                                                                                                                                                                                                                                                                                                                                                                                                                                                                                                                                 bH cH dH eH fH gH hH iH jH kH lH mH t, nH oH pH ~D qH rH sH tH uH vH wH Kv xH yH zH AH BH CH  a DH EH FH GH HH IH JH KH LH P* _[ ;< )2 MH NH OH PH t~ QH RH SH }C 7[ TH UH G+ F= VH Ax WH s/ XH YH ZH `H  I .I pD +I @I #I $I %I Gc &I *I =I o' -I ;I >I $- jo J8 ,I 'I )I !I ~I {I &; L- ]I ^I /I (I xG _I :I <I [I }I |I 1I 2I 3I 4I 5I 6I 7I 8I 9I 0I aI bI Ax a} f} cI dI eI P: fI gI hI qF FC pF pF iI jI kI lI mI nI oI E3 I) {: pI qI rI sI tI b  u0 uI >b vI ^6 U} ]H wI xI c~ yI zI AI BI {- CI DI EI FI FI GI #D HI II JI KI >C LI MI NI OI PI QI RI                                                                                                                                                                                                                                                                                                                                                                         ",
"                                                                                                                                                                                                                                                                                                                                                                                                                                                                                                                                                                                                                                                                                                                                                                                                                                                                                                                                 SI XF TI UI pE VI WI XI YI ZI `I  J .J +J @J #J $J %J &J pu *J =J -J ;J >J ,J 'J )J !J ~J {J ]J ^J /J (J _J :J <J [J }J |J '- 1J 2J ;< s/ g~ g~ 3J RH 4J |- 5J 6J 7J |l 8J 9J 0J aJ bJ 4J cJ 3G dJ eJ fJ gJ hJ iJ jJ pu pu kJ kx lJ mJ nJ oJ pJ qJ rJ sJ tJ uJ vJ wJ xJ Od yJ zJ AJ VG BJ CJ DJ EJ FJ GJ HJ IJ JJ KJ LJ MJ NJ OJ PJ QJ RJ SJ TJ UJ VJ WJ XJ YJ 5{ Ll ZJ `J WG eI  K E' Kd gI oF <v FC Rq z, .K +K @K #K b* $K %K &K lI a~ *K =K -K ;K W. y$ >K vI ,K 'K )K 70 w} !K ~K {K (k ]K ^K /K (K _K -; :K <K RF [K TF }K |K 1K 2K '/ 3K 4K 5K 6K 7K 8K 9K 0K aK                                                                                                                                                                                                                                                                                                                                                                ",
"                                                                                                                                                                                                                                                                                                                                                                                                                                                                                                                                                                                                                                                                                                                                                                                                                                                                                                                                 bK cK dK eK fK gK hK iK jK kK lK mK nK oK pK qK rK 2{ sK ;; tK uK vK wK xK yK zK AK BK V* CK DK EK FK GK HK IK JK KK LK MK NK OK 1C YB PK QK NH s= RK Hr SK 05 TK UK VK WK XK a} SK Hr YK Ml ZK `K  L .L IA +L @L L_ #L $L %L &L *L =L -L ;L >L ,L 'L )L !L ~L u/ {L ]L Od xJ B- l] ^L v} /L (L /C _L :L <L [L }L |L 1L 2L 3L 4L 5L 6L 7L 8L 9L 0L aL Zm ZE bL cL 4J dL `J eL Rd S8 fL {E zz gL hL iL z, jL oK kL lL f2 ,< +K mL nL oL pL qL rL Jr sL tL uL vL wL xL O. yL i7 zL AL S8 BL {K CL DL Bj EL FL sL GL HL  e IL JL KL '/ LL {, ML 1K NL OL PL QL RL SL TL UL VL WL XL                                                                                                                                                                                                                                                                                                                                                       ",
"                                                                                                                                                                                                                                                                                                                                                                                                                                                                                                                                                                                                                                                                                                                                                                                                                                                                                                                                 YL ZL `L  M oE .M +M @M #M $M %M h3 Ew &M *M =M -M '[ n] %, ;M W8 >M ,M >6 'M )M !M ~M {M P! ]M ^M /M (M _M :M <M [M }M |M 1M 2M 3M 4M B| cG -F x; Z* qf 5M 'q 6M 7M 8M 9M n] 0M aM qK bM cM w^ rK dM *% eM fM gM hM ex iM $L &L jM kM lM mM Bu nM oM pM qM rM )w sM tM 9{ j[ {[ f! uM vM wM xM yM zM [l AM BM CM ![ /> DM EM FM GM HM IM JM KM LM MM NM OM 2G PM QM RM Ir SM ^H TM oI y, UM UM VM WM gL EC XM YM ZM `M  N P8 >: .N +N p! @N Z; #N $N Zi %N &N *N =N -N ;N {: >N ,E g7 00 ,N 'N CL )N !N i  ~N {N ]N ^N /N JL 7H (N 2K K} _N :N dE <N [N }N HL |N 1N 2N 3N 4N 5N Fq 6N 7N                                                                                                                                                                                                                                                                                                                                              ",
"                                                                                                                                                                                                                                                                                                                                                                                                                                                                                                                                                                                                                                                                                                                                                                                                                                                                                                                                 8N 9N 0N SI aN bN cN dN eN fN gN `t hN hN a' iN jN kN lN y> mK mN nN oN pN qN rN sN tN uN `K vN wN xN &+ yN zN AN BN CN `. DN EN FN GN HN IN UE =q w^ Bj JN @J KN LN MN )I qK Rm NN 5M ON PN cM L) 8M >< UH QN RN SN uC TN Qy UN VN WN XN YN ZN `N  O .O +O @O #O $O %8 I8 AA %O f] z- n! &O *O =O -O ;O >O ,O 'O hL )O !O ~O {O ]O ^O /O (O _O A| ZE :O <O HA cJ [O }O |O 1O 2O 3O  K }> 4O ^1 ,E ]: v[ 5O .H 6O 7O .' 8O P8 9O 0O aO c~ bO Bj 8M cO dO eO :$ fO gO hO aO h7 iO jO DC qF kO lO oN mO nO oO hO k  pO >z qO rO sO sO tO uO 1K vO wO xO Yz yO zO AO BO CO DO EO FO GO HO hy )= IO JO                                                                                                                                                                                                                                                                                                                                     ",
"                                                                                                                                                                                                                                                                                                                                                                                                                                                                                                                                                                                                                                                                                                                                                                                                                                                                                                                                    KO LO MO NO OO PO QO RO K8 SO TO UO VO WO XO YO 6' Y! U^ ZO `O  P 'B .P +P iO @P #P $P =N %P &P *P =P -P ;P >P ,P 'P )P !P ~P {P ]P ^P /P (P _P :P <P [P }P |P !N bO Q: )I 1P ho B) ho 2P 3P 0{ ZJ qf 4P 5P /z 6P 7P 8P 9P 0P aP bP cP bP cP dP eP fP gP 1b hP iP jP q. kP lP h/ mP nP j! oP pP qP .H oO 0O !B Xt rP sP wC tP uP <P vP wP xP yP zP AP BP CP cM cM Bj rL DP K. EP Ci jf FP !: n7 g3 GP HP eI IP JP KP O8 P: LP l3 fL MP N8 NP OP 1P m& PP QP 5J XK RP SP TP Va ]E &5 gs Dz ]y qF Sq UP VP WP XP =N YP ZP `P  Q .Q ML +Q Y_ @Q jB #Q $Q %Q hE &Q dE *Q 1K =Q -Q  A ;Q >Q ,Q 'Q )Q !Q ~Q {Q                                                                                                                                                                                                                                                                                                                            ",
"                                                                                                                                                                                                                                                                                                                                                                                                                                                                                                                                                                                                                                                                                                                                                                                                                                                                                                                                       ]Q ^Q /Q (Q _Q :Q .F <Q [Q }Q |Q 1Q 2Q 3Q 4Q P' ~' 5Q E} 6Q 7Q 8Q 9Q 0Q gs gs 7Q 0[ %g aQ bQ cQ dQ eQ fQ gQ hQ iQ jQ kQ lQ v< mQ nQ rA oQ 4' %= DP mn pQ qQ |P rQ !N sQ tQ uQ vQ %O wQ 8M 6M xQ $, Za yQ zQ 22 AQ BQ CQ DQ HM EQ FQ GQ HQ IQ ,= JQ KQ LQ MQ NQ OQ PQ QQ RQ V8 SQ TQ UQ VQ WQ jL tF XQ YQ )B (: Nt ,_ oK ZQ oO `Q DP  R .R +R .R @R PN #R nc 8J $R )I VG %R &R *R *R =R '[ D_ Oa L8 xI -R ;R IP C) >R %H ,R )< 'R )R !R ~R N8 {R ]R ^R /R (R xQ _R JN :R zL zz 7' JC gs 1v :p FC pF <R [R }R |R =N |l 1R xc 2R 3R OQ 4R 5R 6R 7R 3H 8R v' 9R 0R jB aR bR cR  A dR eR fR gR hR iR jR kR lR mR nR                                                                                                                                                                                                                                                                                                                   ",
"                                                                                                                                                                                                                                                                                                                                                                                                                                                                                                                                                                                                                                                                                                                                                                                                                                                                                                                                          oR pR qR rR sR _[ D- tR uR vR wR xR yR zR AR BR `} CR 2m `O DR gI ER 0c FR 0Q 0[ GR HR U. IR JR KR LR MR NR OR PR QR eP RR SR TR Z3 UR gD VR %b WR XR YR ZR `R wM  S lc 7J B) .S +S TH H& 6J e] j' $1 0} @S #S $S tc VR %S n& &S *S =S -S ;S Fc >S ,S 'S rx 2K K] )S !S jf ~S TQ {S ]S Ew jL ^S XQ /S )B Xt (S zz oK  K _S :S xL sQ ^R <S m& [S }S YP DP |S =N 1S ]R 2S 3S 4S 5S -K 6S 6S 7S 8S Sd m7 9S IP 0S Wa ^S aS bS cS ]E dS kI N8 f2 eS U} fS gS hS y( iS jS .H @P gI Nt Bw ]y 0' FC Sq kS lS mS nS !N ~2 E= oS pS {A qS rS sS tS l[ uS vS hG TF 9R NL wS bR xS yS zS AS Fq BS CS DS ES FS GS HS IS JS KS LS                                                                                                                                                                                                                                                                                                          ",
"                                                                                                                                                                                                                                                                                                                                                                                                                                                                                                                                                                                                                                                                                                                                                                                                                                                                                                                                             MS NS OS lA PS >R QS RS SS TS US VS WS bk XS YS ZS `S 'B  T DR .T +T @T ZS #T $T %T I& &T *T =T -T ;T >T ,T 1b 'T )T !T ~T {T {T ]T ^T /T @) (T _T :T RP <T [T }T  S |T 7J 1T 2T >< 7[ Lr 3T p^ 4T 6M 5T D= u} 6T (z 7T CQ 8T 9T 0T aT bT aT cT dT tO .I eT fT gT hT &- UP iT bp Nn 0< EC %H jT kT !B Xt {y UM +P lT ]1 mT nT oT pT qT rT *N <S sT tT ]R 2S uT |S o^ 3S vT 3S ~2 DP wT xT yT KF E  j^ zT wC C) AT BT DR !y 0c `S CT DT ET f2 ^H FT GT HT IT SP JT KT LT ,E pF Nt (S Az qF Sq FC 5O MT 7, D- K) T| 9J tf NT PK B| 2{ OT ]- PT QT RT RF EI QF ST TT Cr UT 9K VT WT XT YT ZT `T GS  U l9 .U +U @U #U $U %U                                                                                                                                                                                                                                                                                                    ",
"                                                                                                                                                                                                                                                                                                                                                                                                                                                                                                                                                                                                                                                                                                                                                                                                                                                                                                                                                   &U *U =U nL _: -U ;U >U ,U 'U )U !U ~U {U ]U 9< aS [> ^U cS +T Vt /U (U _U :U K& <U [U }U |U Vy 1U 2U a7 vG 3U 4U 5U 6U 7U 8U 9U eA 0U PS @h bJ aU <l bU |O Bj `J 05 8M cU dU La eU fU gU hU q! bM iU Jr +h jU vA kU (z lU dJ mU [K PK nU oU pU UB H; qU rU I} ~: sU tU uU vU ns oF $H wU N{ <p 6v {y ]E xU ^S D3 yU zU AU O. BU f  CU ,K v0 BU DU s% N. EU s% 2S ]R FU uT vT GU k  |l HU IU JU KU kL LU aS dS ER DR hI UM #P !R P: &K ET ]H ]H MU NU OU E_ g! PU LT QU ,E DC FC FC Sq ^B Sq xU QU RU W> SU TU bU UU VU tf G& WU =q XU YU ZU `U QT OF 4H l[  V 3K .V +V @V #V $V %V &V *V =V -V ;V >V ,V 'V &V XT )V !V ~V                                                                                                                                                                                                                                                                                           ",
"                                                                                                                                                                                                                                                                                                                                                                                                                                                                                                                                                                                                                                                                                                                                                                                                                                                                                                                                                         {V o; ]V ^V /V (V _V :V :m +{ {U <V [V jI P: }V |V 9<  P 1V 2V 3V 4V 5V 6V 7V o> 8V ]F 9V 0V aV bV cV dV eV fV gV hV iV jV kV lV mV nV oV Y* pV qV rV sV tV j' +R uV UK La vV wV xV yV f3 C_ sM n] 5J f~ vA zV 3{ Y8 (z )2 $= NT C= #F AV A| CQ BQ BV CV DV nK Jw uU Qw :p (S EV kT FV GV Ew {y !y v[ ^S mS O8 .N .' eS DU HV IV JV KV LV N. LV DU LV DU 2S |S MV sT [S NV OV wL rT P4 PV LV QV RV SV %H ER gI Kd `S v[ v[  K .H  K 3O w} z> 3; TV j] TM oN PU UV h3 iI Rq jL qF Dz ]y iL Sq VV sU WV l] ): n] XV bJ 5P UU bJ `J bM G: yP YV ZV `V =F  W UF 5R .W +W @W #W $W %W &W %V *W =W *W -W ;W >W $W ,W 'W )W !W ~W {W                                                                                                                                                                                                                                                                                  ",
"                                                                                                                                                                                                                                                                                                                                                                                                                                                                                                                                                                                                                                                                                                                                                                                                                                                                                                                                                            ]W AT ^W /W /W (W _W :W aB <W [W }W |W 1W 2W &H 3W gI +' 4W 5W 6W 7W 8W 'y 9W c* 0W S/ aW bW cW sM bV &h uc dW eW fW gW hW kJ iW jW /* kW Tl ,F WH ]N lW mW (R Bj DP mc nW oW pW qW T| [T rW lc $1 sW p^ TH vA tW uW vW wW xW yW zW bL AW BW CW DW EW FW ,E Mw GW HW Ez gL IW JW JW <p 6v IC ]E ]: oI kI ~R 8O .: KW LW MW .| NW OW PW jT QW 8O RW SW RW LV TW sT UW hU S/ VW _T WW XW YW ZW ;9 Wa |> #H `W  X `O cS .P >N .X >N h7 +X @X }R U| qQ b~ #X $X %X l! &X QU v[ nF hI *X /y !B Rq =X -X n! -R ;X >X `J XK ,X bM 'X [T TU TK jU UU YU )X !X ~X cT {X ]X ^X /X (X -W _X :X <X TR N- [X }X |X |X |X 1X 2X 3X 4X 5X 6X 7X 8X                                                                                                                                                                                                                                                                         ",
"                                                                                                                                                                                                                                                                                                                                                                                                                                                                                                                                                                                                                                                                                                                                                                                                                                                                                                                                                            E= 9X 0X .^ <B aX [p bX [Q hL 'E 0X cX dX eX M  fX hI Tq gX hX iX jX !5 kX lX mX nX XW oX YR pX xI qX rX sX u! wS tX uX vX wX xX yX zX AX BX CX DX EX FX GX sf HX IX JX tT |S ^D KX A_ LX ~2 nc cM MX p^ NX OX uA rK PX QX RX SX jU TX UX VX oW WX XX as 0c es YX ZX ds <v `X JW  Y _y 9' Az <v .Y dS +K lI yU XQ +Y |, @Y #Y |, $Y %Y PW &Y &Y |R s% N. *Y qT WR dU hU =Y dU _T >K -Y P^ ;Y >Y ,Y 'Y fI _2 hI hI UM +T {E .Y )Y y, %H +H @X U| !Y ~Y {Y L: ]Y %X ^Y /Y =X xU cS 9Q oF Wt qF Sq QU m! (Y FP ~[ _Y `R :Y <Y [Y rQ }Y )I Kr IX |Y 1Y 2Y ]- 3Y 4Y 5Y 6Y 7Y 8Y 9Y (t ;W <X hV 0Y aY bY cY 1X dY cY (X ~W eY 7K fY gY hY iY jY kY                                                                                                                                                                                                                                                                ",
"                                                                                                                                                                                                                                                                                                                                                                                                                                                                                                                                                                                                                                                                                                                                                                                                                                                                                                                                                            lY wT mY ^S  P 8Q 8Q nY `O oY pY qY rY m! oN sY iO 6Q 8v tY uY vY wY xY yY z[ ]' zY AY BY WP $P CY DY e7 tM C& kg EY FY GY HY IY JY KY LY MY NY OY PY QY RY &, xQ a} TU SY TY 8[ UY )z B) EL VY WY XY YY ZY `Y V( )b )b  Z .Z MX +Z @Z #Z $Z w0 }$ %Z &Z <v *Z GW ps Rt <v `X =Z -Z Dz Ew hL <v #P dS ;Z >Z ,Z /S /S /S 'Z )Z !Z ~Z {Z {Z ]Z &Y OW NW *Y s% ^Z nX /Z qW dO :$ &N (Z g  _Z EU :Z jk as <Z aS @P [Z nF nF GC DC jO }Z Jd ^S |Z TM 1Z 2Z 3Z 4Z 4Z dX 5Z 6Z |V ^U 7Z `S /B 8Z FC /B VV =X &X S8 90 eI n! eI qN mO 9Z TV ): lc iS BD ON 0Z aZ yW IL bZ cZ dZ eZ Gq fZ gZ hZ iZ jZ kZ lZ mZ dY >V nZ oZ 1X 1X fY ]X pZ hY qZ 1X rZ sZ tZ                                                                                                                                                                                                                                                          ",
"                                                                                                                                                                                                                                                                                                                                                                                                                                                                                                                                                                                                                                                                                                                                                                                                                                                                                                                                                            E/ s~ )z M8 >E .T .T +T [Z [Z uZ vZ wZ xZ -X LT .T 8Q 8v yZ zZ AZ BZ CZ DZ EZ FZ %~ &H GZ lS Sn HZ `G IZ JZ KZ LZ JA MZ NZ OZ PZ QZ RZ SZ EN TZ UZ VZ r^ WZ XZ Rl YZ ZZ AJ `Z  ` qI f] .` A0 +` @` #` $` %` 1R Ja S> )b 7[ &` *` .` dU =` -` ;` +| N{ >` oF |v ,` YX 1v (y Jd W/ U> !B 0< `> Az +P ZG I) '` )` !` {Z /S 7) )Z ~`  / {Z {Z yU PW NW  N SW N. {` D  >b N] z0 0W ]` ^` /` (` :Z _` :` <` DV [` AT  T nK )Y GC HC Ua }` ]2 dS |Z lT |` b~ 1` 2` 3` 4` 5` 6` {: 7` <Z  T {B Sq Rq v[ VV h3 m! &X GP WV S8 !K !6 g3 h] TP g{ 2O >X ): 8` Bj 9` 0` a` aG OF j= b` jP c` 5Y |K d` e` 3K iB f` g` GO nZ cY cY GO *p *p h` i` j` MI cY k` l` m` n` o` p`                                                                                                                                                                                                                                              ",
"                                                                                                                                                                                                                                                                                                                                                                                                                                                                                                                                                                                                                                                                                                                                                                                                                                                                                                                                                      q` r` s` D& t` w- S8 mF +T +T @P nK S8 oN  H u` rF iL v` bX w` x` y` z` A` B` C` D` Z} =~ 4O E` RU ~B F` G` iI n! H` |* IN I` `H J` K` L` M` N` O` P` `v Q` R` S` T` U` V` *h W` X` Y` SU Z` BP ]z ^z ``   ./L (L . .`` + .@ .wQ # .x  9  Q4 v0 HV }, $ .%K % .<v os Qw a' Cz ]y xz $K -Z !B b' Bw Az hI )y & .* .YQ = .- ./S ; . / ~` > .{Z {Z ]Z PW ,< , . N O] D  ' .) .! .~ .$Z { .>b M; ] .^ .M; EU / .( .Wa _ .gN jI h3 QU jI kS GC }Z }Z .H : .i] 2Z < .[ .} .Di G  | .1 .2 .3 .4 .XM jI jI L4 pY h7 5 .6 .QU sU LT LT sU LT oK !6 GP 7 .c~ Ci |P JN x> $R a} Jr [L 8 .kE 9 .GI 0 .a .b .c .d .TT hZ e .f .g .9Y h .mZ ]X i .+A j .k .Jt l .m .m .n .o .p .q .r .s .                                                                                                                                                                                                                                       ",
"                                                                                                                                                                                                                                                                                                                                                                                                                                                                                                                                                                                                                                                                                                                                                                                                                                                                                                                                                   t .u .v .w .x .y .z .u[ ;r hI SO ~y A .sF B .N: jL GC Bw C .D .Mq E .F .G .H .I .J .K .L .4B tF M .A .{B 0v |m N .O .{K W) P .Q .HN Ku R .S .@L T .U .V .$I dD W .jG X .Y .Z .YZ u/ ` .{K  ..@R ...+..10 @..gU #..$..%..&..dO *..=.. & rT -..;..>..,..-E ,Z }E '..0' Ew )..!..:p <v #H X> 6' )B 1v Az ]y ER #H ~..}E {..)` {Z ]..^.. / ; ./..- .{Z ]Z PW 8O ,< NW NW P^ (.._..u0 :..<..[..}..|..}$ 1..:..2..3..4..5..O8 |V  K QU d0 B .6..7..sU ,E }> {: WV TM )h SU 8..qI 9..F  0..a..IF b..nO c..d..e..5 .6 .f..gN g..=X =X oK sU sU sU sU h..S8 WV ,h i] NP |P i..j..cI BD E= k..l..G= }H m..!X n..o..b .p..q..r..s..t..h .T, u..v..w..x..bR e- !+ y..*W z..OI A..B..C..D..E..F..G..                                                                                                                                                                                                                              ",
"                                                                                                                                                                                                                                                                                                                                                                                                                                                                                                                                                                                                                                                                                                                                                                                                                                                                                                                                                H..I..J..~( I/ K..qJ L..W> -_ w[ M..N..SO LT XM 9' ^: Ew (B *X O..[p P..Q..R..S..T..U..V..W..X..7, Wa xU {B |m Y..Z..iT f7 `.. +.hg t! .+.++.I( @+.#+.$+.%+.&+.*+.=+.-+.;+.>+.-z ,+.'+.)+.!+.~+.{+.H& +Z ]+.^+./+.(+._+.:+.wQ <+.ho [+.f3 2S xL LV }+.|+.1+.= .2+.ZO Dz ns !..9p Ew /B BT 3+.W/ 4+.Rt @T hs 5+.6+.& .>) DT D3 XQ zY %K 7+.>Z FV yU 8+.9+.PW %Y %Y %Y NW XX NW 0+.a+.b+.a+./` ^ .^Z c+.d+.e+.U! ] .f+.g+.h+.[P mK i+.j+.!K I4 vZ XM =X 5O =_ |` GP k+.D- _Y l+.j..OP m+.n+.o+.6; p+.g+.^& q+.~: ~6 r+.M8 |Z {: XM =X g..oK kS 5O pN pN jI |V =X h7 i+.k] W> }R ^L uT f3 s+.+R *` wA xA t+.u+.v+.w+.x+.y+.z+.9U A+.%q B+._N C+.sx D+.E+.F+.u' G+.g` H+.|X I+.J+.K+.L+.M+.N+.O+.P+.Q+.                                                                                                                                                                                                                     ",
"                                                                                                                                                                                                                                                                                                                                                                                                                                                                                                                                                                                                                                                                                                                                                                                                                                                                                                                                             R+.S+.T+.Bq =L R[ in x_ q! k] Ua *Z Fz ^W /2 Ua U+.GW hN V+.*r W+.X+.Y+.Z+.`+. @..@.+@.@@.#@.$@.c' +K ;R [> 0' |m %@.&@.*@.bc ;h Y)  +.KZ e3 ig )& >i .L =@.-@.;@.>@.,@.'@.SB )@.!@.~@.{@.=i ]@.^@./@.(@._@.]z :@.<@.$N %b [@.%O ~z }@.wT }l |@.*Y 1@.2@.3@.4@.)` 5@.6@.]y 7@.|m |m Pq ~B %H '` +H !B St hs FR 5+.8@.Va 9@.>R D3 yL 0@.FV nI a@.FV yU 8+.9+.jT *= , ., .b@.c@.d@.e@.>H f@.g@.h@.i@.WX j@.k@.l@.d+./` m@.n@.dB o@.p@.jf b~ q@.r@.s@.d0 g7 oK =_ t@.k] aO k+.-9 9S b{ SY 6, n; 2; u@.h  v@.w@.x@.y@.nS ~: z@.5 ._ .sY jI g..oK A@.VV B@.g..jI XM =X XM =X sU .K h7 +X kF TY 1P $R }l Z` wT PN C@.q7 D@.E@.F@.G@.H@.I@.J@.K@.L@.M@.wS N@.cT Dr eE C4 O@..A 0Y P@.Q@.R@.S@.T@.U@.'+ V@.W@.X@.Q@.Y@.                                                                                                                                                                                                            ",
"                                                                                                                                                                                                                                                                                                                                                                                                                                                                                                                                                                                                                                                                                                                                                                                                                                                                                                                                          Z@.`@.`5 =w -W  #.X_ .#.L, +#.d0 oF @#.##.TO $#.%#.^: )_ Fn &#.*#.=#.-#.;#.>#.,#.'#.)#.}Q !#.L3 F3 ~#.KP h^ M .cS 0v 6p {#.]#.^#./#.(#._#.e} :#.'F f~ e3 <#.[#.}#.|#.Q` 1#.2#.3#.4#.!T 8T 5#.Q- o] 6#.dV 7#.5T zA aE 8#.9#.0#.OV io lc DP y@.^& E  12 yL t, = .vC $K a#.ZO Az b#.cp av c#.{B )R DT d#.)B 2v *X /2  P 6+.e#.f#.nL ~R nL g#.h#.i#.j#.lF yU 8+.9+.QW , .k#.l#.W  %Y b@.QW B$ e@.e@.m#.,H n#.o#.)H (` :../` i  p#.q#.]. r#.&R s#.)N (#.I4 l! t#.oN wZ u#.}V g#.v#.w#.x#.YM b{ TV y#.zI IT rT z#.A#.B#.C#.x@.D#.E#.NP eI 5 .F#.g7 g..LT QU G#.h3 H#.Rq Rq Rq FC xU )Y <Z I#.wC ;R 7O J#.'K K#.L#.JX UK M#.UX N#.O#.P#.Q#.R#.S#.T#.U#.RO Ec V#.W#.X#.Y#.Z#.`#. $..$.@Q +$.@$.#$.$$.%$.&$.*$.=$.-$.;$.S#.>$.,$.'$.                                                                                                                                                                                                   ",
"                                                                                                                                                                                                                                                                                                                                                                                                                                                                                                                                                                                                                                                                                                                                                                                                                                                                                                                                          )$.!$.~$.{$.1K I^ ]$.^$.!M /$.($.G) _$.Vq :$._$.<$.[$.}$.|$.1$.2$.3$.4$.5$.6$.7$.8$.9$.0$.tY a$.[p :' @X b$.{: @P ^y |m c$.Qw ^#.00 d$.hf s#.b} b} e$.zj w^ f$.*q |c g$.G8 h$.Xy i$.j$.k$.++.>i G& yW k..cV l$.vA m$.yA n$.o$.G. g% p$.q$.`Q hO H* r$.PW QW v#.>Z `, s$.cS GV os cp #r t$.~B xU ;N ^1 !B Rt gs C .4+.0c u$.'Y $) 2+.N8 '` i#.v$.w$.mI yU 8+.9+.QW , .k#.l#.W  W  ]Z ]Z x$.y$.z$.A$.B$.C$.D$.j@.(` E$.F$.m@.m@.G$.XW l  H$.qL d^ I$.9~ J$.&X -X -X E` &H +X nL +K lI NP 3O |P K$.L$.M$./6 N$.O$.P$./6 1S ]. Q$.R$.S$.[P &K : .T$.<Z E' E' #P #P pF Rq EC {y Bw GC v[ .Y F#.mN ,h +N kL 80 }R XR U$.^6 dU V$.W$.X$.Y$.Z$.`$. %..%.+%.@%.#%.$%.%%.&%.*%.=%.e` -%.5R ;%.>%.,%.'%.)%.!%.~%.{%.]%.]%.^%./%.(%._%.:%.<%.                                                                                                                                                                                             ",
"                                                                                                                                                                                                                                                                                                                                                                                                                                                                                                                                                                                                                                                                                                                                                                                                                                                                                                                                       [%.}%.|%.1%.2%.3%.4%.5%.D6 vJ 6%.7%.Sq _p }$.ZX 8p 8%.Dk (W 9%.0%.a%.b%.b%.c%.d%.e%.f%.|$.:$.g%.h%.i%.j%.$( k%..Y GC ^B F` Sq Ld H#.l%.f7 ;h m%.n%.{K o%.k/ BM () 5M TK {z p%.q%.r%.s%.t%.%S 8T u%.D~ 8T U( v%.w%.x%.`Y y%.z%.A%.B%.B%.C%.D%.gO 1S s0 E%.-9 J) }P F%.G%.jO `t |v H%.]S 9' ^y jL nK kN ;_ )B `t 6v ]y )B Kd !y I%.yz J%.`, S^ * . Y K%.'Z ^..!` - .- .L%.M%.A> N%.h#.O%.j#.P%.lF Q%.R%., .EF S%.T%.u0 }$ U%.V%.J[ F$.|..W%.X%.Y%.Z%.%, i' ZR `%.5Z i] jI .K  &. &..X {E u#.aO Ci l+..&.$R ^R PP +&.QP A0 @&.D%.#&.GT ]. $&.%&.&&.*&.=&.-&.;&.oI %H nF ac ^B G` >&.,&.*M '&.H#.h..uZ HP !6 !K h] E_ U| {R ]R )&. & uV  Z QX !&.~&.{&.]&.^&./&.(&._&.%%.|K :&.<&.[&.}&.|&.1&.2&.3&.4&.5&.6&.7&.8&.9&.0&.a&.b&.c&.d&.e&.f&.g&.h&.                                                                                                                                                                                    ",
"                                                                                                                                                                                                                                                                                                                                                                                                                                                                                                                                                                                                                                                                                                                                                                                                                                                                                                   OY i&.j&.U` /T k&.l&.m&.n&.o&.p&.q&.r&.s&.t&.u&.v&.wE w&.x&.m7 Ai i+.RU {E gL (: y&.z&..r A&.B&.C&.D&.E&.F&.G&.H&.I&.J&.3y K&.L&.i%.M&.N&.O&._p 8' pF Sq ^B ]B jI .K m! oN f7 P&.;h ;h n%.B- Q&.R&.Di SU TV j..S&.uQ ho La T&.U&.V&.W&.X&.Y&.Z&.`&. *..*.]C +*.BP NX @*.!S EL #*.l  C#.g  JU ]H 'h j] u#.]2 w[ 0< ps ps Xt ^: 8' Sq iO $*.%*.{B ts os ^y &*._y SO H) **.U] T^ Y{ Y{ Y{ !O =*.- .-*./S /S - .]..mL %K #1 lF h#.j#.;*.>*.]& ,*.!. _b W%.k@.'*.)*.!*.~*.!*.!*.{*.]*.*; ^*./*.yQ (*._*.n7 90 :*.kN <*.w, <*.[Z {: +K o! [*.}*.|*.[S +` 1*.S/ 2*.3*.@R 8#./R /6 )&.4*.I# 5*.6*.7*.8*.9*.0*.E' +P Sq N .a*.b*.,&.*M c*.lO d*.l%.e*.d0 -X S8 i+.9Z }P y> OP l& q$.f*.g*..R h*.NX <b i*.j*.k*.l*.m*.5Y n*.-%.=p o*.p*.q*.r*.s*.t*.u*.v*.w*.x*.y*.z*.A*.B*.C*.D*.dW E*.F*.G*.H*.I*.                                                                                                                                                                           ",
"                                                                                                                                                                                                                                                                                                                                                                                                                                                                                                                                                                                                                                                                                                                                                                                                                                                                                                J*.K*.L*.M*.]@.&a N*.0U O*.P*.Q*.R*.S*.Yc T*.U*.V*.W*.Q8 X*.mK HP !6 vZ O: >N `> Y*.*Z ms /: Z*.`*.!r  =..=.+=.@=.bX #=.$=.%=.uR &=.*=.==.-=.;=.(: GV Rq qF GC HC >=.LT &X d0 l%.l%.f7 P&.,N ,=.Pd '=.)=.c~ !=.h^ w&.#) ~=.9f {=.]=.^=./=.$F  F g> (=._=.]F h; :=.UH BP 0* ~N 9s <=.g  [=.P4 U$.TY 6, WP MP }Z w[ 7@.cs 2v es 6v <p /B xU }=.A .{B ts Wt os 4+.]y ]E ~y $: $: %~ !< Y{ |=.1=.S^ }E 2=.5@.>Z }E >) }E m3 * .>Z i#.lF 3=.O%.4=.A$.5=.]*._..6=.^_ h@.!9 7=.'*.i@.K  8=.2T RQ 9=.0=.a=.b=.|P J) 90 3 . &.]: }Z c=.3 .i7 )h kf )z d=.,K TW 1T 2T e=.f=.n$.g=.3P 2T h=.D  'H i=.j=.k=.=- l=.'Y >E &Z .Y m=.vs '&.n=.TQ VV iI jI oK 5O =X qY  H : .WV eI 3O -9 H* oT xL o=.p=.q=.C%.9  z#.r=.s=.t=.u=.v=.w=.x=.y=.z=.A=.B=.K@.C=.D=.E=.F=.G=.H=.H=.I=.J=.K=.L=.M=.N=.O=.P=.Q=.R=.S=.T=.U=.V=.                                                                                                                                                                  ",
"                                                                                                                                                                                                                                                                                                                                                                                                                                                                                                                                                                                                                                                                                                                                                                                                                                                                                             `o rJ W=.b} !+.X=.tM Y=.Z=.`=. -..-.+-.@-.#-.$-.%-.&-.ZO <Z [> L4 qY g..B .*-.VM ]U M..Nw F) F) =-./m --.;-.e%.>-.,-.'-.>-.)-.!-.~-.{-.]-.^-./-.(-.Fz &*.^B HC GC Sq =X XM m! d0 oN l%.f7 f7 P&.;h hf rN m%._-.TP 3O YM :-.<-.[-.z_ }-.4t |-.1-./=.2-.3-.4-.5-.6-.7-.Kl MX ~z m& g  _6 8-.9-.-Y uT XP 0-.a-.MP b-.Z! 8' fs Rt 0Q ]y 5+.9< ZG MP A .]B ^y :p Wt /y 0' ]E ,_ $H V~ %~ U] S^ Z{ V/ c-.* .>) `, * .a@.2=.%K nI a@.m3 3=.i#.i#.d-.>*.L  :Z E$.E$.'*.b; 'H e-.f-.C$.g-.}$ 6=._6 h-.i-./K j-.k-._Y nO l-.P: A .+P y, V> M .m-.q+.n-.{[ {[ o-.p-.8J  & q-.r-./K s-.:P .R C%.t-.F$.kh u-.v-.w-.|5 x-.)@ nI ZG y-.m=.iI N: H#.XM XM h3 h3 >=.>=.g..g..qY z-.!K >h 7 .~: ]H SY @J ^L A-.J. B-.(6 C-.D-.]@ E-.R/ F-.G-.dW H-.I-.09 J-.K-.L-.M-.u=.N-.O-.P-.Q-.R-.N=.G=.S-.T-.U-.V-.W-.X-.Y-.Z-.`-. ;..;.+;.@;.                                                                                                                                                         ",
"                                                                                                                                                                                                                                                                                                                                                                                                                                                                                                                                                                                                                                                                                                                                                                                                                                                                                          D/ #;.k/ $;.b} ^@.%;.tN &;.*;.]$.a1 =;.-;.Fr s#.ZO ;;.*X IC Dz pF z, EC {B Rq Nt BC N..@^ b< >;.Kz ,;.Fw ds ';.);.Hn }Q !;./V ~;./5 {;.];.^;./;.(;._;.js Bz 8' &*.HC Sq jL qF g..g..d0 oN P&.P&.P&.f7 f7 :;.J$.WV h] <;.nL [;.70 };.|;.'z IX p] k' OX &% 1;.I; 2;.M#.1R La 3;.<S :b 4;.^6 ,K 5;.6;.l  7;.8[ @X >R 8;.0X DR (y 4+./y Dz 'B  T fI u#.%H HC ts os `t <p _y SO Q~ @_ @_ !< U] c-.Y{ T^ S^ 1=.9;.X> >) %K m3 }E a@.a@.FV j#.h#.;*.0;.a;., .{& b  M; 'H ^_ b;.c;.d;.e;.f;.g;.M; t-.h;.D-.i;.B0 j;.k;.h^ +J m-.<Z fL tF dS lT +X h^ q+.MV @J l;.m;.n;. S o;.9J p;.3P jv q-.2P _6 )H q;.r;.C$.'H s;.g-.I# t;.%> u;.QU v;.w;.XM sU @P I#.aS k%.9< Rq +P @P ;r : .6 .h7 [> r+.mN b= x;.q+.nT s% c@.f@.4*.y;.[@.z;.A;.B;.C;.D;.E;.F;.G;.H;.I;.J;.K;.L;.M;.N;.O;.P;.Q;.R;.S;.T;.U;.V;.W;.X-.b` X;.Y;.O-.Q;.Z;.`;. >..>.+>.                                                                                                                                                ",
"                                                                                                                                                                                                                                                                                                                                                                                                                                                                                                                                                                                                                                                                                                                                                                                                                                                                                          @>.Za #>.l! $>.^@.%;.%>.&>.*>.=>.->.;>.5l BA HP Fw In fs 0< %#.Ew (S D) (S <p <p ]y @T ]U ZS M..>>.]U 0< :p ,>.'>.)>.&#.}Q 9$.!>.~>.{>.]>.^>./>.(>._>.:>.Bz <p 8' ]B ^B jL Sq XM =X d0 oN P&.P&.f7 Pa P&.<>.[>.l! g3 90 [> l-.3O zT FP }>.h{ a=.zM ~w Nr |>.1>.2>.V$./+.=..3>.fO /6 4;.^6 ,K J; f  4>.5>.12 i#.6>.7>.8>.+T 5+..P hI ER 9>.0>.aS Wa E' /y ts Cz os !B _y ]E '_ ;) Q~ #: $: <! }! Z{ ~! 9;.a>.X> * .>Z m3 m3 2=.'` }E b>.d-.h#.w$.0;.QW I* U%.'H c>.d>.b;.b;.{9 e>.f>.g>.'*.xE h>.T%.i>.4>.A2 j>.k>.l>.2E ;Z dS fL m>.SV lI zT +N 1P sQ o^ gO T| a{ n>.9M 9M .R /@.o>.VK h-.p>.u0 |..q>.r>.s>.t>.=! u>.,*.v>.8; w>.x>.jI v;.7` E' ZG >E nF /B 9< xU +P nK : .gN 6 .T$.: .b$.M8 i7 w} @K K%.y>.O] XX E$.qW z>.YY A>.B>.C>.D>.E>.F>.G>.H>.I>.J>.K>.M;.L>.M>.N>.O>.P>.Q>.F-.N=.R>.S>.T>.U>.V>.W>.X>.Y>.Z>.`>. ,..,.+,.@,.                                                                                                                                          ",
"                                                                                                                                                                                                                                                                                                                                                                                                                                                                                                                                                                                                                                                                                                                                                                                                                                                                                       #,.Fi (k G#.u` $,.%,.&,.f] x&.*,.=,.-,.;,.>,.,,.^U ',.8%.)..`t ),.ds fs !,.~,.~,._p Ez Jw Mw E) 0B [y 2v Cz os {,.Hn ps Gn ],.AZ ^,./,.(,._,.:,.<,.[,.},.|,.1,.!B <p )B Dz pF ]B 2,.m=.oN l%.l%.oN oN -X lO /#.&X LT sU h3 oK h7 AL oL i+.-R l] z( z( %R <C 3,.4,.Yi 5,.6,.|l v} 7,.pT sT TW o-.WW Q4 ~=.8,.f+.x$.9,.2=.a@.8@.0,._2 >` 7Z ZO >E 6c m>.dS )B ts Wt Wt )B Dz Az Nt H) )< EV **.&~  _ $H J%.$H J%.a,.$: 1=.o3 7+.a@.5@.5@.mL mL 9[ m3 d-., .1@.e@.0+.b,.#| O  c,.d,.e,.f,.g,.b; WX |..WX xE e  '| h,.i,.c= j,.k,.l,.m,.$_ DT n,.o,.70 50 7O zT p,.E%.@J {[ q,.%R Rm TK 6J 3c fO I& -Y F. r,.). s,.G[ |..|..EU ,*.t,.u,.v,.w,.;> CT x,.6c >E gI ER ER gI v[ nK @P k%.nK v[ nK <Z L4 fI T$.y,.z,.A,.B,.C'  N eS G$.C,.0* D,.=Y DW E,.F,.G,.H,.I,.J,.K,.L,.X>.M,.N,.O,.P,.Q,.Q,.R,.S,.T,.U,.V,.W,.X,.Y,.J# Z,.`,. '..'.+'.V,.@'.#'.$'.                                                                                                                                 ",
"                                                                                                                                                                                                                                                                                                                                                                                                                                                                                                                                                                                                                                                                                                                                                                                                                                                                                    ;& Fi ,* )[ oI )Y %'.&'.Gu w/ *'.='.-'.;'.>'.,'.''.)'.Nn !'.^: <v Nw ~'.{'.]'.@m ^'./'.Nw ('.B, 7v _'.St fs 0< ts Pq :'.<'.Hn ['.AZ }'.|'.1'.2'.3'.4'.5'.6'.7'.8'.9'.9'./y ]y EC 0'.HZ c*.-X pN pN oN oN -X a'./#.=X h3 g..g..qY g.. K b'.t@.W> c'.e{ X` d'.e'.f'.g'.h'.@` 2P UW }@.i'.^6 [=.g  *N *N j'.k'.O. RW k#.9,.l'.mL _2 9>.ZO 8@.6@.ZO m'.n'.o'.fL !B }v Pq ^y GV 4+.Az G) UM bS Y> #: $H @H V~ %~ J%.yz I%.J%.p'.q'.a#.a#.H} >Z nI mL N%.7+.r'.]& l#.s'.t'.u'.j=.v'.w'.x'.y'.z'.A'.B'.b+.] .b  U! C'.D'.E'.(` c= F'.G'.H'.I'.J'.K'.j,.L'.M'.)K ]D 9S g^ xL N'.VG fo $R VG Hu 6J O'.P'.p-.p-.^` F. Q'.R'.S'./. :../` T'.%Z &> U'.V'.W'.X'.a#.$) n'.6@.hI cS Kd iO @P @P ;r @P nF xU iO mF aS mF AT ZO Y'.m>.Z'.N8 yL :S gO 2S h  `'.T%. )..).+).@).#).$).$).%).&).*).=).-).;).>).,).').U>..>.)).!).~).{).]).^)./).W,.*).()._).:).<).[).}).|).1).2).                                                                                                                        ",
"                                                                                                                                                                                                                                                                                                                                                                                                                                                                                                                                                                                                                                                                                                                                                                                                                                                                                 3).4)._) $X mO as [> 5).6).7).8).9).0).a).b).c).d).e).9Q WQ }m 0' y} /U h[ f).g).h).i).j).k).l).m).a' n).ms '>.1v <p /y 7@.Ln Gn o).p).q).r).s).t).u).v).w).x)./W y).cs Qt /y oF ]y !B GC ^B m=.c*.pN oN m! /Y c*.m=.N: H#.iI c*.g7 =X 5O .K sF $*.($.:*.z).A).~=.B).C).i'.Ma S&.FU )&.JU D).tQ l  JV JV _Z E).{O F).G).b@.Q^ H).I).J).K).U> L).M).+H 2+.'Y )R !B Pq `t `t )B Dz oF gL SO ~y bS Q~ SO zz IW EV **.**.sP zC $H #: $H $: a@.m3 }E a@.nI H} N%.H} N).U  T  O).P).Q).R).S).w'./, f-.f>.T).C$.J[ ^_ U).V).W).X).q;.J[ F'.z$.,H QW X( :` Y).Z).`). !.ZW o,.9S .!.oT |S @J +!.)I  R }S LN @!.#!.$!.%!.&!.&!.*!.=!.}$ /` -!.;!.&&.:` >!.b>.,!.*> '!.9; nn oI I#.)!.[Z v[ 9< @P .P DR Kd gI gI hI ER )'.&Z aS 5 .E- {: wC if 9S e^ XP `Q 1S !!.~!.{!.i  s0 ]!.^!./!./!.(!._!.:!.<!.[!.}!.|!.1!.2!.+'.3!.4!.5!.5!.6!.7!.<!.8!.^).9!.0!.a!.b!.c!.d!.e!.P>.T=.f!.g!.                                                                                                               ",
"                                                                                                                                                                                                                                                                                                                                                                                                                                                                                                                                                                                                                                                                                                                                                                                                                                                                              h!.t; u- o%.qN AL i!.j7 j!.k!.K, l!.m!.n!.o!.p!.q!.r!.mF zw Sq N: >N s!.t!.u!.2Q v!.w!.x!.y!.z!.[v #r $r A!.Z..%u 7Q 6Q ER !B B!.In 1p 5m C!.D!.E!.F!.G!.H!.I!.J!.K!.cs 1v (V !B 0' {y {y qF /B iI iI d0 &X d0 l! u` rF H#.c*.iI kS LT XM B ..K UP L!.[>.M: SQ }R Q: M!.p-.N!.O!.S&.m;.P!.Q!.R!.FU JU 7O Jq S!.T!.+| U!.yU k#.U  A  8, ;Z V!.Y{ q'.|=.2+.3+.9@.fL <p ^y `t `t !B )B 0' `> ,_ bS ,_ @_ bS bS `X `X yz V~ Y> a,.#: @H **.U] >Z m3 7+.mL 9[ mL a#.a#.A  N).W!.w-.X!.G- X!.X] Y!.Z!.f>.L[ d;.g,.q;.`!. ~..~.+~.@~.J~ g-.0+.XX  N z$.,*.8O #~.>H $~.%~.&~.*~.=~.-~.JU N'.S&.FT O!.@J .S o-.Sm Ma ;~.>~.,~.'~.)~.)~.!~.S!._` ~~.>: {~.]~.^~.H> G> A> /~.'!.(~._~.~..aS oY :~.k%..P .P ER +T .T `S ER +T BT fI : .5 .z-.z-.HP M8 5Z Ci l] <~.[~.}~.|~.1~.=. >u CV 2~.3~./!.4~.5~.6~.7~.8~.b!.9~.0~.a~.+'.b~.c~.d~.e~.f~.g~.:!.h~.i~.j~.i~.*).k~.*).l~.m~.n~.G*.W-.S>.o~.p~.                                                                                                      ",
"                                                                                                                                                                                                                                                                                                                                                                                                                                                                                                                                                                                                                                                                                                                                                                                                                                                                              u^ q~.r~.`..n7 if s~.50 t~.u~.w{ v~.w~.x~.y~.z~.A~.B~.pF Bw C~.WV BT :2 D~.E~.zk F~.G~.H~.I~.+] J~.K~.L~.F` Cz M~.6Q N~.9>.[Z O~.M~.);.&u P~.Q~.R~.S~.T~.U~.V~.W~.5v Jn 1v y).1v Nw WM CC /B ]B c*.iI A@.VV iI H#.rF rF rF kS N: m=.g..oK h3 5O AL .H }> zL zL kI )K X~.O. f2 9S zT zT IP k+.Y~.-~.8,.|R Z~./>  ' 8O `~.yU G).H).{Z }E FV >Z '` FV a#.m3 2+.+H tF <p ^y `t Pq <p 4+.]y `> D) G) zz ~y rP bS ,_ bS ,_ @_ AC Q~ V~ %:  {.#: c-. Y FV nI m3 m3 .{.kT +{.N{ N{ N{ @{.#{.v-.t'.${.,9 c>.{9 %{.&{.&{.B'.*{.={.!*.'H )*.t>.,H ,H f@.#~. N f@.m#.-{.;{.s'.L  :` `).>{.,{.`).I*  J lL {6 =N O. '{. J {6 ){.^D !{.~{.{{.N4 50 X~.*Y ]{.^{./{.({._{./{.U'.:{.<{.r'.[{.}{.Vz b'.tF &Z 0>.mF xU +P Kd .T 0' hI I#.5 .g7 g..d0 l%.l%.!6 &X |{.rN !=.c{ rQ 1{.>% 2{.3{.2{.4{.j>.5{.6{.7{.8{.9{.0{.a{.b{.b{.c{.d{.e{.f{.g{.h{.~).7!.i{.j{.k{.l{.m{.n{.k{.o{.p{.q{.P;.[).r{.Q>.s{.)).t{.u{.v{.                                                                                             ",
"                                                                                                                                                                                                                                                                                                                                                                                                                                                                                                                                                                                                                                                                                                                                                                                                                                                                           n{ w{.x{.y{.'[ !=.<;.)K z{.8S hc Ul A{.B{.C{.D{.E{.F{.G{.H{.I{.J{.~6 |V 0c K{.2Q L{.M{.N{.v!.O{.P{.Q{.R{.jI qY ^B ER S{.9*.x,._ .v;.T{.U{.(V C!.V{.:,.W{.X{.Y{.Z{.`{. ]..].cs Dw (: _'.D) (S {B +].2,.m=.A@.O .H#.A@.N: iI O .x, @].iI g7 LT LT |Z ZQ lT P: .H AL #].IP -9 8[ kF D- 3O <;.tP aO $].,h UY &= O. %].&].*].yL @K G).]..Z'.'` ;Z 2=.;Z '` 2=.=].$K 2+.I) )B `t Pq 7@.GV 8' 0' gL (S hL zz bS H) )< bS ,_ bS )< AC @_ EV !< %~ !< c-. Y 7+.8, xC a@.-].L%.+{..{.b* ;].;: M%.w-.w-.W!.T  f>.b;.{9 >].B'.f-.b+.,].b; C$.q;.i@.,H '].c@.#~.e@.d@.d@.,H f@.,H )].K& !].m@.~].{].]].^].SW lL 60 w&./].Z~.)K 50 (]._].(].:].<].[].z{.Z~.kF .N 8O }].|].BF 1].>!.gk %Z 2].k#.>!.3].4].5].u$.fI 6]. T Kd .T ]y @P gN T$.>=.XM m! d0 l%.pN l%.vZ m! IZ mP -R 7].o! &= H# 8].9].0].p  ]. 1~.a].*b b]._!.c].d].k~.*).e].f].g].h].i].j].<!.b].k].c]._!.d].9{.(!.l].8~.m].n].:).o].p].q].r].s].t].u].v].w].                                                                                    ",
"                                                                                                                                                                                                                                                                                                                                                                                                                                                                                                                                                                                                                                                                                                                                                                                                                                                                        x].NH q~.y].z].)N A].IP h^ B]._].C].r^ D].E].F].G].H].n>.iI I].:p nN 6 .h3 gL J].K].L].M].N].O].P].B} Q].R].BY S].0*.T].U].V].W].X].Y].m=.Fw Z].`]. ^..^.+^.@^.#^.$^.%^.&^.Y+..].Jn ^W E) j3 %#.!B !B qF qF iI A@.N: kS d*.*^.a'.=^.-^.UV 5O oK 6 .6 .ZG .J n3 |> as ;^.k+.w} NP D- mO >h TM h] TM AY 80 q+.-9 >^.r$.M'.,^.G).'^.[;.;9 '^.zY )^.'` * .`, !^.Z{ ~^.yz )< Dz ns `t 7@.9'.GV (y Bw {^.G) Nt Nt D) {^.{^.G) Lq ]^.@_ ^^.^^.v` @H  {.E3 !< * .}E a@.nI .{..{./^.9[ H} 9[ ;].L%.'Z {Z (^._^.:^.<^.L[ %{.[^.d>.,9 }^.|^.c@.B$ XX 1^.2^.f@.-{.0+.1^.>H z$.@Y w-.+| 3^.4^.T'.K; 5^.6^.Y).7^.8^.9^.0^.D' a^.;9 b^.b^.c^.d^.Q8 6O zT i^ Xa +N f2 -9 e^.f^.g^.:. Y~.h^.i^.j^.i,.&= mn k^.<{.l^.m^.8>.AT n^.3W nK ;r 6 .T$. H qY iI VV Ld <R c*.>=.oK o^.!K i+.eI tP w} }R mY }; p^.dB q^.r^.s^.m; t^.u^.v^.w^.x^._!.().y^.z^.A^.c].B^.C^.D^.E^.F^.G^.H^.5~.I^.c].n{.i{.J^.K^.L^.M^.8~.N^.z^.O^.m].P^.Q^.R^.S^.                                                                              ",
"                                                                                                                                                                                                                                                                                                                                                                                                                                                                                                                                                                                                                                                                                                                                                                                                                                                                     T^.b] m' U^.V^.W^.Qd U} p/ 7 .j7 X^.Y^.Z^.`^. /../.+/./T x&.@/.*@.F` .Y h3 TQ Qw #/.$/.%/.&/.*/.q6 =/.-/.0+.h^.;/.>/.,/.'/.)/.!/.~/.{/.]/.uZ Az }p ^/.//.(/._/.:/.</.[/.}/..u Nq Jn *r Nw _'.Iz Jw !B /y FC /B `G HZ |/.m=.*^./#.)6 K4 d0 <>.1/.[> J{.b$.m>.as I)..J o'.as @X TP j] h] WV i+.2/.9Z 90 |` E_ aO 3/.YM M'.;H 4/.w#.M4 5/.'^.D' 6/.Z'.d#.v$.`, !^.q'.S^ Y> '_ /y ns ns Pq &*.9'.8' /y (S CC w[ G) CC Nt 7/.|B Lq ]^.Q~ a[ 8/.a[ U] @H !< $H 2+.'` >Z xC b* +{.9[ H} ;B 7+.N{ ;].M%./S W!.v-.9/.0/.c>.<^.>].a/.l=.b/.)].XX OW 0+.f@.F).B$ c/.e@.O]  N u>.w-.v-.O] m#.ik '].W, ]9 6^.m#.m#.x' 9^.8^.d/./{.5/.b^.e/.x#.lI f/.6O f2 kL KP Xa KP YM +N ET g/.h/.Y~.|@.i/.h=.l  A-.:Z j/.ZW k/.l/.m/.n/.o/.p/.fX oY L4 T$.=X +P N: qF m=.Rq A@.A@.QU sU J{.h7 R8 <;.X].<;.eI 7 .z> ;H 8].L'.q/.r/.s/.t/.u/.v/.w/.x/.y/.z/.A/.A/.B/.C/.D/.E/.F/.G/.H/.I/.k].J/.K/.L/.M/.i{.N/.O/.k{.O/.P/.Q/.R/.l{.S/.T/.g~.U/.h].V/.W/.                                                                     ",
"                                                                                                                                                                                                                                                                                                                                                                                                                                                                                                                                                                                                                                                                                                                                                                                                                                                                     X/.Y/.=i &i Z/.j/ r] go };.|` @X `/. (.lH z: .(.+(.@(.x] ~S a' tU Rq FC iT #(.$(.%(.&(.*(.=(.-(.;(.>(.,(.K  '(.)(.!(.~(.            .- {(.](./B |p C!.^(./(.((._(.:(.<(.[(.}(.*r Jn *r Xt ^W |(.*Z 4+.)B Sq ]B kO `G `G c*.1(.)6 d*.1(.uZ l%.>h i+.ZQ #].i7 n,.2(.3(.2(.W*.J{.QU l! m! -^.[>.-^.m! ~S >h jS X].x;.mY g^ IP mS '` ;N l-.mS g#.mS @X X> `, $K d#. , EV U] 8/./y ns `t `t <p 9'.9'.8' [p (y {^.|B g) k3 k3 BC M..Jz a6 ^E a[ a[ EV **.Y> V~ Y{ JW 7+.8, b* ^..%K mL A> mL QW %Y 8O QW +| $ .4(.S  0/.d>.b;.a/.`  5(.6(.b* %Y y$.;{.s'. N )p 7(.8(.9(.0(.a(.<^.'H a+.*{.b(.A$ A$ c(.b,.d(.e(.d(.wU f(.g(.h(.i(.j(.nL z-.m-.l-.C) 80 <;.k+.<;.TV )h xI -R !=.i..0* k(.l(.h>.m(.C-.n(.o(.p(.Q%.q(.b>.r(.s(.t(.u(.<Z mF iO `S FC <v Rq IC ac <*.]: )Y %H fI ,Y +J 90 WV eI r+.if 3O 2]..!.v(.w(.x(.y(.z(.A(.B(.C(.D(.E(.F(.G(.H(.I(.J(.[: K(.L(.G/.M(.N(.O(.P(.Q(.R(.S(.T(.U(.V(.W(.X(.Y(.Z(.`(. _.._.+_.@_.#_.+'.$_.%_.&_.*_.                                                            ",
"                                                                                                                                                                                                                                                                                                                                                                                                                                                                                                                                                                                                                                                                                                                                                                                                                                                                  =_.SE t` e} z].8..>X 4S -_.q,.&O j] ;_.>_.,_.7d '_.)_.!_.*'.=X WQ iL kS EC ~_.{_.]_.^_./_.(_.__.:_.<_.[_.}_.|_.)(.1_.2_.               3_.4_.5_.!B 6_.7_.8_.9_.0_.a_.b_.c_.vY fp *r .].Jn (: Fw |y fs 4+.)B Sq HC HC qF m=.A@.N: |/.|/.N: N: vZ h..WV ZQ #].wC wC #].M4 Q8 E- h7 B .h3 g7 5O jI =X 1/.d0 >=.90 F%.t@.>R NP nL [> uF d_.1E M .kI ;N ~R 2+.`, * .;Z tF zC & .Y> Dz ns Pq Pq <p &*.&*.<p )B &*.)B Az 'E %( e_.{^.f_.g_.h_.i_.)< ;) J%.#: $: **.Z{ U> 9@.>) xC xC mL 7+.;B xC 7+.]Z i#.jT yU jT j_.j_.V! k_.<: u-.l_.D+ H'.- .b@.C' QW ;{.y$.XX 1^.1@.m_.mX @Y n_.[$ *{.kh n#.B$ ik o_.p_.q_.wU r_.s_.Q^ e(.t_.u_.v_.w>.w_.GZ i7 DV ~: if ,h $].eI A).~[ 7].OU e^ m;.x_.y_.pT P4 l  G$.m@.z_.A_.4..%Y ;*.j(.(~.B_.C_.A> !R 0,. T +T .P Kd UM ,_ nK xU {E xz )R ^S lT [> x;.l-.<Q ~: w} mN ,h >^.^{.:Z D_.E_.F_.G_.H_.I_.J_.K_.L_.J(.M_.N_.O_.P_.M(.Q_.R_.S_.T_.O(.U_.V_.W_.X_.Y_.Y_.Z_.1' `_. :..:.+:.S. X_.@:.$. #:.$:.%:.&:.z=.*:.=:.                                                   ",
"                                                                                                                                                                                                                                                                                                                                                                                                                                                                                                                                                                                                                                                                                                                                                                                                                                                               1C -:.;:.d=.m] >:.d^ ,:.n;.yx q,.1` Pd >:.':.):.Cm !:.~:.., *-.3O mO Ra {:.B .,_ ]:.^:./:.(:._:.::.<:.[:.A'.}:.|:.1:.2:.=..               %h u( .J 3:.'#.4:.5:.6:.7:.8:.9:.0:.a:.:>.Nq Nq b:.Nw Ez E) Ez (V St Wt 6v Ew :p c:.WQ @/.c:.t$./B GC A@.VV XM g7 {: k] |` WV $].if WV *-.Rq FC jL Rq Sq FC pF .K d:.$*.]2 }=.^1  K  K }=.lS L!.F%.e:.&H MP P: E` .H D3 mS kI d#.nL $K .P !B _y _y /y Dz !B )B _y (y os ns `t :p Hz f:.$( w[ WM CC Q~ AC EV #: Y> EV $H Y> sP a,.#: %~  {.**.X/ ._ A} a@.s$.7+.a@.mL H} 8, F> N%.a#.J& J& ,!.*> ;B F> H} ;B wU N%.N{ +{.-].A  .{.+{.A  n_.,9 g:.#| g:._^.|5 a/.h:.h:.i:.}^.j:.a/.T  +{.a#.l'.k:.l,.T/ $_ N8 FW c..E- wC eI tP U| }P nO f2 (].<-.:-.40 /> l:.s% !].,H c= m:.B$.K;  N XX b@.4..l>.I'.b>.n:.o:.p:.9>. X  X .P `S q:.cS VM ZG fL .H mF {: sY jI 5O g3 |` ;R lL ]R m(.nW H- r:.s:.t:.u:.v:.w:.x:.E_.y:.z:.A:.B:.C:.D:.y:.Y(.D^.v^.E:.F:.G:.H:.I:.J:.K:.L:.M:.N:.S. U(.O:.P:.N=.F*.Q:.R:.S:.T:.U:.V:.W:.X:.                                          ",
"                                                                                                                                                                                                                                                                                                                                                                                                                                                                                                                                                                                                                                                                                                                                                                                                                                                               Y:.%= j[ >:.^& !h `Q Rm LX g/ qK 7~ Z:.m^ `:. <..<.+<.@<.e#.[$.3O c~ #<.$<.J{.`X Ez %<.z[ &<.*<.=<.-<.;<.><.,<.'<.D,.P4 }S                )<.mH !<.~<.{<.2'.]<.^<./<.(<._<.:<.Vq U{.Nq Jn b:.Nw Nw Y*.(: y).2v :p I{.I{.I{.^: ^: 7v 6v :p 0< ^B qF N: c*.>=.g..&X /Y KT i+._-.>h Rq (y ]y IC IC <v Rq qF .X c=.d:.]2 %*.}Z ]: #P <R <<._E LT g..kN [<.}<.J{.J{.@X SV @X +X '^.9[ nK )B _y Dz 4+.4+.8' <p &*.<p `t os ns ns :p %#.k3 }B }B ^2 v` ^^.V~ !< Y> Y> EV V~ v` ^^.Q~ '_  {. {.+_ ._ d[ OC |<.|<.nn &_ 1<.yC 2<.2<.s$.|<.N%.3<.a* }E 2=.%K FV 9[ }E 8, a#.$_ 7+.mL N%.t_.;: 4<.a/.n_.,9 g:.a/.j:._^.5<.5<.6<.c(.u'.5<.#Y 7<.E7 >Z a@.a#.*> >!.8<.b>.@X c..+J 7 .w} 7 .NP {R >^.kL B].;R KP w&.9<.0<.F).U%.q;.b+.=! b+.r;.F'.3^.c/.a<.Z@ K'.'!.2=.b<.ZO `S cS {y (B a< 0c E' BT AT AT ,R d:.kS kO pN HP u[ i^ Q: c<. : d<.e<.f<.g<.h<.i<.j<.k<.l<.m<.n<.A:.o<.p<.q<.r<.r<./!.s<.A:.y:.t<.u<.v<.w<.x<.y<.z<.A<.B<.C<.N(.D<.E<.I-.F<.G<.Y;.H<.d* bh I<.3h G-.J<.K<.                                 ",
"                                                                                                                                                                                                                                                                                                                                                                                                                                                                                                                                                                                                                                                                                                                                                                                                                                                            =z L<.zQ |T <P dI nT `Q f] )z AD e} M<.J: N<.O<.P<.Q<.R<.^T 1/.S<.3 .b~ T<.U<.<>.Va Bw 1B V<.W<.X<.Y<.Z<.`<. [..[.+[.@[.4;.J;                #[.cf $[.%[.&[.*[.=[.@^.s).-[.;[.>[.Vq U{.Jn cs St Xt (: _'.fs Rt |v Ew %#.Mw Mw 9' I{.%#.Ew :p Wt ns ns GC GC qY sU =X XM mO k] g3 |Z qF _y <v {y (S gL Ua iL {E }Z }Z .X ]2 .X )Y #P u` O .@].,[.RU sU 5O O: P: 3 .AL 3 .DT #1 ~R s$.xU )B (y /y 4+.!B 4+.!B 4+.4+.^y Pq ^y ^y os Ew <p `> '[. ~ )[.;) yz Y> #: V~ EV yz '_ '_ Q~ AC $H **. {.E3 Z] Z]  _  _ s$.![.yC ~[.|<.8>.yC yC 9[ /~.Z<.>) `, }E 5@.%K %K a#.a#.H} %K $_ $_ +{.N{ v-.b,.a/.V! {[.][.^[.h:.#| /[.c(.n_./[.][.h:.H> l'.8, mL nI 5@.i#.2E 1].([.^~.g#.i7 FW ~6 if _[.'^.RV :[.<[.<[.;9 ;9 N4 AU :> |R EU EF o(.i,.YW j. [[.!].<` j,.}[.|[.1[.9[ 2[.'..Kd  X .P cS >E J).<Z <Z *-.}Z O .kO jI gN ,h +N Z~.>/.3[.q/ 4[.U%.T'.5[.k>.6[.7[.8[.9[.0[.s/.a[.b[.c[.d[.e[.f[.g[.h[.q<.J:.i[.H:.j[.J:.I:.k[.l[.m[.n[.k{.o[.p[.I=.S;.q[.r[.s[.C;.D;.t[.u[.v[.w[.x[.y[.z[.                           ",
"                                                                                                                                                                                                                                                                                                                                                                                                                                                                                                                                                                                                                                                                                                                                                                                                                                                         A[.mU uG Kr T| M. K#.k-.^H B[.LX q! C[.D[.n( E[.c2 F[.G[.H[.I[.J[.VQ 1/.K[.L[.M[.^Y M: u(.9;.N[.O[.P[.`<.l=.b,.Q[.R[.S[.T[.s% U[.V[.               W[.jc I).X[.uh Y[.7m Z[.`[. }..}.b:.*r Jn Rt St fs Xt ),.es St b' I{.Mw A, Mw 7v %#.I{.Wt Wt Wt `t ts HC Sq jI XM oK jI pK >h TP g7 GC _y ]y ]y ]y `> U+.<*.#P y, {E {E *-.{E )Y .Y +}.qP iI N: oK g..5O B .@}.a-.{2 GZ ~R ~R ~R #}.+P )B (y Dz )B Dz !B !B (y )B ts 7@.ts ns Ew 9' IC Az Dz <v @_ Y/ U] $}.Y> EV $H J%.H) bS H) @_ J%.!< !< @H +_ A}  _ +_ %_ #}.#}.|<.s$.yC yC %}.2=.&}.J& '` v$.2=.'` =].FV >Z 7+.nI 8, H} 8, 5@.N{ ,9 ,9 #Y 9W g:.(^.u-.j:.c(.u'.5<.,9 )9 *}.`<.a#.xC J& ;B a@.FV a;.DT mS w$.l/.m^.j(.b>.oL b$.S].=}.$[.v#.w#.5/.'^.[;..N z{.f2 .' -}.|R ^{.EF !]._. 2..EW ;}.>}.,}./{.'}.)}.!}.~}.{}.ZO [Z mF $) J).I#.<Z .Y +P iI c*.sU L!.TP $].q+.'{.{6 -E ]}.}+.$ .)p BU $~.r^.^}./}._. (}.t^._}.:}.D:.W(.Z_.<}.c[.C:.[}.}}.2+ |}.1}.2}.3}.4}.B<._!.k{.i~.5}.6}.7}.QQ 8}.9}.a!.0}.a}.b}.c}.d}.e}.f}.g}.V,.h}.i}.j}.               ",
"                                                                                                                                                                                                                                                                                                                                                                                                                                                                                                                                                                                                                                                                                                                                                                                                                                                      ;S k}.J] l}.m}.n}.dI ^& hO H* b=.b=.IX ZJ o}.p}.q}.r}.s}.t}.u}.;i v}.w}.w, RU x}.y}.z}.A}.{2 B}.C}.D}.E}.F}.G}.a/.H}.I}.J}.a(.;!.sT K}.                  j{ L}.FW M}.N}.O}.P}.Q}.R}.S}.^W Dw Dw cs Rt fs Xt ),.ds St es 9' Mw Mw 7v 7v Mw (: b' ds es Pq 7@.!B Dz Sq {B k%.+P jI g7 oK jI Rq <v <v (y )B <v Ua U+.]: ]: >N >N )Y >N ]: +P iI +}.T}.O .H#.@].O: QU QU .K MT U}.<E V}.F%.{}.#P Dz (y Dz /y Dz <p &*.<p <p ^y Pq os Wt Ew 6v Cz 9' {y 0' Kd ]E a,.$: $H yz  , sP Q~ AC )< bS EV @H $: **.&~ +_  _ +_ ~[.![.W}.![.nn 1<.yC s$.v$.X}.mL 2=.}E 5@.2=.=].>) +H }E $_ ;B }E 7+.a#.^..L%.^..]..;].kT wU Q^ q_.+> 6(.Y}.Z}.CF Z  Q^ *> a@.xC 9[ nI FV ;B nI b>.w$.>R DT Q].`}.l^.3].W   |..|.6/.[;.:[.v#.'^.8[ kF +|.@|.eI kL 3/.>^.N'.#|.1S $|.%|.Y~.&|.*|.dB W  l/.`}.=|.-|.;|.6c >|.m'.dS ZG [Z ,|.iO nF '|.B .zL #].<[.)|.!|.~|.d^.{|.Z'.]|.<[.,< 9+.4/.dB &~.^|./|.(|._|.:|.<|.Y@ [|.}|.||.1|.2|.3|.J:.o<.4|.5|.6|.n<.7|.G^.m< 8|.9|.-).0|.a|.b|.c|.d|.e|.f|.g|.7!.h|.i|.T_.j|.k|.l|.m|.m|.n|.         ",
"                                                                                                                                                                                                                                                                                                                                                                                                                                                                                                                                                                                                                                                                                                                                                                                                                                                   o|.p|.d! q|.H& DP Rm !N K) SY r|.6~ d=.bM Ir <- s|.t|.u|.v|.w|.':.Nl x|.y|.z|.c=.KT )=.A|.B|.C|.D|.E|.F|.G|.H|.]9 {[.I|.J|.K|.L|.K& DU M|.                     N|.,M ^$ 9^.s_.O|.P|.Q|.R|.&*.Oq y).Rt Rt es Xt ),.es 1v fs 9' %#.9' 9' 7v Kw Xt b' b' b' Pq ts 4+.<p HC FC ;r  T nF oK >=.nK Bw {y `> oF _y <v ac ac v[ +P #P ]: #P >N y, .Y VV @].u` Ld VV iI UP $*.lS =X 5 .zL GZ &H S|.&' Bw Dz _y (y )B /y <p 8' 8' <p ^y Pq ns 0< :p Wt Pq os Dz (y  X !y )y Jd Y> $}.sP  , '_ H) )< )< Y> V~ V~ $H **. {.%: %: T|.1<.nn 1<.g2 nn ~[.&_ =].;B }E 5@.a@.>) }E >Z =].5@.%K /^.7+.7+.a@.xC Q^ b* ;].+{./S /S H).- .U|.f(.A  kk Z}.'Z  . << /^.}E >Z a@.a#.>Z >Z xC d-.w$.V|.6>.b>.h#.O%.m,.W|.X|. . /S Y|.Q8 ;9 D' 3O nO Z|.`|._S mY `|.3/.[*. 1.E%.C#..1.[~.D#.+1.z_.@1.:. b>.m^.#1.$1.%1.U'.X> &1.)!.k%.nF k%.]: L!.UP [> F#.N8 yL yL C' m>.n:.m>. |.7, @K yL yU *1.A_.MU =1.-1.;1.>1.,1.'1.)1.;Y !1.`_.~1.|}.J:.{1.e[.+:.x/.M0 E/.]1.J# /$ ^1./1.]  g|.(1.g]._1.:1.<1.[1.}1.|1.11.21.31.41.51.61.61.71.e{.81.91.",
"                                                                                                                                                                                                                                                                                                                                                                                                                                                                                                                                                                                                                                                                                                                                                                                                                                                   01.a1.3{ %= b1.c1.>:.:Y !N ): ;X d1.5M e1.a` f1.g1.h1.i1.j1.k1.l1.J: m1.n1.H) EV @|.6~ o1.p1.;X F_ q1.r1.s1.W. t1.t_.u1.v1.w1.x1.J& DU $..                                             g#.n^.GV Dw St Rt es Xt ),.ds ds fs Nw Nw Nw Fw *Z F) es |v |v 1v St 2v !B 9'.8' oF ]y <p ER xU k%.xU _y _y <v oF 0' 0' FC Sq k%.iO nF .Y +P )Y *-.#P qF iL z, z, jL Rq iL EC *-.)Y ]: %*.R|.]2 y1.Z! Nt Bw `> oF /y )B 4+.)B !B )B ^y 7@.ts os Wt Wt ns Cz /y /y .P gI SO )< >` zC AC v` ;) H) ,_ ,_ z1.z1.U] $: U] $:  {. {.&~ @H 7>.1<.g2 &_ yC {}.LP |<.7>.!R ~..l3 {}.&_ &_ ![.7>.g2 g2 s$.7>.`, ,Z U  +{.{Z -].'Z N).kT A  t_.Z  f(.t_.V  Q^ A1.2+.mL a#.* .}E 7+.nI m3 a@.2=.m3 m3 %K m3 `, $K 6/.B1.O> C1.D1.;B mS Wa FW Wa TP g! f{ E1.F1.1{.G1.H1.p! 7S e^ EP EP I1.J1.v(.E#.L'.)1.RW .N <` %1.K1.L1.h#.M1.w;.[Z v[ v[ nK dS ZG as 2(.N1.i!.'` LP fL n3 ^S $) ;Z !^.~R w$.O1.2].'* MU P1.Q1.R1.S1.o@.w(.T1.U1.V1.W1.X1.<}.Y1.Z1.Z1.`1. 2..2.m{.7~.+2.L/.@2.#2.d~.$2.%2.&2.*2.=2.-2.;2.>2.,2.'2.1|.G:.[}.|1.)2.!2.~2.",
"                                                                                                                                                                                                                                                                                                                                                                                                                                                                                                                                                                                                                                                                                                                                                                                                                                                v4 O_ zW -& TK (> ): {2.i..dI .&.c1.bM f} ]2.9- ^2./2.(2._2.:2.<2.sJ [2.}2.zJ Q~ -: 5' {[ |2.12.C[.+Z 22.32.42.52.S$.;B 62.72./' X^ %}.2].                                                ^H F#.GV Dw St Rt es Xt ),.ds Xt Xt Xt Xt Nw ^W ),.F) |v 2v 2v 2v 2v b' /y Bz 9'.GV IC WM .P ip iO nK (y /y 0' {y {y {y jL qF nK iO xU +P nK v[ )Y nF GC Rq pF ac jL GC z, Ua .X ]2 y, ]2 82.]: ,E ;_ }B w[ k3 Nt Dz <p 8' /y 8' 4+.Pq ^y ^y ns os `t ^y ^y 4+.(y <v  X cS zz xz IW ,_ H) Q~ @_ )< bS z} 92.U] !< V~ V~ $: **.!< U] 7>.1<.V> 1<.T|.V> ~..|<.![.!R l3 7>.~..~[.~[.LP u$.u$.1<.& .& .V> $) /S 'Z - .YQ !` ^..!` @{.N{ @{.^..M%.- .-].b* F> FV 7+.H} }E v$.=].'` 2+.;Z }E }E * .v$.$K '` V{ 02.=*.P] a2.,!.b2.c2.d2.SV pK h] e2.f2.Y` g2.h2.i2.'X 'X j2.!N XR n^ !!.,: p,..N !].k2.EU EU R%.Vz l2.m2.n2.o2.{E ;r oY [` e#.^1 z,.p2.e).z,.CT I) V> I) & .e#.as !^.~R O8 q+.>^.b{ :Y 7S q2.r2.s2.-H  > *|.t2.8].U1.]].u2.F/.7|.v2.w2.v2.x2.y2.m{.z2.A2.g~.B2.C2.D2.E2.F2.z<.2}.G2.H2.I2.J2.K2.L2.M2.N2.O2.P2.Q2.I:.",
"                                                                                                                                                                                                                                                                                                                                                                                                                                                                                                                                                                                                                                                                                                                                                                                                                                             R2.S2.T2.NT #S U2.05 JN V2.'X >X 'q :#.W2.0Z X2.u! Y2.Z2.`2. 3..3.+3.20 AJ @3.[2.g2 T~ ]> %O s( #3.qf $3.%3.&3.&T *3.-~.X}.{' =3.-3.;3.Z! >3.                                                LN ,3.<p Rt Dw cs Rt (: F) fs (: Nw Ez Ez Ez ^W ),.F) b' 1v 2v 2v 1v 1v [Q 4v GV 8' Az ]y Bw _y )B _y Dz 0' ]y Dz <v G) ~E U+.nK iO v[ iO iO )Y )Y >N FC /B jL qF ]B pF DC DC ]: )Y .Y .X A .)Y >N ,E G) CC CC hL 4+.Dz <p !B )B 8' `t Pq M~.Cz 6v 7@.`t ns os _y Az IC !y SO UM zz ,_ rP ,B bS '[.a[ ]^.^E /1 ]^.Lq ]^.;) rP ;) AC ;) 8/.)[.v` R|.'3.U] +_ **.yz **.$: #: J%.$H V~ $: **.Y> $}.$H U] ;Z 5@.7+.9[ m3 v$.* .7+.a#.=].nI 9[ m3 >Z F> xC /^.H} =].m3 =].m3 ;Z m3 2=.=].%K >Z >) +H ;Z 2+.~` )3.!3.~3.2=.N%.{3.T/ _9 ]3.HF ^3.GP /3.(3.m%.|P `Q !N ^H ,: E  ^& XR j..[~.S&.]W .' 3..EU s% <{.t,._3.3=.[{.c2._9 :3.#}.dS BT >) m'..J T].m>.>E {E }Z ]2 $}.$H #: Y> n:.n3 ;N 0O 3O D- ^L :Y U| w$.r'.&> 6>.<3.[3.9].Kt }3.E_.|3.13.23.33.O_.43.53.63.73.v$ P:.83.B2.93.03.a3.1|.b3.c3.d3.e3.f3.g3.h3.i3.j3.k3.l3.m3.",
"                                                                                                                                                                                                                                                                                                                                                                                                                                                                                                                                                                                                                                                                                                                                                                                                                                             n3.cG o3.p3.bJ XV bM q3.]O h{ r3.IX yx s3.5P t3.@6 u3.v3.w3.x3.y3.z3.A3.): B3./) =].C3.D3.Jl x{.@3.h' 8G E3. O F3.G3.XR W}.P' d6 H3.I3.J3.H*                                                 K3.LU T{.cs Dw cs cs Xt Y*.fs Nw Nw Nw Nw Ez Fw *Z ),.1v 1v 2v 2v 1v 1v [Q 3v <p [p 4+._y {^.WM /y [p )B IC {y _y (y `> w, w, v[ iO xU k%.k%.#P .Y #P jL GC pF FC Sq iL DC ac {E y, #P .X %*.y, )Y y, Nt hL Nt (S <p Dz )B /y /y <p ns ns ts Wt ^: ^y ns ns os Cz 0' oF ]E UM !y zz rP ,B zz rP BC w[  ] v, ^E ]^.L3.Lq v` '_ ;) AC ;) a[ ^^.;) p/.'3.yz %~ EV IW a,.$}.a,.sP yz yz $H V~ yz $}.J%.J%.~..v$.v$.'` >Z m3 =].9@.9[ 3+.3+.N%./^.8, >) d#.2=.m3 >Z m3 2=.v$.2+.>) '` =].=].=].$K $K ;Z v$. |  | [! i[ 8, N%.l'.m,.2 .M3.N3.O3.P3.*H A}.(Y FP !h SY :Y 2O !!.Q3.R3.S3.M. Q: T3..' `M :-.f^ nL q(.:{.a;.pQ ~R r'.'}.U3.V3.'!.xC `, T].T].*&.aS .Y {E -_  , )O a,.Z] 5@.v$.+K N8 oL tP [*.J) F%. K C) h#.g#.d2.W3.8].X3.Y3.Z3.`3. 4..4.z(.+4.@4. 2.#4.J# $4.j].%4.&4.*4.=4.-4.;4.>4.,4.'4.)4.!4.~4.{4.]4.^4./4.(4._4.",
"                                                                                                                                                                                                                                                                                                                                                                                                                                                                                                                                                                                                                                                                                                                                                                                                                                          :4._O  h <4.i-.+R [4.a} 0M qK qK 05 |O }4.|4.P .cL z) 14.24.34.44.54.64.20 hS 4P ON g#.74.84.94.V) 04.Z* a4.b4.c4.d4.rU j2.|<.3! e4.f4.g4.e:.3S                                                 ef LU 0'.^y ^y Pq ^y Ew _'.fs Ez Nw (: (: Nw Fw ^W ^W ns `t `t `t ns ns `t `t ^y M~.`t ^y I{.^: :p 6v oF )B !B <v oF (y FC iN )Y xU #P ]: +P xU @P xU .Y iO nF +P +P ]: .Y .Y *-.y, v[ ,E %*.y, ]: ]: hL {y G) WM Dz 0' 0' ]y (y )B os os Pq Wt 6v ^y `t ns ns Cz ]y <v cS ]E ]E VM ,B zz gL gL Nt Nt h4.]^.>~ z} &5 h_.L3.^E @_ H) '_ Q~ ;) ;) AC Q~ @_ i4.8/.~y '_ '_ )< @_ ~y ,_ H) Q~ '_ '_ H) I%.yz EV yz I%.yz !< **.$}.EV U] #: %: **.%:  {.X/ $K v$.%K >) 2=.d#.X> !^.a@.>Z ~^.Y{ 1=.1=.Z{ B> o) V!. Y B> j4.7+.X}.H> 3].R%.;*.V|.w_.8; k4.l4.AF YM q+.f^ M'.-}.O1.v(.m4.S$.M'.kF mT @|.6O Xa b$.SV 3=.;*.DT 4=.Q].k#.9O G}.n4.o4.p4.5^.KW q4..H AL Va e#.U] zC `X Jd $}.EV 2+.v$.g#.~R D- }R .H 6 .ZQ zL N8 w$., ., ./ .r4.=~.s4.t4.u4.=~.o  v4.w4.x4.y4.z4.C^.A4.d].N(.Z(.B4.X1.C4.,4.D4.E4.F4.G4.H4.I4.k3.J4.K4.L4.",
"                                                                                                                                                                                                                                                                                                                                                                                                                                                                                                                                                                                                                                                                                                                                                                                                                                       M4.&! N4.rf cU 9#.aW 1O rL [4.}T n] o] o] y& y& O4.O4.P4.KB Q4.R4.S4.T4.U4.XY U2.D! d1._S yL V4.W4.f} x{.X4.h} Y4.Z4.`4.6  Q3. 5.L~ .5.K .+5.}V @5.                                                3t pX +].ts 7@.^y ^y Ew ),.es Fw Nw Xt Xt Nw Ez Fw Ez ns ns ns ns ns ns `t `t :p ns 0< `t %#.I{.Wt Cz /y 0' ]y )B Dz oF z, FC #P nF )Y ,E #P @P iO nF nF iO nF +P +P +P k%.nF #P #P nF {E ]2 )Y #P ]: gL {y {^.D) 0' <v oF _y (y Dz Cz os `t 0< Wt ts `t `t ns Cz ]y <v cS ]E cS UM zz zz gL gL (S `> Mt Aw i_.]^.1B X~ e) ]V UM ~y @_ @_ bS rP H) ^^.'_ PC a[ rP ~y ,_ bS H) ,_ rP ~y bS bS '_ bS zz $}.**.!< J%.Y> !< E3 %~ a,.**.$: a,.**.Y> EV !< X> +H =].3+.>) +H v$.>) 2+.'` Z{ V/ 1=.a>.a>.JW T^ o3  Y Yw >) 2=.m3 n:.w$.^~.&> 3].Vz j#.#5.8<.$5.7# *|.8O UY o; zT zU mT >3.kL >^.zU >^.>^.-9 SV #].Wa O8 mI ]Z &Y ,*.|].%5.&5.*5.y(.=5.-5.;5.`|.J{.f..E' EV I%.)y I%.`X )O $K '` ~R 3=.f^.D3 GZ .H J{.T$.i7 kI ,^.5/.@K PW v(.6# >5.,5.'5.t2.)5.+).!5.13.g[.~5.{5.]5.p, ^5./5.(5.'2._5.C4.:5.<5.[5.L4.}5.|5.15.25.35.",
"                                                                                                                                                                                                                                                                                                                                                                                                                                                                                                                                                                                                                                                                                                                                                                                                                                    45.ey 55.5# `J 65.BD IX 75.85.95.`J +h |Y |4.05.g~ a5.b5.c5.d5.e5.f5.g5.h5.fN ]z Kr 6M lc y> !N HV i5./) H: D! ;< j5.k5.l5.m5.!. &}.n5.o5.p5.m) {R                                                    f! $P 0'.}v Qt 7@.Pq 6v _'.b' Fw Nw Xt Xt Nw Ez <V Ez os os os os ns `t `t `t :p Cz :p Pq Ew Wt `t `t )B IC (S <v (y Az EC z, #P k%.nK ]: #P xU v[ #P mF aS BT BT AT &Z >E E' AT ^S E' %H ,E .Y #P )Y WM {y G) (S _y _y _y /y /y )B ns `t `t Cz Cz ^y ,>.0v ns Cz 0' oF 0c ]E hI 0c !y UM hL hL `> Bw h4.vF Mt >~ L3.a6 L3.v, ~y ~y bS ~y ~y ~y bS bS )< q5.v` '_ Q~ Q~ )< )< bS ,_ ,_ ~y ~y '_ '_ VM zz bS )< )< Q~ ;) @_ '_ ;) Q~ H) @_ +( AC H) %: * .;Z 3+.X> ;Z v$.v$.'` U> S^ c-.T^ JW c-.Y{ Z{ 5@.m3 '` }E `, }E 8, 5@.A> A> Y  b* r5.@{.xC << s5.Y  t5.u5.v5.d2.lI ;*.d-.l-.C) +K ;^.h#.lF P%.g#.0O +K >R +N >^.]{.I* -!.k@.~~.^ .h=.`i w5.v4.x5.b2.w$.m>.~#.a>.YO y5.@~ z5.`X xz %H ~..S|.a-.A5.R|.LP tF I).y,.m-.;N nL nL Wa i#.3].U'.B5.C5.o@.D5.E5.Y).j,.F5.Oi G5.H5.I5.J5.K5.~1.L5.M5.1}.N5.O5.P5.Q5.R5.S5.T5.T5.",
"                                                                                                                                                                                                                                                                                                                                                                                                                                                                                                                                                                                                                                                                                                                                                                                                                                    dG U5.V5.{I W5.[4.9` ,X rL {I ON PN 5T X5.Y5.LZ Z5.`5.ib  6..6.+6.@6.#6.$6.%6.-& CD 5S {2.&6.*6.sQ N4 ~q e$.yx =6.-6.;6.>6.,6.S%.'6.>(.(' hv -:  :                                                    k^ )6.+].}v Qt ^y 0< 7v F) es Fw Ez Nw (: Nw Ez <V Fw os Cz Cz os ns `t `t `t `t ns Ew os %#.A, Jw !6.IC Dz _y gL (S (y Sq <*.}Z ]: @P nF v[ #P {E ]: >E &Z E' fI AT AT &Z oI AT oI oI )R {E +P #P {E D) hL Nt 0' (y Dz /y )B 4+.!B ^y ^y os 0< os `t ,>.,>.ns Cz 0' oF 0c ]E `S gI  X cS {y `> {y oF h4.y} /1 z} /E Lq /1 i_.;) )< ,_ ,B ~y '_ ~y zz VM v` H) VM ,_ ,_ zz VM bS ~y ~y ,_ rP bS '_ ,B bS bS H) @_ ^^.a[ ;) @_ '_ @_ rP Q~ ;) v` a[ ~6.7>.=].d#.9@.3+.;Z +H 3+.i[ Z{ 9;.9;.JW V/ Z{ 1=.2+.$K 2+.m3 E7 a@.nI E7 l_.k:.M%.{6.@{.U  -].wU N).A  J& J& ]6.^6./6.l^.U'.D3 SV nL g#.4=.3=.P%.mI j#.@X nL 8[ f2 X~.(..K  E$.I& D,.W. (6.(6._6.:6.<6.[6.}6./~.a>.|6.U~ c) 16.IW I%.Va ^S h7 M .,R y1.%}.1<.2+.$) i7 wC N8 &K i7 +K [> }V 26.1W 36.o@.t,.gk v>.CF 46.56.66._5.76.1|.2+ N:.86.96.06.a6.b6.c6.d6.e6.f6.g6.",
"                                                                                                                                                                                                                                                                                                                                                                                                                                                                                                                                                                                                                                                                                                                                                                                                                                 sO cE h6.i6.7S j6.5S cI rW IX 95.s3.bJ }O bG k6.5G l6.m6.n6.o6.p6.q6.r6.s6.d1.t6.u6.#S r3.[ .v6.w6.OP -N e2.y#.Kl x6.y6.z6.A6.B6.C6.D6.E6.F6.G6.H6.I6.                                                   tN J6.c#.M~.M~.Cz 6v Mw Y*.b' ^W ^W Fw Ez [m [m <V Fw ns us F` us K6.b#.K6.K6.os Pq :p I{.L6.M6.}y 7v /y (y Dz /y 0' (S iL Rq .X .X #P +P nK v[ ,E #P `W )'.8@.7Z 6+.#H 8@.#H 6+.`X )O IW `X )'.)y ,B CC Nt gL _y IC 0' )B /y 4+.!B ^y Pq Cz 0< os ns N6.,>.ns Cz ]y <v oF IC hI gI gI gI IC {y {y oF q:.vF X~ O6.P6. ] &5 h4.(2 a6 ^^.Q~ ,B SO rP '_ zz 8/.Q~ zz ~y ,_ ,B VM ,B rP bS ,_ zz ,_ bS ,B ~y ,_ rP ,B ,_ H) Q~ @_ SO H) zz VM zz v` '_ )y tF f#..J f#.X> `, $K ;Z Y! |=.~! T^  Y |=.:! }! 7>.[<.;*.~R 9[ H} 7+.xC ^...{.l=.'Z W!.#| #Y k_.Q6.K~ [! R6.g, S6.Y<.,!.T6.U6.V6. 5.W6.~[.&_ & .&K +X @X C) -}.ZW 2..X6.I  Y6.Z6.20 dU @..`6. 7.L0 *|.4..q_..7.+7.@7.M~ #7.$7.8c %7.a,.`X fL 1<.}Z d:.e#.4O & .1<.* .n:.0S m-. K 6 .sU sF UP =_ 26.(9 &7.Vz *7.=7.-7.=7.;7.>7.,7.'7.)7.!7.~7.{7.]7.^7./7.(7.(7._7.:7.<7.",
"                                                                                                                                                                                                                                                                                                                                                                                                                                                                                                                                                                                                                                                                                                                                                                                                                              LL [7.}7.|7.^K iS ,X 17.8M 9{ 0M [4.PN Ll >q 27.37.47.57.67.77.87.97.07.a7.b7.`J c7.]2.m}.): SU &6.d7.mY .N e7.[Y +S X: f7.g7.h7.i7.j7.k7.l7.m7.n7.o7.p7.                                                   D_ q7.r7.M~.ts Wt Ew ^: Fw cs *Z *Z _p Fw s7.s7.[m Fw Pq `t us `t b#.Pq b#.`t ns ns Wt 7@.os `t M~.GV t7.{B /y )B Dz oF ac DC iO *-.*-..Y HC @P WM UM !y )y hI 6@.0c xz  X )'.v[ `X UM xz VM )'.!y ,B `> hL gL 0' WM IC !B 4+.)B Dz `t `t 0< 0< `t `t ^y Pq ns Cz ]y 0' <v oF cS cS nF Rq jL {y {y IC :v vF e) u7.v7.w7.x7.+' aX C .f_.'_ ;) ^^.]2 ]E !y ^^.'_ !y VM UM !y ]E UM zz ~y rP SO /1 ~y zz H) bS zz VM ~y Q~ bS UM VM VM bS UM zz ~y @_ UM CT d#.Va d#.Va 'Y u$.2+.sP a>.$H V/ yz o3 y7.E3 ^1 ^1 #1 9[ 7+.E7 a@.>) >) M%.zY A  Q^ ${.][.@| z7.A7.c-.U^ g, B7.E7 D1.C7.N%.}6.D7.E7.F7.G7.$) l-.#].D3 O8 @|.-9 *Y |..^6 c<.|T y_.H7.I7.J7.q=.K7.Q!.S$.4..b* e(.L7.M7.N7.O7.%~ )O ZO BT e#.tF *-.}Z e#.LP ^S E' 2+.>) 3+.;*.lT F#.6 .lS QU h3 TM JT y  #5.-<.P7.k, Q7.Y( R7.S7.T7. m a6.U7.V7.W7.S_.X7.Y7.Z7.`7. 8..8.",
"                                                                                                                                                                                                                                                                                                                                                                                                                                                                                                                                                                                                                                                                                                                                                                                                                              +8.@8.#8.$8.%8.XK }4.0} &8.zV 5P *8.0J +Z =8.-8.;8.Z= >8.,8.'8.)8.!8.~8.{8.yc TH 8M <S ~2 nT {R a~ OU {R .!.-}.SY K#.]8.^8./8.(8._8.:8.<8.[8.}8.)3.|8.18.                                                   k^ y-.9'.Dw |v Nw ^W (: ds 1v ),.^W Ez Ez Nw (: Nw Fw y&.28.N6.n).,>.H%.0p Ln |v 2v 3v 3v 0Q 0Q 4+.T{.38.7..]B _y (y [Q _y IC EC GC iL ac 9' {y es C .b< i_.FR hI Bw +P qF .Y O .#P 48.+P (S  X /2 a< _y WM Az hL 58.`> Dz !B 0< `t ^y :p Pq Wt |m ns Qq ]B )B ]y *X gs gs <v <v Sq iI 68.'&.WQ c:.(S (2 s!.78.88.98.08.a8.b8.##.c8.is N..bS ,E @}.& .UM &5 bS SO dS tF tF ^S %H ZG 0c VM h4.;;.vF h4.Nt gL hL (S hL Nt G) D) {^.hL Nt D) gL hL CC rP rP I%.rP `X SO zC Q~ $H bS zC @_ **.;) **.d8.U] %~ Y> 7>.+_ ~6.X/ A} V!.Y{ <! B> <! I> e8.; .Y] Q^ r5.+{.r5.A  t_.A1.#{.Y  N).l=.G'.f8.g8.h8.)}.>!.w$.3=.@X w$.RV o,.7O i8.X~.)&.k;.j^.xL <-.A( dI j8.k8.l8.m8.n8.w$.]& o8.p8.q8.^6.Z<.0S ;^.ZG y, bS zz ,B a,.IW >` )y -Z `, `, * .|> 6c y,.$) MT G#.zL V} }V r8.q(.s8.]~.$&.t8.u8.MU {!.`; v8.W7 P> w8.w^.x8.x8.y8.z8.",
"                                                                                                                                                                                                                                                                                                                                                                                                                                                                                                                                                                                                                                                                                                                                                                                                                           A8.B8.C8.D8.|7./K E= u% |-.uG E8.F8.,z 2P dU G8.H8.}- I8.J8.K8.L8.M8.N8.g> 1L Dj )b k(.=N {R p,.e^.oO UY UY zU .N e^.9..Jr kA O8.P8.Q8.R8.S8.T8.~' @K U8.                                                   V8.W8.v;.Bz y).1v (: Fw (: b' 1v *Z ^W Fw ^W Fw Nw Nw Ez hN X8.H%.<'.H%.%u %u %u |v 2v 4v 3v [Q 0Q +T [Z kO Y8.^B /y )B 0Q (y GC iL u` iI ac pF D) g_.4v @T JC D) Bw Sq Sq kS T}.A@.H#.iL jL gL {y ]U b< {y Nt (y G) Z8.BC oF <v Wt `t Pq :p Cz Cz 0p os `G ~B {B ]y FR `8.ZS b< Sq /B '&.,&. 9.8Z c:.0' .9.+9.@9.#9.$9.%9.&9.*9.b8.##.Gz a< +P ,E P: u$.Q~ L3.rP  X nK ^S )R fL dS dS UM SO vF =9.=9.=9.`> `> {y {y {y (S gL Nt CC (S {y {y oF IC Nt {^.UM rP '_ bS rP ,B '_ ;) bS H) H) )< AC ^^.a[ 8/. {.**. {.%~ ~6.E3 X/  _ }! i[ <! o) B' e, -9.!Z ^..L%.U|.A1.Q^ -].N{ A1..{.G'.f(.6(.;9.Y  e(..7.>9.,9.8<.lF YG m-.kL kL M'.7;.XR L. '9.)9.WG ^H 7].SU !9.o! a~ )h oO ~9.Z|.9X m^.{9.]9.^9./9.lI u$.zz Q~ zz U] )O IW )O L).(9.n'..J $K d#.t, m'..H 1/.ZQ .H _9.:9.NP AY <9.p(.y@.u@.0  [9.m; r/.:Z }9.|9.^5.19.29.f[.29.",
"                                                                                                                                                                                                                                                                                                                                                                                                                                                                                                                                                                                                                                                                                                                                                                                                                        39.49.59.69.79.89.99.09.F= 55.a9.b9.Z; 9` wL c9.L# d9.w; e9.f9.g9.h9.i9.j9.k9.TE l9.cM k  OP ]1 oO pQ V}.mS kI >R mI oO 6%.Cj m9.n9.o9.p9.q9.r9.s9.^' t9.u9.                                                   v9.7< )!.Bz y).1v (: Nw fs |v 2v ^W ^W _p *Z _p Fw Ez Fw 9' Hz 6v B!.Pq Cz ns 0< ns `t ^y ^y !B Dz _y qF w9.|/.^B <p <p /y HC ~B x9.y9.z9.xZ h3 v[ zz bS ~y zz nF nK )Y y, xU [Z xU k%.Rq pF hL {y {y IC IC Bw 4+.(S A9.G) 0' /y 0< `t `t 0< ^: os ns Wt 2,.HC HC ]y gs hs @T hs jL /B n=.68.B9.C9.A, hs 9Q D9.E9.F9.G9.H9.I9.%=.J9.gs cS ,E nF )Y Ua (S /2 JC G) ,_ ,B VM #P +P nF #P !y 0c :v .9.+9.+9.oF IC Bw Bw IC Bw {y (S Bw `> `> `> `> Bw (S BC bS VM 0c ]E UM SO VM ,B )< ^^.H) ~y AC AC @_ K9.V~ U] EV yz %~ $: V~ $: L9.Y{ L9.}! a>.}! wz e, L%.Q^ @{.'Z L%.;].N{ d(.A  M%.t_.H).;: H'.M9.d(.9O P%.q(.'}.L1.^~.DT N9.=}.<[.>5.mn kF q> nS k^.]1 ]1 mY ,h }P D- J) [P 0-.[P V|.#> p@ t5.d. O9.P9.LP fI fL ^1 oI E' uF d#..J n:.J).6c as $K 2+.}> 5O h3 UP }> zL u#.nL D- J) [P .N ^{.>5.v(.k>.[[.Q9.R9.D#.U1.S9.T9.U9.",
"                                                                                                                                                                                                                                                                                                                                                                                                                                                                                                                                                                                                                                                                                                                                                                                                                     V9.1-.W9.X9.Y9.Z9.89.`9.bJ RX  0..0.V5.65.+0.=Y @0.]C <#.#0.$0.%0.&0.*0.=0.-0.S> ;0.>0.k  r|.}R ,0.}<.@}.lS u#.zL @X 3 .nL tP 6M '0.)0.)P !0.~0.{0.]0.T' ^0./0.                                                   (0.JP 2[.9'.cs b' (: (: ds 2v St Fw ^W *Z ),.*Z _p _p *Z _0.j3 iT ns `t os os 0< ns `t Pq ts ^y Dz 6v {y ^B ^B !B <p <p {B {B 38.K4 :0.<0.[0.e0 YG @X 'Y }> QU g7 xU #P .Y nF nF v[ nK Sq FC IC Az 0' 0' Bw {y <v `> }0.G) Bw 4+.os ^y `t Cz 7v ns `t Ew |/.]B ^B 0' FR FR [V FR 0' Sq |0.WQ 8Z Ew Nw 10.20.30.40.50.60.70.80.90.^< W6.mK mN [> v[ _0._p *Z /2 gL WM WM VM >N >N .Y #P 0c  X y} 7' (2 vF <v IC {y Bw IC IC Bw {y oF `> `> (S Nt (S Bw WM @_ VM  X !y ,B ,B zz ,B )< AC H) bS @_ @_ Q~ ^^.#: #: yz $}.**.U] J%.Y> 1=.~! !3.o3 Z{ JW  Y 00.@{.+{.b* L%.Z'.b* wU 'Z /S ]..+> d(.U|.a0.Y  t_.w$.pQ ~R i#.&> $1.v_.b0.y$.,^.:[.Y|.-9 #K e^.@|.oO 80 BY c0.tP U| l8.AY ,3.nO DT O8 d-.d2.p@ d0.e0.f0.]3.g0.GZ BT oI E' I).o'.|> o'.>|.I).n3 fL L!.h3 sF 1/.[> lT E` zL 3 .w} |` 3/.aO 3/.`|.mn A_.D#.h0.3{.A_.i0.@1.&|.",
"                                                                                                                                                                                                                                                                                                                                                                                                                                                                                                                                                                                                                                                                                                                                                                                                                     j0.DI k0.l0.m0.n0.89.Z; u% xP xW o0.@N i6.09.p0.q0.r0.s0.t0.u0.v0.w0.x0.y0.1C l(.m& XW E  ]1 z0.e:.:E -_ ~E d:.]2 %H )Y  K 7 .io 4M A0.B0.C0.D0.E0.F0.G0.H0.I0.                                                   J0.k7 n^.9'.cs ds Nw (: ds 1v 1v ^W *Z ),.*Z *Z *Z _'.Jw Ua ac rF pF {B {B GC GC F` us ,>.N6.N6.os A!.Mw <v Dz ^y ^y {B +].C~.e*.K0.L0.I! M0.{I N0.O0.KU 7 .h] h] h7 >E I#.cS rP ]E gI .P hI qF GC /B qF (S <v Nt gL VC hL Mw Cz ns ^y `t Cz 7v `t Pq :p `G ]B HC _y gs gs @T 7Q _y Bw Ew 6v fs b:.P0.Q0.R0.S0.T0.U0.V0.^,.W0.X0.<{.Y0.o;.of Z0.#P ZX `0.F) *Z _p /2 (S hL Ua iN U+.ac 0c UM UM cS hI gI oF IC Bw Bw IC IC IC Bw {y (S oF <v `> Bw oF (S cS cS UM ~y bS ,B ,B '_ bS rP '_ Q~ '_ )< Q~ ~y Y/  a.%~ E3 **.$: $: #: $}. , @H Y> S^ }! ~! B> mL N%.%K }E E7 2=.`, >) FV N%.Z<.l_.3<.C7.l'.a* ;|..a.>*.R%.a@.nI a@./~.+a.]6.u_.U|.XQ ]|.@K yU lI O8 7, lF a;.^~.}R 80 3O tP mK _S mY XG n8.@a.#a.]~.$a.%a.&a.*a.1E @X 0S +K P: ZQ ^U ZG ^S ZG  T #P ]: ]: ,E *-.y, %*.A .P: B .b'.ZQ 3 .{2 @}._3.s8./9.=a.b2.=a.m^.j(.",
"                                                                                                                                                                                                                                                                                                                                                                                                                                                                                                                                                                                                                                                                                                                                                                                                                   Q -a.;a.%% >a.,a.'a.)a.2  !a.a9.xW ~a.{a.]a..R {q HA ~C ^a./a.(a._a.:a.<a.[a.@) 4;.]R 2].0-.O8 e:.}a.|a.1a.1a.~E *-.{E y, >N M .Q: 2a.3a.4a.5a.6a.7a.8a.!O 9a.0a.                                                   aa.a^.[p bX cs es Nw Nw es b' ds ^W ),._'.*Z _p *Z Y*._0.48.H#.rF @]./B ~B /B ^B G` F` ap ,>.,>.|m ba.ca.A, 0' Pq !B {B pY rY da.X=.ea.fa.ga.ha.ia.L# ja.Ya ka.n! S8 5 .fI cS .P 7' la.Kd 0c qF GC 2,.VV 48./y {y hL #( ]y 6v Cz os Pq ns Wt ^: `t Pq 0< `G HC /B ]y *X *X hs 7Q Dz <v `t |v 8v fp e%.ma.na.oa.X{.pa.qa.ra.sa.ta.C-.ua.[K r~ va.90 wa.xa.HW Ez _p ),.gL `> pF FC 48.EC Bw zz rP ]E hI Kd IC oF oF oF oF oF oF oF Bw Bw oF IC `> Bw Az Az hI hI cS VM ,B zz zz rP ,_ UM ~y @_ bS H) Q~ zz 8/.K9.Z] >B $H J%.U] $: #: **.V~ J%.a>.V/ q'.a>.'` F> a@.nI a#.5@.* .H} 9[ ;B A> Z<.$_ X}.'!.H} ya.w_.lF 7, `, }E >) 8, }E >Z za.Aa.Ba.Ca.L%.b* n3 0S b$.DT ;*.]& aO tP nO 6; zF 3O nO Da.M8 k/.Ea.c0.Fa.Ga.9E Ha.Ia.Ja.j(.>R _ .: .Va mF fI ^S +P >N y, >N *-.}Z A .c=.u(.,R QU g..L!.L!.G#.}=.ZQ ~R &H h#.[{.Ka.La.$1.",
"                                                                                                                                                                                                                                                                                                                                                                                                                                                                                                                                                                                                                                                                                                                                                                                                               Ma.Na.QN (@.Oa.q$.Pa.Qa.Ra.Sa.Ta.!&.rc Ua.Va.Wa.s+.Xa.N#.Ya.Za.`a. b..b.+b.@b.#b.BJ 0^.5/.RV #1 FV u(.*-. &.R|.;) ~y VM SO >N )Y u$.i8.$b.%b.&b.*b.=b.-b.;b.A,.>b.                                                      %O a^.,b.#=.Rt fs Ez (: b' |v b' ^W ),._'.*Z Fw _p ),.Kw tU iT 'b.)b.WQ us Pq os Nn |m !'.!b.~b.{b.]b.^b._0.Bw Dz ~B kO h..` ./b.A; (b._b.:b.B= <b.[b.HA hc }b.G* xI ~: |b.6+.0,.1b.2b.gI zz +P g7 3b.@].U+._y <v `> 4b.Jw _0.9' ns Pq ns 6v 0< Cz os 0< kO ]B GC oF /2 f_.(B ]U `> gL ),.5b.6b.7b.US 8b.9b.0b.ab.bb.cb.db.eb.Q^ <L LH fb.gb.hb.Qd iL ,` Fw Ez 6v :p Ew 6v 6v Ew N .Rq jL DC {E >N E' +P Bw oF Az 0' Az oF oF <v <v <v {y (S `> Bw oF _y rP !y  X 0c zz ~y ,_ zz ,_ ,B rP ~y bS '_ '_ ,_ H) ;) 8/.U{ Q~ bS ~y ;) Y> $: %~ X/ V~ $H %~ yz d#.;B >Z +H >) 2=.`, N%.xC nI 5@.nI 9[ $_ J& 7+.;E ib.nn u$.&_ {}.S^ U>  Y i[ 3m c-.B7.jb.kb.B7./^.X> n:.$K z,.'` pQ ;N _S n8.lb.9X qI YR rQ Ai SY Q!.OP %|.-1.FF Fa.mb.nb.<6.ob.u#.h7 L4 P: BT l3 Y> ;) '_ gI UM Q~ ~y 48.pb.qb.jO <*.iN ac {E *-.ZG ,R oI {}.V> 2<.rb.",
"                                                                                                                                                                                                                                                                                                                                                                                                                                                                                                                                                                                                                                                                                                                                                                                                            sb.tb.ub.vb.wb.A#.`; xb.yb.zb.Ab.Bb.p% UH Cb.Db.Eb.uV Fb.Gb.Hb.Ib.Jb.Kb.Lb.Mb.nx Ku Nb.Ob.)` t, =].2=.!R A .Pb. &.~y ,_ ,B ]E +P #P >N IP Qb. O Rb.Sb.Tb.Ub.02.Vb.Wb.                                                      vQ x,.,b.1,.2v Xt Ez Xt |v 2v 1v ^W _'.Y*.*Z Fw Fw _p _p 7v Lw Sa Kw iT Wt ts Cz Z..Nn 0p Y..7p Xb.Yb..r _0.(S GC fX $P z- l^ Zb.`b.Re  c.xj .c.+c.@c.#c.$c.mG uN %c.!: +J mF :2 &c.1b. X ~y sU XM 3b.Ld z, <v _y Az Iz *c.4b.Lw `t ^y `t I{.ns Ew :p :p HC HC (y _y @T 7Q [Q =c.(y /y 2v Kn w` -c.;c.>c.,c.'c.)c.!c.~c.{c.]c.' .VB ^c./c.(c._c.:c.#X Sq 6v Nw 6v :p 6v %#.%#.I{.c:.WQ EC EC .Y ]: ^S BT `> oF 0' ]y Az oF oF <v Bw Az IC IC ]y Az {y oF hI  X 0c ]E UM zz VM UM ,B ~y UM ]E ,_ ,_ zz '_ H) AC '_ v` v` @_ VM @_ zC `X yz $}.I%.$}.V~ X/ {}.3+.9[ $K * .!^.;Z 'Y 2=.a@.E7 %K v$.X}.H} $_ W}.8;.%_ <c. 5.!R a>.-Z o3 q'.=Z W/ {' A[ h, 0; [c.}c.1[.H} f#.+H nL C) }P oL Da.3/.rI |c.1c.2c.l+.<~.!!.WG K#.E  mY M8 3O 3c.GF 4c..m V}.{: z-.<Z sP H) UM 0c 0c ,B ;) 48.Rq jO 1a.w, }` U+.w, *-.]2 c=.v[ )R T|.I) 5c.",
"                                                                                                                                                                                                                                                                                                                                                                                                                                                                                                                                                                                                                                                                                                                                                                                                         @D 6c.7c.8c.9c.0c.5+ ac.bc.89.cc.dc..0.ec.o;.zI fc.gc.hc.ic.jc.kc.lc.mc.GY nc.oc.pc.qc.B  ; .rc.)Z sc.JW U] IW yz  , )O )y 6+.6+.)'.gI gI ;^.aa.tc.uc.vc.wc.xc.~` yc.zc.                                                      Ac.Bc.3m =c.Dw es Xt ds 1v cs ds *Z *Z *Z *Z *Z _p _p ^W Cc.,` Dc.[$.S<./: Rt es 6v os `t 0v |m &@.Ec.Fc.ac .X UP g3 tN wx 4> Gc.Hc.Ic.Jc.Kc.Lc.Mc.Nc.Oc.Pc.Qc.q~.]/.qX JP 0*.Rc.7Z 6@..P gI 1/.>=.00 iI |0.ns %#.Hz Ew ts `t `t `t ts Cz 6v (y (y ]y )B pF qF /y <p 8' <p 4+.4+.pF )B 1v Fz [p Sc.Tc.Uc.Vc.Wc.Xc.Yc.Zc.`c. d..d.+d.@d.#d.$d.%d.D^ '+.&d.;r <v Wt Ew 6v %#.Nn )..^: Wt qF pF v[ .Y E' mF {y Bw {y {y IC Az oF `> oF oF <v Az 0' Az oF IC Bw IC Bw {y (S gL Nt Nt G) Nt hL hL hL gL gL gL zz ,B zz ,B )< a[ Q~ VM bS H) Q~ Q~ @_ AC @_ $}.a,.$: U] yz #:  {.!< **.V~ !< Z] %~ E3  _ *d.OC '3.Z! W}.g0.=d.zC _2 xz -d.;d.u, 1, !' >d.M~ :< g, ,d.'d.M7.46.)d.0;.&K AY nO if !d.!9.~d.l] {d.]d.H1.^d.xb.nT :Y SU a~ }Y f^.nO /d.(d.GF _d.:d. 5.BT aS ZG u$.)R )Y v[ d:.*-.<*.1a.w, z|.}` Z> *-..X ,E )Y BT dS Va & .",
"                                                                                                                                                                                                                                                                                                                                                                                                                                                                                                                                                                                                                                                                                                                                                                                                         PF <d.[d.}d.|d.#*.p>.X%.{I 2  1d.2d.3d.xW +R 4d.5d.G1.E= !&.5H 6d.&p 7d.8d.9d.0d.yB @R r5.ad.G0.bd.U> V/ J%.yz zC IW )O )y )'.8@.)'.cS gL E' F_ cd.dd.ed.fd.gd.C3.yc./L                                                       $!.`O hd.St Rt fs (: es 1v cs ds _'.),.),.*Z *Z *Z _p /: id.id.jd.Tw 5y Y*.Xt <v 0' /B HC EC HC F` kd.c:.1/.h7 ld.<k 'z 2t K..F; md.nd.od.pd.qd.s& rd.sd.td.ud.vd.wd.{/.xd.m-.yd.0>.>` `S  T UP jI K4 2,.t$.Wt 9' 9' ns ts Pq ts Pq ^y 0< 6v _y _y 0' /y Rq FC _y (y _y ]y 0' ]y GC Sq 0< Y+.Y+.zd.Ad.Bd.Cd.Dd.Ed.Fd.Gd.Hd.I# <O Id.Jd.Kd.Ld.Md.Nd.t^ Od.{: !B jL 6v 6v 6v a' Z..I{.0< Sq jL +P xU fI fI Az 0' ]y 0' oF Bw oF 0' ]y 0' Az 0' ]y 0' IC (S Bw Bw IC oF <v oF IC IC CC gL `> {y `> gL WM CC 0c VM VM 0c VM AC AC ,_ )< 8/.K9.@_ ,_ ,_ rP VM `X  , sP J%.@H $: J%.EV $H J%.J%.zC Y> **.%: EV y1.Pd.LP s$.E3 _2 0,.`X C} Qd.W~ Rd.Sd.Td.a) >d.o3 R^ 6' U/ Ud.h8.$> w$.f^.<9.l8.x;.|P |P  ` qI ): ): =R Vd.Wd.EP Xd.OU YR F  <9.U| h] 90 Yd.O3.Zd.`d.ib.& .& .0>.+P +P {E A . &.jL }` z|.}` *-.]2 c=.%*.*-.tF Va e#.oI ",
"                                                                                                                                                                                                                                                                                                                                                                                                                                                                                                                                                                                                                                                                                                                                                                                                       e.tx .e.+e.@e.tL #e.@&.$e.%e.2  [L &e.Ax Q- {1 95.*e.p=.p;.=e.kB -e.;e.$z >e.,e.'e.)e.k-.K> !e.~e.{e.;d.Rd.$}.Y> `X xz xz #H )'.`W )'.0c Xt }Z ]e.K3.^e./e.(e.;u -Z _e.:e.                                                      <e.Bc.6Q |v 2v Xt Nw fs 1v cs ds Y*.Y*._'.),.*Z *Z *Z GW [e.}e.|e.Uw 1e.1y hL Kd <Z nN LU c..u[ /3.i] GP )[ f{ r~.2e.3e.4e.5e.6e.7e.8e.9e.0e.ae.be.ce.yK Vl <- de.GX 65.ee.fe.o; l7 Bc.E' tF g7 jI x, A@.t$.I{.I{.os 7@.^y `t ts ^y `t 0' oF ]y _y ]y Dz FC qF 0' Az Az Az qF Sq ge.he.Pq Mq }p ie.je.ke.le.me.ne.oe.pe.-j O$.`N qe.re.se.te.ue.ve.G] we.Bi )Y XM EC iL Sq ^: :p :p ns :p hL !y Kd &Z fI Bw Az /y <p !B 0' oF IC 0' ]y _y 0' oF IC <v ]y oF oF <v Az ]y 0' <v IC (S {y Bw Bw {y hL WM CC Q~ ,_ ,B ,_ rP SO VM bS gL k3 |B G) gL G) BC zz yz $H EV Y> yz a,.Y> !< V~ EV $H  , a,.zC a,.I%.i4. a.H) v` ^^.VM H) 8/. , J%.d) 92.xe.W~ W~ -~ Z{ |=.;&.ye.ze.V3.'}.r'.d-.4=.Ae.Be.h/.oL qI Xd.Ce.TY ^& n^ -1.De.Ee.WG rQ SU SU g{ FP rQ -R D- aO 1E =|.Fe.t5.6>._ .a-.}V 3 .ZQ 1/. &.c=.*-.d:.,E uF uF )R CT )R )R oI ",
"                                                                                                                                                                                                                                                                                                                                                                                                                                                                                                                                                                                                                                                                                                                                                                                                   Ge.He.Ie.Je.-a.Ke.Le.Me.Ne.Z%.Oe.mW dM Pe.SH uA G+ p;.uV GT Qe.Re.Se.Te.Bq )t Ue.Ve.%e rW b'.=~ We.Xe.Ye.W~ z1.8/. , `X xz xz Jd 6+.`W gI cS cs Nt x;.Ze.== `e. f.]' p'.]}.                                                         &>.[` 4v ds 1v (: Ez fs 1v cs es F) Y*._'.),.*Z *Z *Z GW .f.+f.@f.#f.$f.D) I%.y,.M4 <].%f.&f.*f.9{ *'.XV =f.G* >[ G| -f.;f.>f.,f.'f.)f.!f.~f.{f.]f.^f./f.(f._f.<+ $c.HX W5..&.:f.X].e..5 .dS h3 XM m=.EC Wt I{.Wt M~.}v 7@.^y ^y ^y os <v oF ]y (y _y (y pF Rq Az Az ]y /y ~B +].Y8.{B Qt Jn J&.<f.[f.}f.|f.1f.2f.(_.3f.)5.4f.}J 5f.6f.7f.8f.9f.0f.af.YH pX 5 .F#.qY oK qF Ew I{.Wt os :p 7v {y gI xU xU Bw oF ]y !B GV GV (y Bw hL Bw ]y /y )B Dz 0' oF <v oF IC oF Az Az oF {y Az oF IC Bw {y (S (S `> ,_ ]E SO )< Q~ ,B ,_ a[ 7/.k3 {^.gL hL CC Nt Bw 0c a,.EV a,. , $}.yz $}. ,  , Y> a,.$}.)O zC yz H) bS AC q5.PC a[ ;) )< $}.)y bf.*~ *~ Qd.1, z1.9;.Y{ sc.D> u5.cf.%a.df.p@ 1E ~9.ef.S1./d.6, YR n^ mT <~.[~.[~.OP .1.ff.n+.2c.t% C|.o! A). ` %>.-R ~6 Fa.^~.mb.b0.gf.p@ ,0.J{.P: |Z h7 dS kN tF %H tF tF %H tF Va !R V> ",
"                                                                                                                                                                                                                                                                                                                                                                                                                                                                                                                                                                                                                                                                                                                                                                                                hf.bE if.jf.kf.lf.mf.l..ZC nf.|7.of.wA rK uW o3.yW pf.@Z :e./@.qf.rf.sf.G+.tf.uf.vf.MM wf.YR xf.yf.zf.n2 g[ Af.]^. ~ ,_ >N >N )Y #P v[ nF FC 0' ms Xt 3 .B].R4 Bf.Cf.Df.a,.j7                                                          Ma 0>.bX ds 2v fs Nw fs 2v Rt Xt Y*._'.),.*Z _p _p *Z GW Ef.}e.z&.|(.}B ^1 yL /> Ff.Gf.               Hf.h' If.Jf.Kf.Lf.Mf.Nf.Of.Pf.Qf.Rf.Sf.Tf.Uf.bn qJ Vf.t^ Wf.Xf.yj Yf.Zf.aM &- ~6 : .nN ,|.xU FC Dz :p :p `t B!.}v }v }v M~.<p ]y IC <v _y Dz /y (y Bw oF Az ]y HC 0'.ge.ge.`f.Y8.4m 2v .]. g..g.+g.@g.#g.$g.%g. j &g.*g.=g.-g.;g.'g >g.0f.lJ wy U, p;.u[ ,h z-.qY pF ^: Cz ^: :p fs es _y hI  X `S _y 0' IC {y _y 9'.9'.!B )B Az {y IC _y )B (y Az oF Bw {y Bw <v 0' Az <v ]y <v IC IC Bw {y {y IC .P cS UM UM ,B H) k3 {^.|B w[ G) Nt Kw Kw Mw {y bS ~y ,B ,B bS AC ~y gI UM ,_ bS zz ;) ^^.v` ^^.Jz (B ,B VM !y ~y ;) ^^.rP `S 6+.)'.Jd a,.$H Y> d#.9[ $) C_.}6.a2./^.,g.'g.df.)g.#> !g.r2.3c.~g.{g.^~.ET ~9.9X AY k^.^{.u@.]g.EP Q!.qL ^g.x> [*.lf A].H  zU n^ kL Q3.HR /g.(g.AY x;.w} +X g! #].SV @X @X SV &K N8 @X C) ",
"                                                                                                                                                                                                                                                                                                                                                                                                                                                                                                                                                                                                                                                                                                                                                                                                a9._g.:g.{@ [b <g.AP 0G [g.{  }g.|g.pf.F= q7 1g.}- N4.2g.2;./@.3g.4g.5g.6g.7g.8g.9g.0g.H& :E Pt J9.ag.bg.:W cg.>>.g) '[.z, v[ pF Rq pF Rq Sq Cz  r X8.sU M8 >3.t;.dg.Z~ ~y $[.                                                         T3.^U #=.|v cs ds (: es 2v Rt Nw _'.),.*Z *Z _p _p _p GW `0.eg./: G) & .,^.v0                         [c pJ fg.gg.hg.ig.jg.kg.lg.mg.ng.og.pg.qg.rg.=, v^ sg.z4 t~ tg.ug.yj v~ vg.iS wg.xg.L4 nK .T /y <p ^: Cz Pq ^y M~.Cw Cw B!.8' Az Bw Az _y /y /y _y Az _y Dz /y ~B t7.x9.7..J6.m=.>&._'./W bX yg.zg.Ag.Bg.-j /Z Cg.hW Dg.Eg.Fg.Gg.Hg.N- JH yu .w Ig.Jg.Kg.&- R8 5 .v[ Rq ns :p :p Xt fs _y Az `S 'B 0' 0' IC gL (S (y &*.9'.[p &*.Dz oF {y IC _y !B _y 0' <v <v Az 0' 0' Az Az oF oF Az Az IC {y Bw cS ]E ]E cS 0c SO hL `> (S `> (S hL 7v %#.Mw CC $( rP UM ,B ,_ ,_ ,B !y 0c ^^. a.H) )[.K9.^^.rP b< hs UM cS hI rP ,_ ~y H) gI >` 0,.IW $H  {.$H 7<.H} 2=.Lg.)d.,!.*> j4.([.1E `}.Mg.Ng.Og.<6.R7.Pg.>*.>!.<{.<9.mY -9 M'.K) l+.:Y r|.]d.Vd.Qg.Eb.G1.kf Rg.Sg.TY g] xd.lf OP t2.6# Tg.n8.Ug.mY oL N8 #1 P%.D3 +X kI nL SV ",
"                                                                                                                                                                                                                                                                                                                                                                                                                                                                                                                                                                                                                                                                                                                                                                                             9 .U. +&.Vg.Wg.Xg.Yg.Zg.J} 0- `g. h..h.zQ E8.`Y +h.:; s0.@h.0# #h.$h.%h.&h.*h.=h.-h.;h.>h.d=.iN */ ,h.:<.'h.)h.!h.{'._0.I{.C9.pF 8Z |0.8Z |0.G` ap ~h.{h..X l-._[.]h.^h.e) SO /h.                                                         (h.6 .8' St Oq 1v fs ds 2v St Ez *Z *Z *Z *Z *Z *Z *Z GW _h._h.%#.VM lI %].:h.                        <h.[h.$4 }h.7s |h.1h.P2 2h.3h.4h.5h.6h.7h.8h.v^ YK FX 9h.0h.ah.bh.3J C6 Ol ZZ } .WP z@.6].Bz Bz [Q 6v ,>.^y Pq B!.B!.7@.}v &*.oF {y 0' _y Dz Dz <v Dz !B 4+.!B +].T{.7..ch.T8 a'.ws fs 4W dh.eh.fh.gh.hh.ih.*e jh.kh.@& lh.mh.mZ Y#.nh.oh.ph.qh.hJ rh.PV b{ R8 5 .nF qF <v b' ds (: Ez *X gs s!.-r oF oF <v Az IC oF (y &*.)B GV [p [p 4+.]y <v Az Dz (y _y ]y 0' Az <v <v (y Az Az ]y ]y oF Bw IC cS Kd Kd ]E `> IC {y WM <v IC %#.%#.I{.^: ^: oF Az .P !y '_ ~y ,B zz UM 0c H) ^^.)< v` ,_ ]E 0c C .7Q ZS [Q DR VM VM ~y AC rP p/.{! ![.&_ LP uF 2+.8, J& sh.)@ a#.7+.=> 1].9O _3.th.p@ I0 uh.vh.K1.,!.,g.C_.1].([.Ug.e^.^L K) ^H ]H 6< rW q$.S- JX fS DP B[.4c f! f] FT <-.oT oT wh.xh.I} ff.Ug.XQ `~.`~..: yh.v#.+K @X ",
"                                                                                                                                                                                                                                                                                                                                                                                                                                                                                                                                                                                                                                                                                                                                                                                          zh./N A%.!S P$.Ah.E[ Bh.`P Ch.^N Dh.[H Eh.G+ RX 8G !&.sf Fh.Gh.Hh.]z Ih.Jh.Kh.0f.Lh.Mh.Nh.Nr P%.M6.Oh.Ph.Qh.Rh.Sh.Th.(p Uh.Y*.%#.I{.6v Ew Wt 0< os 0v Vh.%u jL {E )R =<.Wh.`] dS UY                                                          Xh.7 .t7.<p Cw St ds b' St St Fw *Z /2 *Z ),.),.),.*Z GW _h./: _p (S 9@.{6 Yh.                        Zh.`h.3# V*  i..i.+i.@i.#i.$i.%i.&i.*i.=i.-i.;i.>i.,i.'i.)i.!i.3* E! v~ :) y( ~q ~i.6Z >=. T /y 4+.os }v B!.M~.Qt B!.^y Qt &*.IC {y 0' GC (y /B IC Dz !B 4+.]B {B {i.uZ -X Pa pN c*.IC KC Q0.]i.^i./i.(i._i.:i.<i.[i.}i.|i.1i.2i.3i.4i.oh.5i.6i.7i.8i.9i.0i.kc JP {: 9< _y [V ds es Xt 7Q Dz gI 0c (y <v 0' )B Dz <v _y 9'.[p GV <p 8' Bz 9'.!B ]y Az 0' ]y ]y 0' Az Az Az <p (y ]y _y ]y <v oF Az `S gI 0c 0c Bw {y `> `> _y <v ^: ^: 7v Jw 7v ]y G) zz rP rP VM ,_ ,_  X ~y gI ER SO )[.zz ]E @_ N..a< N..[V cS '_ !y VM '_ Q~ ;_ Pd.LP {}.nn  5.~[.a@.>) ai.E7 xC 7<./^.a#.F> 4].j4.7, * .2E F7.uh.9. bi.>9.v_.Mg.2{.>Y ci.di.': `Q E%.m;.{[ ei.GT -K p=.~2 c1.p=.5S B[.|S sQ ]H FU hO 1P MU fi.9].A_.z> :S -N f2 w} <;.",
"                                                                                                                                                                                                                                                                                                                                                                                                                                                                                                                                                                                                                                                                                                                                                                                       gi.hi.ii.ji.ki.li.mi.yA ni.oi.pi.yA {1 qi.;a.ri.G+ #S wW si.Ya.ti. h .Z ui.vi.wi.~D xi.yi.+*.$K u7.*) cg.zi.Ai.Bi.Ci.zi.Di.Ei.L .aX {U ZS a< gs @T hs ]y n=.Fi.9' fs Gi.ys Hi..~ yc.Ii.                                                            [k m%.v;.{B /y *X |v *r =r a< C .]E {y (S Jw E) Cc.Ji.eg.Ki.Li.<y Mi.d#.Ni.                        e/ AO v; Oi.OH D^ Pi.Qi.Ri.Si.Ti.Ui.Vi.Wi.Xi.Yi.Zi.<- `i. j.u6.SK .j.c} _#._#.d7.+j.@j.#j.J6.$j.HC &*.%j.#=.#=.4+.8' t7.]B ]B GC /B Sq 68.us &j.C9.ns ^y ~B +].y-.*j.6Z =j.xI Z0.GP : .8/.I' -j.;j.CT >j./R ,j.;w 'j.)j.!j.~j.{j.]j.^j./j.(j._j.:j.<j.[j.}j.a- |j.QV gN Kd 7Q Vt :p ts oF pF c*.FC G` Cz Cz Cz Cz Cz Cz Cz Cw Cw }v M~.7@.7@.7@.M~.`t Cz :p ^: ^: Ew 0< os Az _y 0' (y _y <v 0' Az _y Az <v Az <v IC IC Az _y IC Bw `> CC WM {y (S `> (S (S hL CC hL oF oF gL WM <v ]y D) k3 CC CC UM `S .T UM ~y ]E zz U{ Q~ @_ ^^.Q~ )[.@_ )< sP E3 Z] @H 1j.A} **.Z] :U ./ OC +: d[ G7.l,  5.* .d-.t;.2j.3j.4j.5j.6j.t2.Tg.7j.8j.7j.@1.r$.H  b{ E  q2.TY XP [*.2O OP uP i..Ce.g{ K) *6.m] 5d.]d.9j.0j.u8.]$ }~.K#.!h H  ",
"                                                                                                                                                                                                                                                                                                                                                                                                                                                                                                                                                                                                                                                                                                                                                                                       8i.aj.k0.bj.aU cj.R- FL !S q=.0* i;.nc ...dj.ej.fj.s0.N4.ti gj.hj.ij.rc jj.cE kj.lj.mj.nj.H  oj.pj.qj.rj.sj.tj.uj.vj.K .wj.xj.yj.zj.Aj.{U `8.D .,;.gs 0' g..H#.0< Bj.Cj.Dj.Ej.Fj.Gj.Hj.                                                            Ol y- Ij. T ]B [V 1v *r U{.Jj.i_.UM )Y VM WM E) Kj.eg.Lj.Mj.Nj.Oj.<B p'.Pj.                        Qj.-i Rj.Sj.W=.Tj.6* ^2.Uj.Vj.Wj.Xj.Yj.Zj.p} `j. k..k.+k.@k.#k.,[ v/ '[ W^.$k.gf %k.&k.*k.>r =k.kO DR -k.nY ;k.!B !B 0'.0'.{B ^B c*.HZ ws n=.n=.&j.us ts c#.7..e*.6Z xI xI A].Ce.d~ 80 mS u;.E' |Z |{._Y >k.,k.v+.'k.)k.!k.~k.{k.]k.^k./k.(k._k.:k.M& *U .Q ,j.7[ <k.&K >E .T @T ^: Cz /B Sq iI HZ us os os os os os os ns ^y 7@.B!.B!.7@.ts 7@.B!.+u N6.ns 0< :p :p Wt Wt ]y )B Dz /y Dz _y (y oF 0' <v <v oF IC {y <v _y ]y <v IC Bw `> `> `> gL WM Nt (S (S WM Nt IC 0' (y `> `> hL w[ {^.hL Nt zz 0c ]E ~y bS ]E ]E H) Q~ ~y zz )< ;) H) zz ,_ sP #: Y> :U  {.EV **. {. _ **.Z] ./ [k.A} ~6.xC DT [;.E#.}k.)1.|k.2|.1k.K0 2k.D#.3k.4k.l>.FF dB -}.^{.5k.H  hO !N n-.:Y 6%.[Y 6, |P o%.6k.`R AJ bO 7k.8k.r#.9k.Qg.8k.Wa.",
"                                                                                                                                                                                                                                                                                                                                                                                                                                                                                                                                                                                                                                                                                                                                                                                    `w 0k.aj.(K LF ak.bk.ck.dk.hT }< ek./@.fk.uW x^ gk.hk.ik.yW jk.kk.lk.mk.;0.#h.#F nk.ok.pk.qk.!N rk.sk.*^ qj.j6 tk.tk.sj.:m uk.+{ vk.wk.`8.gs gs @T hs *X 0' nF HC es xk.yk.^5 zk.Ak.Bk.                                                               Ck.Dk./3.,|.{B Nw ps *r 8v +' /1 h4.zz ,B CC E) ~_ Ek.~_ _$.~_ Gi./1 *&.                              jc 4S Fk.SM Nl Gk. i.Hk.Ik.;t Jk.Kk.Lk.Mk.Nk.Ok.Pk.Qk.Rk.Fi Sk.>X /) /) Tk.l/ Uk.Vk.Wk.Xk.;h >=.+T -k.DR 5+.8' <p ~B t7.HC ]B Sq ^B Yk.Zk.L~.`k. l.c#.&j.|/..l.q@.`..`..i/ q] h{ 6~ _Y +l.g{ jf WV 5_.]O @l.#l.$l.%l.&l.~j.*l.=l.-l.;l.J@.>l.,l.'l.>e )l.!l.~l.g% QV fI .T Dz Cz 6v K6.F` n=.ws K6.`t `t `t `t `t `t `t 0< `t M~.B!.7@.ts 7@.B!.B!.M~.7@.Pq ns Cz Wt :p Dz <p Dz ]y ]y Dz !B ]y Bw oF Az <v IC Bw <v _y 0' Az IC Bw <v oF {y `> CC Nt (S (S G) {^.WM Bw <v (S `> (S G) gL {y Nt VM !y zz bS ,_ SO UM UM ]E '_ H) ;) zz VM SO AC U] V~ sP @: E3 $: #: J%.EV @H X/ !< I%.EV $: 1=.9[ Q^ y$.b* PW ]..{~.{l.]l.^l./l.(l._l.{l.Z@ :l.S$.Y~.L'.q> mT UY <l.b= d~ |P [Y rI rI [l.}l.p@.eL |l.1l.2l.gc.3l.P1.4l.",
"                                                                                                                                                                                                                                                                                                                                                                                                                                                                                                                                                                                                                                                                                                                                                                                 5l.6l.UG 7l.b9.8l.9l.0l.0l.al.h-.H. A#.yA cU vW p3.bl.s0.XU cl.mB dl.el.fl.+0.h*.#F ,S gl.hl.D~ n^ #{ il.jl.kl.ll.sj.j6 ml.nl.+{ :B >>.ol.`8.gs gs @T hs gs ]y hI 3v <y pl.ql.{-.rl.sl.tl.                                                                  ul.o^.fX c#.Nw  u Gn Zt Gz N../1 ,B ,B JC JC <y TO ~_ g%.TO JC VM vl.                              '~.MW -}.;1.wl.X* xl.yl.zl.Al.Bl.Cl.Dl.3~ 5{ of.El.Fl.2e.'z p! iS Gl.d} Hl.I! Il.&i Jl._#._*.>h [Z 'B +T .T 8' 8' HC ]B T{.0'./B qF Kl.Ll.Ml.Ll.H{.H{.Nl.TQ CM I4 Ol.X) ,[ :) .j.Ei Pl.ak.Bj [k Ql.i+.fe.HU Rl.<j.Sl.Tl.Ul.]k.45 Vl.Wl.Xl.Yl.Zl.tX `l. m..m.+m.@m.]W N9.&Z .P <p Ew F` us Zk.F` Pq Pq `t `t `t `t Pq Pq :p os ts B!.B!.M~.7@.M~.B!.B!.M~.7@.ts Pq ns os _y /y 0' Az ]y _y )B _y {y oF 0' 0' <v oF oF <v Az 0' {y (S oF oF Bw <v CC Nt (S `> gL BC D) (S Nt `> <v oF hL (S {y gL SO 0c UM zz zz '_ Q~ ,_ gI '_ '_ rP VM H) bS ,_ U] $}.I%.#m.E3 #: EV J%.$}.#: X/ d[ U] yz I%.=Z ~! $m.^..)Z kT !Z -].F- ;: %m.&m. f.*m.=m.-m.;m.J0 *~.A_.L'.m4.]{.-9 o,.tP FP FP c{ TV SP >m.xh.,m.IT TU bc.q3.): ]O 'm.",
"                                                                                                                                                                                                                                                                                                                                                                                                                                                                                                                                                                                                                                                                                                                                                                              )m.!m.~m.(K {m.C0 r-.]m.^m.r-.jv /m.]m.(m._m.:m.pV :; ^a.<m.05.si.)i.[m.}m.|m.1m.QX Za.2m.3m.0b 4m.6~ O6./p 5m.!,.Kz 6m.u7.78.7m.7m..^ g_.JC ZS 0' 0' _y ]y ]y (y gI 10.K!.8m.9m.0m.am.bm.cm.                                                                  dm.8< fX c#.(: Gn .u  ].Iw N..JC zz VM f_.f_.<y Gi.Y*._'.E) &5 )R em.                              fm.gm.=*.#1 hm.im.X- jm.md.km.3' B^ w] :[ zx B[.Ei .j..j.v/ G1.{2.y( W) lm.mm.m^ <) B3.nm.om.Di P:  T n^.,|.HC HC 0'.O~.pm.{B /B Sq FC ]B 4m c#.qm.qm.rm.,&.sm.tm.)=.F| um.vm.wm.@k.3* QM xm.ym.`%.XM J{.X*.x  zm.Am.Bm.Cm.Dm.Em.Fm.Gm.V@.Hm.Im.Jm.Km.Lm.Mm.Nm.Om.Pm.LU DV AT HC /B us G` Qm.Rm.Pq Pq `t `t `t `t Pq Pq 0< os Pq 7@.B!.B!.M~.ts B!.B!.M~.M~.7@.7@.ts ^y Ew :p <v Dz /y Az 0' <v Az ]y 0' <v <v Az <v Bw IC 0' IC `> oF Bw `> <v D) Nt hL Bw Az Bw (S <v IC <v Az Bw gL (S {y hL UM  X  X 0c SO @_ v` H) Kd ,B bS !y ,B ~y ,_ !y #H `X yz #m.**.EV V~ **.sP $H %: *d. _ %: #: |=.q'.Sm.Tm.+~ C3.Um.V] Vm.Wm.Xm.; .G0.Ym.Zm.`m. n..n.^9.R7.d0.u,.o8.U'.:{.jT @|.g^ IP ;R 6O :S y@.0E +n.cI rW rW )I @n.f*.",
"                                                                                                                                                                                                                                                                                                                                                                                                                                                                                                                                                                                                                                                                                                                                                                           #n.$n.1-.%n.2*.RQ &n.*n./K ]m.{+.=n.-n.li.wP :m.;n.>n.4J {k ,n.'n.Ya.)n.!n.~n.{n.]n.RX ^n.UL /n.(n._n..&.&5 :n.<n.5b.N..W+.[n.JC [n.@^ Jz [V JC ZS Az Az _y _y ]y Dz @T ,;.}n.+@.|n.1n.2n.3n.4n.                                                                  5n.6n.pY {B fs Gn .u 7n.c8.<y f_.VM VM (B f_.Gi.[y *Z _'.Mi.bS N8 .,                               8n.9n.0n.xC i] an.bn.K! cn.dn.H/ I{ en.UH 7,.xL RP fn.() ,[ 7S ]O d} YK gn.z; hn.in.jn.4).4).j' kn.q4.3W [Z t7.pm.]B pF jL 48.qF +]./B /B ln.c#.mn.nn.on.pn.qn.*O rn.sn.tn.un.vn.x= OH wn.xn.yn.#X qF +P T$.zn.G. Y;.An.Bn.Cn.Dn.En.Fn.Gn.Hn.In.,J Jn.Km.Kn.Ln.Mn.Nn.J; On.,Y g7 +].c#.8Z av cp `t `t `t `t `t `t `t `t `t ns ns Pq 7@.B!.M~.ts B!.B!.B!.M~.M~.M~.M~.M~.^y ns 0' Dz ]y {y oF 0' Dz Dz Az {y {y Az Az Bw Bw <v <v <v oF {y hL `> CC (S gL hL 0' 0' Bw <v 0' <v Bw {y IC <v IC `> 0c gI Kd hI ]E ,_ bS VM gI SO '_ zz ,_ cS !y VM xz IW $}.._ Y> $: %: **.EV !< **.EV Y> $: V~ sP :! Pn.S~ Qn.R~ Rn.R~ #_ Qn.Sn.bd.Tn.Un.G0.Vn.Wn.Xn.Yn.Zn.b0.,9.t,.m2.I0 :` )].Ug.e^.>^.YM 8[ 8[ `n.~2 j  GT  o.k  lc $R ",
"                                                                                                                                                                                                                                                                                                                                                                                                                                                                                                                                                                                                                                                                                                                                                                           .o.OF +o.@o.-n.#o.$o.%o.*n.0#./m.^m.&o.MF *o.h6.=o.#0.-o.-o.;o.>o.,o.td.'o.)o.!o.9J Ml `i.E4 ~o.{o.]o.p! :v Hw bs k3 }B @^ }B w[ |B 'E D) hL Jw I{.Ew :p 0< 0< |0._y 7Q L .On ^o./o.(o._o.:o.<o.                                                                     [o.>=.^B es Gn }o.o).|o.Gz +' h4./1 JC JC Gi.Gi.Ek.Y*.N..rP ;9 K3.                                 1o.T~ T^  5.2o.3o.4o.5o.~m.6o.7o.8o.|T N'.tQ fn.fn.M$.K. A_ 9o.bM 0o.ao.s; bo.co.Ul 4* bG do.u[ C~.eo.sY >N %*.]2 {E z|.w, ac Sq ]B +].0'.c#.H{.fo.qm.$u vs )6 &O Pd Il.go.ao.ho.Re io.jo.ko.#X Bw IC @P &K %M lo.mo.no.oo.po.qo.Fm.ro.so.to.uo.In.[e 1#.vo.wo.xo.yo.`n.LU F#.pY ~B t$.ap |m `t `t `t `t `t `t `t `t ^y `t ns ns Pq ts M~.M~.B!.B!.B!.B!.B!.B!.B!.B!.Cw B!.ns Cz <v (S <v ]y _y Dz 0' {y `> <v Az Bw IC IC <v 0' <v IC Bw hL (S <v hL G) Bw oF (S `> oF oF IC <v (y _y <v <v gI  X gI  X ]E 0c  X cS zz UM ]E SO '_ rP !y 0c '_ UM rP @( H) ^^.a[ ^^.zo.8/.^^.8/. a.bS SO `X @~ QC a) QC $~ Z' !' ^' Ao.c, Q] {' P{ Bo.Co.1=.7<.Do.Xn.Eo.Fo.Lg.Go.@> W|.Ho.j,./ .&&.x$.k#.M'.xL LX )I vT S- DP f*.Io.",
"                                                                                                                                                                                                                                                                                                                                                                                                                                                                                                                                                                                                                                                                                                                                                                        Jo.kE Ko.lo.(m.*n.$o.Lo.(m.li.%o./K Mo.-n.|< No.;8.Oo.Po.C{ #0.Qo.Ro.Ro.So.uf To.Uo.0M Cj QM Vo.Wo.Xo.G/ e~ /2 /W @T BC WM WM g) D) CC ^2 gL gL Jw I{.:p Wt Cz 0< 8Z Ew C .vk.Yo.Zo.`o. p.)~ .p.+p.                                                                     K8 {: GC ds  u @p.o).Li.Ek.Gz JC h_.N..JC Gi.<y #p.#p.E) {E $[.$p.                                 %p.&p.*p.-<.tF L4 M8 q+.w@.-Y =p.-p.GT  S VG ]k ;X d'.JN Rm 4S ;p.|4.>p.u~ ,p.r; b5.'p.WZ 'w A).*_ )p.}=.O: }Z {E >N #P Rq iN |a.Rq pm.he.~B H{.!p.~p.@u b#.ws /#.d$.$k.{p.u; ]p.^p./p.(p._p.Ql.^: <v hI oI eI L}.:p.<p.[p.}p.|p.&l.1p.2p.3p.4p.5p.6p.7p.8p.9p._k.0p.p7 nf u[ |V c*.F` ap.0p `t `t `t `t `t `t `t `t ^y Pq ns os os `t 7@.Cw M~.B!.B!.B!.}v }v }v }v Pq Cw B!.7@.(y IC IC `> oF _y _y IC Bw <v <v `> Az {y IC Az oF Az 0' {y Bw _y (S BC (S IC (S Bw Az ]y 0' ]y ]y oF oF /y  X !y !y !y SO cS hI SO gI ,B VM VM ]E ,B UM SO !y `S @_ S] )[.,_ bS Y/ q5.Y/ 8/.~y ;) ;) ^^.J%.8@.-: q'.$~ !3.Q] |=.-: V!.a) o3 S' bp.)! c-.T^ cp.%K 5@.k:.dp.ep.fp.gp.(l.hp.,}.#1.:l..> ({.ip.jp.k  3S wT vT lc %R kp.",
"                                                                                                                                                                                                                                                                                                                                                                                                                                                                                                                                                                                                                                                                                                                                                                     Af lp.`P mp.(m.np.op.bk.pp./m.f=.8l.e=.fB qp.qp.;n.rp.sp.#0.$c.tp.up.lk.vp.PM rp.wp.SK )I zx xp.yp.zp.Ap.Bp.8S FR Hw JC rP Ua <*.(S w[ hL gL Hz Cp.7v A, 7v ^: A, A, 9p I{.(B zj.Dp.Ep.Fp.Gp.2! Hp.Ip.                                                                     ~w ~: XM ]y Jp.xs Kp.|o.~_ <y f_.f_.h4./1 _B Gi.Lp.TO E) ,B 70 Mp.                                    X6.O] f#.)'.Np.%[.Op.Pp.7) ]|.t4.j[.aM e} v/ p! q] <~.cI a{ wA }O Qp.Rp.Sp.Tp.Up.tA sD Vp.Wp.WP z0.MP  K 3 .^S tF %H +P h3 Xp.Yp.g7 v;.w9.]B Qt Cw ^y M~.r7.HC g..j+.V^.gn.en wn.hg.*6 )m.~[ EC gL WM DR BT 8< 6< Zp.R>.`p. q..q.+q.@q.#q.$q.%q.&q.*q.=q.-q.NY ;q.>q.@R Rd ~: g7 b#.0p ,>.`t `t Pq Pq Pq `t `t `t `t Pq Pq ns Cz ns 7@.Qt GV GV GV &*.7@.7@.7@.M~.7@.B!.M~.ns Wt Wt os `t /y <v Nt gL Bw {y hL {y Az oF IC Az 0' oF (S Nt `> `> IC oF Bw IC IC hL IC oF IC Bw IC Az Az <v 0' IC Bw IC `> gL `> _y Nt BC 7/.CC {y Bw `> hL rP hI ,_ ,q.]E ,B ;) Q~ Y/ PC K9.v` )[.^^.bS IW $H o3 %K c-.}E ~^.9@.a>.mL B> %K JW FV Q{ A> i[ T^ T^ q'.9;. Y  Y l_.46.'q.*m.c. )q.{l.!q.x-.~q.aQ PV {q.(}.|@.MV 1P N'.",
"                                                                                                                                                                                                                                                                                                                                                                                                                                                                                                                                                                                                                                                                                                                                                                  ]q.:j.^q./q.n$.]m.%8.0l.Z%.uV &o.Mo.s-.C0 (q.5# _q..0.pV GX hj.:q.<q.>n.vi.;8.Pe.rf W2.[l oT go @k.[q.}q.|q.1q.b=.C ._W C .UM DC iL `> 7/.WM WM _0.}y B, 9' %#.%#.Ew ),.uU Y*.<y W..Yo.2q.k2 3q.2! 4q.                                                                           :f.L4 ,|.Oq  u `q |o.Gz <y JC N..h_.h_.N.._B ~_ ~_ _'.)R KP 5q.                                       6q.7q.8q.9q.0q.aq.bq.cq.YO D3 dq.eq.C[.,[ JN b{  1.Rm 7J p] Tj.fq.gq.hq.iq.d- -z jq.uA {2.[Y kq.x;.t@.zL lT )R fI & ..H h7 lq.26.,=.fe.pY ;r GV [p !B 4+.]B EC ~S Ci pf #, mq.nq.oq.&%.pq.;r )Y Kd !y !y [> R8 'q qq.S=.rq.sq.tq.K+ uq.vq.wq.xq.yq.zq.Aq.Bq.Cq.L] Dq.YP Eq.Ij.N: 'O ns Pq Pq Pq Pq Pq Pq Pq Pq `t Pq ^y Pq ns ns ^y M~.9'.GV GV &*.M~.7@.^y Pq ts M~.M~.Pq Cz Cz `t ^y !B Az gL Nt `> (S (S IC `> Bw <v <v Bw (S {y Az IC Bw IC IC Bw <v 0' IC `> Bw IC IC oF Az <v IC <v oF `> gL {y Az oF gL `> Nt G) WM hL `> Bw IC SO ER ~y |9 ;) UM zz rP U{ 'R  a.Q~ ;)  a.v` $}.u$.3+.'Y X> '` >) `, 2+.'` 9[ FV H} FV N%.;B 7+.!3.c-.Fq.6' T^ cB X> !^.- .Gq.Hq.Iq.7. Jq.X|..> 5{.aQ Kq.j;.Lq.q/.Y0.k;.",
"                                                                                                                                                                                                                                                                                                                                                                                                                                                                                                                                                                                                                                                                                                                                                                  Mq.Bc Ke.Nq.%% x  s-.^m./K q-.fk.Oq.Pq.qc :m.5  Qq.:; Rq.h6.Sq.2d.5k Tq.Li [L  Z m}.'q 'X X~.U} |- Bp.Uq.Vq.Wq.'X {y Xq.Bw nF gL Bw {y G) Nt WM ),.Yq.E) E) V+./: <$.Oh.6y Zq.$/ `q. r..r.+r.ml.Df.@r.                                                                           #r.JP M1.&*.Tt dv Ek.F) Y*.Nt Nt zz h4.h4.ol.Kj.[y hL M .$r.                                             %r.&r.*r.=r.-r.;r.bq.>r.n3 ~9.,r.,a.H` 'r.FT 7,.~z )r.!r.-q @>.[m.~r.{r.]r.O4./z ZP Z` nT qI 8[ nO ~R 0O ~R SV 0S oL w} $X [Y ^r.xI 4 .On.[` o:.[p [p `> T{.iO WV Qd G, =, && /r.(r._r.HP J{.]: cS (S ]E J{.:r.n] <r.fV [r.}r.|r.1r.1r.jh.2r.3r.4r.5r.6r.7r.8r.J] BP 6< X].5 .Rq t$.Pq Pq Pq Pq ^y ^y ^y ^y `t Pq ^y ^y ^y Pq `t Pq GV GV GV 9'.9'.&*.^y ns Pq ts ts `t Cz Cz ns ns /y ]y `> hL `> (S hL IC Bw <v ]y 0' Bw (S Bw ]y <v oF <v oF {y Bw IC (S Bw Bw `> (S `> oF Az Az `> <v Az `> `> IC {y CC <v IC `> (S hL gL (S Bw cS 0c ,_ i) '_ bS AC rP )<  a.K9.H) ,_ H) @_ J%.l3 ~R nL kI O8 g#.;N +X DT d-.h#.j#.h#.>R O%.* .E3 **.V~ *d.}! q'.G> N%.^..b* kT +> 9r.0r.ar.br.^]. !.cr.dr.Kt cr.z(.er.",
"                                                                                                                                                                                                                                                                                                                                                                                                                                                                                                                                                                                                                                                                                                                                                               K-.fr.O0 gr.=b ~N @&.o$.%o./m.4%.:g.hr.ir. Z .0.MF GX |4.VH GX GX jr.]n.<4.]2.4T _T TW Rm !N '^.%].Ir kr.lr.mr.c3 H1.(y Xq.BC ,E G) Nt CC CC D) #^ 5b.-( *Z Zq.)_ Ek.nr.or.#/.pr.4W qr.Ep.rr.sr.tr.0, ){.                                                                           C].W8.,Y `O Rt dv Ek.F) Y*.gL gL VM zz ,B N..),.]U y, <;.jc                                                 ur.vr.wr.xr.yr.zr.Ar.Y{ @X Br.|1.Cr.Dr.M!.qT ~z )r.d] Er.37.ko.Fr.Gr.4G qc.h; Hr.p$.<P iS E  i..kF p,.9+.7, ET 3O l] Ir.k/ [2.+#.n;.Jr.JP Jr.o:. P Bz 4+.:~.>=.xI $8 A& Kr.Lr.P_ @o.^H ,h 3 .gI ZS [V (S AL 6n.rf Mr.Nr.iV Or.Pr.Jn.xq.nx Qr.Rr.Sr.Jn.6r.Tr.Ur.en.Vr.{H X]. H pm.Pq Pq Pq Pq `t Pq Pq Pq Pq Pq ^y ^y ts ^y `t ns !B <p GV Bz Bz 9'.7@.ts Pq ^y ^y ns Cz Cz os Cz _y 0' IC Bw oF {y hL {y oF IC oF Az Az <v oF <v oF oF 0' Az Bw {y `> WM Bw Bw {y (S {y oF Az Az IC <v 0' Az IC (S gL Nt IC IC IC Bw {y `> (S (S 0c `S 0c K9.K9.bS H) H) rP AC )[.)[.^^.bS bS V~ g2 D3 ~R D3 g#.O8 0O 0O DT ;N V|.7, DT 0;.i#.m3 V~ #: **.@H [! o3 2+.a@..{.K%..{.@{.${.Wr.Xr.L; Yr.g[.Zr.y(.%~.`r. s..s.",
"                                                                                                                                                                                                                                                                                                                                                                                                                                                                                                                                                                                                                                                                                                                                                            +s.@s.#s.$s.%s.H. B0 &s.*s.Nq.(K =s.-s.8o.Q- p3.;s.pf.=o.X2.jr.1m.Tq.uV 75.>s.Bj #R ,s.v0 `Q f2 vC @K v/ a5.'s.Dg.Z8 d^ <v Jj.|a.c=.(S Mi.M..f_.Jz  ^ -( 5m.)s.!s.#p.Lp.~s.{s.]s.^s./s.(s._s.:s.<s.L3 [s.}s.                                                                              1> Xa b<.4v <V _$.Y*.Y*.WM <*.,E ,E ,E rP {^..X D- T3.|s.                                                   1s.2s.3s.4s.5s.6s.-d.$: D3 HR Y1.BV 7s.8s.3;.9s.do XU $D 0s.as.bs.Q- {z <+.k(.>s.p=.f3 JU o^ AU cs.:> 8[ e^ ]H d^ ,[ ds.H: Nl Vr.8s.pX KU es.&1..P GV ~B  H o^._k #k.;& .p E/ `C Bj lf $].,E [V Fw Xt Sq GP ]/.*o.H=.U#.fs.gs.6r.v< 'j.hs.is.js.ks.,+ >J ls.ms.Ke.GU fe.T$.:~.!B Pq `t ns ns ns ns ns Pq Pq `t Pq ^y ^y Pq `t (y )B 8' GV GV &*.&*.&*.Pq ^y ^y `t ns `t `t ns ]y ]y <v oF <v Bw `> IC {y hL hL {y <v Az 0' 0' Bw IC 0' 0' oF oF oF `> hL `> Bw IC oF <v IC `> _y oF Bw <v 0' <v `> Nt {y {y {y IC <v Az oF Bw SO !y VM H) a[ ,B bS AC H) H) H) ^^. a.a[ '_ a,.g2 2+.!^.;Z 2+.X> 3+.v$.3+.m3 `, ;Z !^.d#.nI =]. _ %~ I%.`X !^.$K $K %K K%.!` U  d(.2^.ns.vl.$ .d' os.ps.qs.rs.ss.ts.us.",
"                                                                                                                                                                                                                                                                                                                                                                                                                                                                                                                                                                                                                                                                                                                                                         vs.ws.xs.ys.zs.R!.q/.As.FL -s.<b zP Bs.<@.Cs.Ds.Es.Q- Q- :; Fs.Gs.No.+R hc.n}. R vT qT ;..Hs.nS mS Is.K%.d^ uc Js.Ks.R| wM ,_ /U ,E ]2 Nt  ^ =( g_.-) W+.%<.Ls.Ms.&^ xk.sk.Ns.Os.Ps.Qs.Rs.Ss.Ts.Us.Vs.K].=: Ws.                                                                              Xs.Ys.,b.+T *Z @#.Y*._0.U+.iN *-.y, )Y #P {E #].[*.cf Zs.                                                      `s. t..t.+t.@t.#t.Rd.[s.YQ $t.%t.&t.*t.=t.-t.zV ej.;t.>t.,t.'t.)t.N$.oW j'.m& ak.k  ~2 !. 2S lL .'  1.FT p! fn.!t.vm.w~ 4).6[ ~t.{t.wg.JP eo.q4.4+.0'.7..vZ z- W=.]t.(f.Kr.eV 0- rX $].>N C .^t.dv Ew B .m%./t.(t._t.:t.yi.<t.[t.}t.VN |t.1t.2t.3t.Jn.4t.5t.6t.U. 7t.X].L4 ~B Pq `t ns os os os os Pq `t `t `t Pq Pq Pq Pq _y Dz !B <p <p <p <p 8' `t `t `t ns `t ^y ^y `t Dz (y <v Bw oF oF IC Az IC Bw Bw Bw {y Bw Az Dz <v <v Az <v `> Bw oF Bw IC Bw `> hL (S Bw IC Bw IC Az Az IC IC 0' Az {y 0' <v Bw Bw <v 0' Az IC !y H) Q~ zz SO zz )< ^^.~y H) ,_ ,B '_ Q~ '_ ,_ LP d#.X> ;Z 2+.9@.'Y 9@.* .9@.* .X> .J 9@.n3 '` %: %: +_ %: I).2+.a@.X> YQ - .M%.A  c@.OW 0^.#~.h@.@r.H0.~*.8t.9t.0t.at.",
"                                                                                                                                                                                                                                                                                                                                                                                                                                                                                                                                                                                                                                                                                                                                                         a9 U( dh bt.zs.ct.r^.dt.@*.ys.qc Bh.Bh.#h.qi.ej.xP xW RX }4.>z xA .0./@.@R  R 1P ]R K  @r.et.<[.* .Y^ = .wM UE ft.gt.IN 6~ ,B /U *-.c=.^2 ht.78.78.it.W+.cg.jt.kt.lt.`{.08.mt.nt.%9.Ep.ot.pt.qt.rt.st.tt.ut.9(.                                                                              vt.w;.*- .P _p *Z Jw Jw 48.48..K UP *-.*-.ZQ +N A_                                                                   Ma Id wt.xt.yt.zt.0n.At.Bt.Ct.VX fN +Z jU cV Dt.Et.>n.Ft.^m.2T :..c+.UW @R }S NV T%.p> I  Gt.)I 4S }T hS Ht.-, y; It.Jt.Kt.Lt.}-.Mt.eI n^.+].Nt.x9.uZ Ot.Pt.9> u^ Qt.Rt.1-.!r.g] AT ]U En @#.[$.pm.B@.Ya Od.St.Tt.;+.Ut.-w Vt.Wt.Xt.Yt.Zt.`t.Jn.Kb. u..u.T&.+u.-9 _ .+].^y Pq `t ns ns `t `t Pq Pq Pq `t `t Pq Pq ^y /y Dz (y /y 4+.8' 8' <p Pq `t ns os ns Pq ,>.ns )B /y Az IC <v Az oF Az Az 0' 0' 0' IC {y IC ]y ]y ]y ]y <v (S `> IC {y _y Az {y Nt Nt `> oF <v `> <v _y Az {y `> oF 0' Dz ]y oF {y IC Az <v Bw UM ]E ,B a[ '_ UM ]E )< rP Q~ )< rP ,B ,B ,_ )< xz Jd  , Y> $}.Y> V~ J%.yz `X a,.xz )O  , sP V~ LP !R tF nn }E 9@.$) * .^..L%.5/.5/.)p S4 +| O] @u.e-.#u.$u.%u.9(.91 &u.",
"                                                                                                                                                                                                                                                                                                                                                                                                                                                                                                                                                                                                                                                                                                                                                      y+.ws..e.'p *u.=u.-u.;u.5=.i. -s. 0.&. >u.Es.xP xP Vp.F= vA ]n.qp.qp.mi.s+.v} JU uT  ' O] ,..T> XG h#.,u.'u..!.tW )u.!u.gG g} I).(2 $}.~..@_ `] h_.2, #{ W..zi.~u.{u.]u.^u./u.(u.q)._u.~>.:u.<u.[u.}u.|u.1u.a) 8(.                                                                                 %M 2u.~6 h7  K 5O J{.90 eI c~ Sg.3u.                                                                              4u.!{.A,.wt.5u.~<.yt.9S NV 6u.7u.8u.J; 9u.9u.0u.au.|O bu./K cu.du.i'.}< 9J fO A#.T%.WW 8u.UK YP zx Hu f~ u; 2- eu.co.fu.gu.D/ jc.$S do.hu.*j.Sn Sn pY pK iu.+- hn.s; 8h.-  5{ ee.0S ]E (: ls n).I{.'|.~: ju.]w bQ ku.!@.lu.mu.nu.ou.pu.qu.@z ru.su.tu.uu.ic.0W [=.%].M1.,|.4+.!B St St Rt Rt 2v Pq Pq Pq `t `t Pq Pq 4+.Dz ]y (y <p 9'.9'.8' M~.7@.Pq ns `t ^y ,>.os `t )B ]y Az ]y ]y oF oF Bw IC Az ]y ]y <v Bw Bw 0' 0' (y _y oF oF Az IC Az 0' Az <v oF oF Bw `> ]y `> `> 0' Az hL hL Az <v oF Bw {y IC Az Az oF ~y VM ]E ,B gI rP UM UM ~y rP ,B bS '_ UM ]E ,_ H) $}.)< `X Kd )O AC $H ,B $H H) )O ]E 0,.)< #H tF LP ~..LP =].a@.`, mL {Z {Z ,Z L%.9+.vu.,< 9W wu.xu.w-.(^.N[.|, $Y Ob.",
"                                                                                                                                                                                                                                                                                                                                                                                                                                                                                                                                                                                                                                                                                                                                                   GI yu.zu.~&.ir.Au.Bu.53.Cu.Du.6,.Eu.Fu. h 55.Gu.Hu.U5.yW ~b QX Iu.Yd o;. & |l -Y 8u.(..Ju.t9.*].XG Va.Ku.Lu.Mu.#K >:.Nu.Ou.Pu.Qu.<e.$K EV xe.V~ %~ Ru.j) Su.Tu.st.Uu.Vu.Wu.Xu.Yu.Zu.`u. v..v.+v.@v.#v.$v.%v.&v.L%.*v.                                                                                 =v.-v.;v.>v.Fu k' 6M                                                                                                 ,v.'v.N1.`{ )v.Oj.jO -^.w>.!v.p:.y,.n'.x,.E- if ]H >1.$e.xP a9.~v.BD k  HT {v.2P <S VY TH *` #S e3 hg  = (b.bo.Vf.]v.^v.`o nq.fW /v.{h D6 CY T{. P [p (v._v.:v.<v.]p.lB 3+ [v.c~ u#.+P Bw _p fs Bw k%.gN DY 8< eB }v.|v.oh.1v.2v.|t.Dg.3v.4v.5v.6v.7v.8v.9v.*G 0v.5c Y|.mF 9Q b:. u 2p 7n.av.1v `t )B ]B ]B {B {B `t ns Cz Cz `t ^y M~.B!.M~.ts Pq `t Pq Pq `t `t os Cz Wt :p :p :p :p :p ]y ]y ]y ]y 0' ]y ]y ]y Fw (: es Nw |v Xt Nw _p Bw <v _y <v Bw Az ]y IC 0' oF IC <v oF {y Bw Az IC <v ]y _y ]y <v IC Bw oF Az {y WM hL {y (S gL {y IC (S D) G) (S WM |B WM rP w[ !y Nt rP D) ,B }B H) }B )< Bw zz w[ VM zC W/ W/ W/ c-.L9.|=.|=.Y{ o3 T^ 1=.* .Y^ !^.i[ 1=.U/ o3 |=.a>.JW T^ S^ ",
"                                                                                                                                                                                                                                                                                                                                                                                                                                                                                                                                                                                                                                                                                                                                                bv.cv.y. dv.ev.s=.fv.bt.gv.hv.iv.jv. 0.kv.Hu.Dh.|N lv.mv. h nv.fj.TH rc rT YP ^6 -Y _Z K  (..)|.'Z ov.pv.qv.I7.rv.)` aO r' R( sv.tv.yD @X bf.^E V~ #: W~ uv.>5 vv.wv.xv.yv.zv.Av.Bv.Cv.Dv.Ev.Fv.Gv.Hv.Iv.Jv.Kv.b6 KW                                                                                                                                                                                                             Lv.zU bS Mv.F' Nv.Ov.>&.D) hI vF 7c bX 0,.&Z >R Pv.Qv.Rv.Sv.Tv.hc.cj.cj.D%.<4.cO TH H8.1g.*% 1< 6{ PM 4k It.6G Uv.Vv.Wv.Xv.Yv.`m Zv.`v.w- v;.3m 6@.O~. w..w.+w.s= @w.Re.Pl ;X 80 5O cS `> Fw *X _y qF GC v;.k+.#w.$w.v+.M@.zu %w.&w.*w.=w.-w.;w.>w.,w.'w.)w.!w.e'.T3.YG bX Ez ~w. ].{w.);.2v `t )B [Z [Z ]B ]B ns ns os os os ns ^y M~.B!.7@.Pq `t `t `t `t `t 0v 0p Cz 0< 0< Wt Wt :p ]y 0' 0' Az Az 0' ]y _y 2v ds Nw E) ^W ^W fs b' <v <v 0' 0' oF IC oF `> <v IC oF ]y 0' IC {y Bw <v Az Az <v Bw IC Az _y Az Bw WM WM IC <v Bw IC (y /y 0' hL WM (S Nt 7/.CC gL gL (S gL w[ w[ }B g) Nt gL w[ 7/.w[ |B )< xz ]w.^w.T^ V!.Yw L9.|=.U> V/ q'.9;.c-.o) }! Z{ ~6.:' >B  {.l, @H V~ J%.",
"                                                                                                                                                                                                                                                                                                                                                                                                                                                                                                                                                                                                                                                                                                                                                /w.(w._w.:w.Ds.<b *u.<w.*u.<U 2*.2*.[w.[w.YU CI xm.uf Oo.}w.:; 5P o>.|w.fO UK 2S 2S DU *Y $ .0^..{._9.1w.2w.I7.3w.)` U| 4w.r} 5w.Ry $6.C' &5 e) SO d8.6w.7w.,5 8w.{>.9w.0w.aw.bw.cw.dw.ew.fw.gw.hw.iw.jw.kw.tt.W~ $ .                                                                                                                                                                                                            lw.oT #H *^ L&.mw.nw.ow.%' .T cS ~y +T [Z >E b2.I1.pw.qw.rw.Dq.uA vA uW Vr.dM sw.*% tw.!& !F CD uw.7{ 3J Z- ]p.vw.ww.e> xw.yw.zw.Aw.Bw.cV Cw.)!.,b.w9.Dw.Ew.gf Fw.K, GL n] q] mN L!.zz IC /2 0' oF FC EC =X $P 'q Gw.Hw.OL s..Iw.Jw.Kw.!1 Lw.Mw.Nw.Ow.Pw.Qw.GM NF 3_.b7 r+.0'.^y 28.qs ps 2v `t )B )B )B `t `t os ns `t os 0< Cz ns ^y B!.7@.^y `t `t `t `t `t Pq `t ns os Cz Cz 0< Wt _y 0' Az oF oF Az ]y (y b' es Nw F) ^W _p (: Xt _y <v Az _y Az oF IC Bw oF IC oF ]y ]y oF {y {y IC Az _y 0' IC {y Bw <v 0' {y WM gL oF IC IC ]y oF 0' <v hL gL Bw oF {y 'E {^.gL G) gL 7/.Nt {^.Nt hL hL gL WM G) D) ,B zC I%.$}.EV %~ &~ EV V~ #: sP $}.J%.%: [k.~6.!< +_ E3  _ Rw.$H U] $:  _ ",
"                                                                                                                                                                                                                                                                                                                                                                                                                                                                                                                                                                                                                                                                                                                                             EO Sw.Tw.Uw.Vw.%n.*s.]+.Ww._i.wb.2*.*s.a-  0.Xw.2Y =o.fl.Oo.MF [L 4T 4T }@.fO fO q#.2S DU eS }+.XQ m3 3/.;I Yw.3T )~.= .D- Zw.`w.5w. x.]C jT z} +' #^ Af.6m..x.+x.@x.#x.$x.%x.&x.dw.Ev.*x.=x.-x.;x.>x.,x.'x.)x.!x.a) +|                                                                                                                                                                                                                ~x.;N M..),.Nz m).{x.*( hL gI @_ Kd 9< 3 .]x.>5.g] v} /q.^x./x.aG qc.~t.8G Dd (x._x.p3 !& jU -& ga.z& w= OH :x.<x.[x.}x.|x.1x.2x.3x.,i 4x.<k.5x.e*.(v.6x.7x.o/ 3< :m.8x._k 80 UP *-.gL C ._y <v /B HC LT |{.Od.Ll )  9x.0x.ax.bx.e9 cx.dx.ex.fx.^( GQ 9P gx.R| hx. +.H4 CY qF 0< rs '>.1v ns /y /y )B `t `t os `t `t `t os Cz Cz os M~.7@.ts ^y Pq Pq Pq `t Pq Pq `t `t ns ns os 0< Dz _y Az oF IC <v ]y _y Ez Xt ds Nw b' (: Ez ^W 0' IC IC oF IC <v Az oF oF IC oF <v oF {y Bw oF Bw Az _y ]y <v Bw {y {y oF <v Bw `> `> gL `> ]y Dz Dz 0' (S WM Nt gL CC D) hL `> WM G) k3 CC D) (S {^.7/.G) D) BC CC rP UM sP a,. , #: $H $}.E3 yz #H J%.&~ %: %~ $: yz **.J%.A} 1j.E3 :' 1j.d[ ",
"                                                                                                                                                                                                                                                                                                                                                                                                                                                                                                                                                                                                                                                                                                                                          .W ix.jx.kx.2d.lx.a- mx.nx.ox.z%.dj.px.0G ux qx.kE gk.sf rx.sx.tx.V5.,z ,X DP @n.U$.XR Kg.ZW .!.#K <[.'` AY M<.&i LN 4[.`, U| v~ ux.xu vx.$6.5/.z} wx.xx.-5 yx.zx.Ax.Bx.4'.Cx.Dx.Hv.Ex.Fx.Gx.Hx.Ix.Jx.Kx.Lx.Mx.Nx.vj.Q]  '                                                                                                                                                                                                                Ox. 1.& .oF B, #/ -( 0B Px.(S ~E iN {i..a.Qx.7;.*1.U} x_.wQ $w.Rx.,j.Sx. L Tx.Ux.N#.HA Ia G& r/ T- X5.Fh.Vx.G/ Wx.Xx.Yx.Zx.`x. y..y.+y.@y.df #y.5_.$y.(v.%y.om.2* &y.0l.r] w} 5O >N gL ]y /y ]y pF /B '|.DY A- *y.Rq.=y.-y.3i.;y.>y.,y.'y.gW )y.!y.~y.eA fJ 2N {y.]y.^y./y.1(.ln.Pq 0< Cz Cz os |v 1v ps ps ns ns `t Pq `t ns Cz Wt ^y ^y ts 7@.ts ^y Pq `t Pq Pq `t `t Pq `t `t ns `t Cz 0' <v oF <v 0' ]y Xt es b' (: |v fs gs *X Bw `> (S Nt WM IC 0' IC Bw IC oF IC {y (S Bw Az Az <v oF oF IC IC oF oF Bw Az oF hL hL (S `> IC 4+.)B ]y {y gL WM G) {^.`> oF (S Bw G) 7/.D) Nt w[ {^.CC w[ $( 7/.CC AC '_ `X yz Y> zC sP V~  {.**.V~ &~ **.$}.%: +_ **.yz ~6.>B B} l, (y.@: #: ",
"                                                                                                                                                                                                                                                                                                                                                                                                                                                                                                                                                                                                                                                                                                                                       gY _y.:y.So.<y.[y.}y.|y.1y.*s.-s.rU Eu.bQ `P Zg.2y.@F Hu.qp.sx.3y.4y.5y.iU )I cI 2S =N `Q hO 6y.-N `~.*].'` D- ko () S&.^> !^.~R W2.Z5.bI kA sw.7y.6! 8y.9y.0y.ay.by.cy.dy.+^.ey.fy.gy.hy.iy.jy.ky.ly.my.ny.oy.py.qy.Ci.a) k'.                                                                                                                                                                                                                  ry.{R %H /2 =) *) Pt #( e_.Ua jO sy.s(.ty.ET 2].+Y /> uQ uy.vy.wy.xy.yy.zy.@h.Ay.k9.Dj ~F 27.zW UE uD 6* By.Cy.*2 aD Dy.Ey.Fy.|7 Gy.Hy.Iy.df Jy.Ky.Ly.zn.cV au.Pl.My.6, 80 lT >N Sq !B 0' ]y ac iL XM m! /y.%c.Ny.Oy.Py.wO Qy.'S Ry.Sy.YN Ty.Uy.Vy.Wy.Xy.TL Tp.Yy.<l Ot.pN 38.G` Wt Wt 0< Cz |v 1v av.);.`t `t `t Pq Pq `t Cz Wt os Pq ts M~.M~.7@.ts ^y Pq Pq `t `t Pq Pq Pq `t `t ns _y 0' Az Az Az 0' Xt es ds Fw es (: hs hs Bw Bw {y Nt CC Bw 0' {y `> IC <v <v Bw `> Bw oF 0' 0' Az Az <v oF {y hL Bw IC gL CC {y 0' oF `> <v <v IC {y `> `> `> (S {^.Nt D) IC WM CC WM (S G) D) WM WM G) hL (S 7/.^^.yz yz  , I%.I%.)O zC )y IW #: J%.$}.**.V~  , U] U] E3 OC B} d[ ~6.$H ",
"                                                                                                                                                                                                                                                                                                                                                                                                                                                                                                                                                                                                                                                                                                                                       6Y Zy.P; Ya.Oy.`y. z.qV .z.+z.ev.@z.OX 2y.#z.$z.%z.PK &z.*z.Aj =z.-z._R ;z.iS 7S E  EP f^.g/.XG g/.P%.lI MP ET '[ p! N!.>z.+H ;N qK ,z.'z.)z.!&.LW D} !z.~;.~z.{z.]z.dy.^z./z.(z._z.:z.<z.[z.}z.|z.1z.1z.2z.3z.4z.5z.Bk <! ^.                                                                                                                                                                                                                      )r.[;.bf./U 6z.7z.4b.4b.pb.8z.9z.0z.r'.nL 4/.t_.*].|R $p.az.!b ## bz.cz.UX dz.zy.]F 1L ez.PK YH .6 fz.gz.Cy.hz.iz.jz.kz.lz.mz.nz.oz.pz.qz.dV rz.sz.2,.W` 4_.}k *K n+.M8 .H oI nF @P ]E Kd Sq GC qF jI d0 h] tz.v- |< }j.HI uz.tO vz.wz.kA kA xz.Ec pU :_ v  T- XV e0 Y].`G ]B Wt Wt 0< Cz %u %u 4p av.ns `t `t `t ns os os Cz 0< ns ts M~.M~.M~.M~.M~.^y Pq `t `t `t `t `t `t `t ns os Cz _y ]y 0' Az Ez Xt ds Ez @T FR [V [V oF oF <v IC !y cS gI 0c Bw oF <v <v oF IC Bw {y Az 0' _y _y 0' IC (S Nt oF `> G) CC oF _y Az oF Az Az <v Bw (S Nt gL (S D) hL Nt (S gL CC WM BC `> BC 7/.Nt (S {y {y hL ,B Q~ ~y UM )< '_  X ,B )< rP ,_ '_ AC )< @_ A}  {.=Z -Z o) <! yz.yz.|E ",
"                                                                                                                                                                                                                                                                                                                                                                                                                                                                                                                                                                                                                                                                                                                                    zz.Az.Bz.Cz.tp.X@ Dz.rp.Yf._m.E8.yP )t.!2 >u.Ez.:K <K jk.Fz.Gz.<P Hz.|l.H1.[T iS TY :Y TY oO Z|.]1 oO #1 ;N E` j] 2O +!.IP :[.3+.nL c1.Y8 +6 Iz.Jz.N. Kz.U..^,.^/.Lz.Mz.Nz.Oz.Pz.Qz.Rz.Sz.Tz.Uz.Vz.Wz.Xz.Yz.Zz.`z. A..A.+A.$m.Y6.                                                                                                                                                                                                                     $3.p-.Pp.@A.6w. ^ *c.#A.$A.%A.&A.*A.U'.;B !` }E j4.;*.]R ~z # .wQ =A.-A.Yi ;A.~t.=6.vG sK ZH >A.*z H^ ,A.'A.)A.pe b2 !A.~A.{A.]A.^A./A.(A.kW rz.'O O~.wg.;M _A.~d.r2.eI lT lT .X xU 0c 0c FC ^B EC +].9<  T [> u[ Mt.C%.ev.bL #e fT :A.S` V9.:A.d4.<A.'L [A.&; ~2 }A.7>.^B <v 0< 0< Cz Cz 0p %u ~b.~b.ap `t `t ns 0< 0< os `t 0< os ^y 7@.M~.M~.B!.}v ts Pq `t ns ns `t `t `t ns ns ns ns Dz _y ]y Az fs ds |v (: 7Q [V gs gs IC Bw Az _y gI 0c 0c ]E 0' Az oF oF <v <v IC `> <v <v <v oF IC IC <v 0' 0' {y WM hL <v Az <v _y 0' ]y 0' oF (S Nt (S IC Nt {y {y WM {y hL IC G) hL IC {y D) {^.(S Az oF ,B rP Q~ bS zz ,_ ,B SO ,_ UM ]E zz '_ !y UM OC $H Yw 00.c-.}! i[ cp.<! ",
"                                                                                                                                                                                                                                                                                                                                                                                                                                                                                                                                                                                                                                                                                                                                 |A.N@.d- 1A.<q. h.2A.MF No..z.Yf.jr..h yP ;s.fj.oS SH )& 3A.pf.Z` WG |l.^L <~.K) [Y YR A).oO }R }R w$.mI MT E` K[.j] q+.%].IP N8 Va nL ]W f$.YJ R` 4A.5A.6A.7A.8A.9A.0A.aA.bA.cA.dA.eA.fA.gA.hA.iA.Uz.jA.kA.lA.mA.`z.nA.oA.=5 3@.pA.                                                                                                                                                                                                                        qA.rA.(! h4..^ {x.L6.sA.tA.uA.vA.'` )` }E L).A} %_ i#.9+.,^.S4 )K em.,s.wA.xA.yA.6t zA.AA.BA.Mc.CA.Mk.DA.EA.FA.GA.lz.HA.IA.JA.KA.LA.MA.oV NA.^y 8'.%M OA.PA.&d.QA.RA.gN lT oI E' .Y #P Rq GC GC Dz ]y 6Q ip &Z e..Ys.SA.TA.UA.)b x%.~t.VA.BQ Xa.WA.XA.YA.D(.5^.f, v) ZA.Vt Vt ]y os b#.}m Z..`A.!b.ap `t ns Cz ns ^y ^y ns `t 0< Cz ts 7@.`t ^y Cw &*.Bz 4+.Dz ts 7@.Pq Pq Pq `t ns `t os 0< Wt 0< 0Q *X FR gs 7Q @T hs hs Az <v hI hI 0c 0c gI gI 0' oF {y Bw Az Az `> G) IC 0' _y <v Bw Bw IC IC _y 0' {y {y Bw (y `> Bw 0' oF <v IC (S oF oF WM 0c VM 0c gI UM ]E 0c ~y ~y AC ]E cS !y ,_ SO ]E hI rP Q~ H) bS ,B SO UM ~y ~y ]E ,B ~y AC a[ OC ib.mL %K 9[ %K !^.7+.+H ",
"                                                                                                                                                                                                                                                                                                                                                                                                                                                                                                                                                                                                                                                                                                                               B..B.<h +B.@B.#B.$B.2d.%B.jr.No.]n.D= jr.|y.Vp.~v.xW jU vW bl.F= f3 `Q `Q ^L H* j..C|.}Y AY oO J) }P mI >R }> }> ![ j] ^> &B.N8 3 .4O lI 3..*B.2{ =B.Z$.-B.;B.>B.,B.'B.)B.!B.cA.dA.~B.{B.]B.^B./B.(B._B.iA.:B.<B.Zz.[B.}B.ot.|B.m_.1B.                                                                                                                                                                                                                        2B.3B.4B.-d.]V #( 5B.6B.7B.8B.P%.-*./S JW l, )[.T{ A} OC LP +H +{.7y.k'.9B.0B.P0 aB.bB.cB.s& dB.n[ eB.fB.gB.hB.Zx.iB.jB.kB.lB.gF mB.nB.oB.]A =c.,-.eo.:r.=j./y.z0.5, |Z J{.CT E' v[ .Y FC Sq qF ]y 4v ~'.zw 9Q )y pB.>z.qB.6u.rB.sB.<U hU tB.uB.vB.wB.xB.yB.zB.AB.BB.CB.Ut 0Q @T Qq Qq $r cp Y..DB.0p os os Cz ns Pq Pq ns os Pq os :p ns Cw Cw ^y &*.9'.8' !B ^y ^y ^y ts Pq `t ns ns Cz :p :p Wt hs [V FR *X hs @T @T hs _y Az 0c !y ]E  X `S .T (S {y Bw `> gL hL Bw Az `> {y Bw {y IC oF IC `> oF Bw G) (S IC (y <v <v `> {y {y hL Nt `> Bw (S VM ,_ zz ]E ]E  X gI SO Kd `S 0c Q~ ]E 0c VM cS 0c zz )< Q~ zz  X  X !y SO ,_ bS cS rP Q~ PC E3 8, mL X> %K 7+.%K 3+.m3 ",
"                                                                                                                                                                                                                                                                                                                                                                                                                                                                                                                                                                                                                                                                                                                              EB.FB.GB.HB.~  GL `y.IB._m.(q.*o.]n.0` ]n.mi.3P +R 4T yx o>.No.9J tT -N 8[ -9 UY f^ }P aO aO nO lI kI D3 0O M .zL K[.M .JB.KB.$) fL 4O 3+.^> Z6.vi _O <A.LB.MB.NB.OB.PB.QB.RB.SB.TB.UB.VB.WB.XB.Uz.YB.ZB.`B. C..C.+C.@C.#C.$C.D9.F).                                                                                                                                                                                                                              Mu.%C.&C.SO $( 5B.$A.*C.=C.%K ;].#{.FV _~.-C.e_.;C.>C.~y #H a,.!^.*].Z~.,C.'C.)C.!C.P/ ~C.eG {C.N! ]C.p{ ^C./C.(C._C.:C.<C.[C.}C.|C.1C.]/.hd.2C.he.3C.CY fe.|{.4C.N8 &K .H [> ZG v[ qF Sq Az gs aX a$.2C.6Q 5C.6C.7C.8C.9C.0C.aC.bC.g[.cC.dC.x' eC.fC.gC.hC.iC.jC.zk.kC.lC.hs /B t$.a*.Rm.!b.&@.0v ns ns `t Pq Pq Pq Pq ns 7@.Pq Ew 0< }v Qt Pq Dz /y <p 8' /y (y ns `t os 0< Wt Wt Ew I{.I{.^: FR FR ZS b< b< a< b< C .SO !y ,B rP !y UM rP ,B [n.M..]U b< M..+^ .^ f_.JC Mi.%) N..]U b< /2 JC G) G) mC.w[ CC gL hL gL CC (S hL G) D) BC {^.{^.~y @_ v` v` ;) H) bS bS ^^.8/.a[ i4.K9.bS ~y v` zC $H %~ %~  {. _ %: I%.Y> **. _ **.**.@H OC  _ nI l_.{3./^.Z<.Y<.a#.}E ",
"                                                                                                                                                                                                                                                                                                                                                                                                                                                                                                                                                                                                                                                                                                                           nC.Jt oC.pC.3+ .h _m.qC.#B.%B.Gs.(q.}4.[L 5# |w.o;.4y.6M bM kp.Bj ~2 mn >3.UY zT kL -9 }P NP Da.}P lI lI ~R ~R E` b'.rC.@X sC.tC.)R .X u$.+H Vb.Gt.uC.vC.K^ wC.xC.yC.zC.AC.BC.CC.Xc.DC.EC.WB.FC.GC.HC.IC.JC.ZB..C.KC.LC.@C.MC.NC.#t.LW                                                                                                                                                                                                                               OC.PC.QC.a,.CC M6.RC.SC.&}.TC..| 'u.+{.#}.UC.VC. ~ X~ &5 &5 IW `X 9@.RV )K 30 [o.10 wy.WC.XC.J{ YC.ZC.%w `C. D..D.#5 +D.@D.#D.$D.%D.&D.]A 2m gp GV 7..*D.)6.|{.Yd.kI &K AL |Z h7 BT qF qF <v *X ,-.D .X[.=D.-D.bX % .;D.>D.,D.'D.)D.I2.!D.~D.{D.]D.^D./D.(D.tk._D.:D.Pw <D.FR ^B ]B G` 0p Y..Z..`t ns ns Pq ^y `t `t Pq ^y ts ts Pq Cz 0< Pq }v 0' Az !B &*.Dz ]y Cz Wt Wt :p :p :p 6v %#.7v %#.C .a< b< f_.N..f_.f_.Mi.,B !y ,B zz gI ]E H) H) /2 Mi.Jz %) (B f_.=( (E M..g_.#^ #^ g_.%) Mi.%) WM Nt %( 7/.D) BC Nt WM w[ Nt WM {^.BC '[. ~ g) H) @_ 8/.d8.K9.K9.)[.^^.)[.[D.i4.x} x} zo.@_ a[ EV EV V~ yz J%.OC .( %: $H V~ $:  _ $H V~ @H Z] X}.N%./^.E7 l'.ai.7<.FV ",
"                                                                                                                                                                                                                                                                                                                                                                                                                                                                                                                                                                                                                                                                                                                        }D.Sl.|D.x*.1D.[g.1m.mW 5k rV No.*o.sV Ih.75.2D.(> 0M V2.~2 G1..1.{2.H* -}.*].'^.yh.:[.'^.,^.:[.mS ~R ~R ;N mS kI nL MT UV 3O 3D.4D.Va z|.]2 9@.1+.D|.#S LZ Oc.5D.6D.7D.8D.9D.0D.aD.bD.cD.dD.eD.fD.gD.hD.HC.iD.jD.kD.lD.mD.nD.oD.pD.qD.k'.                                                                                                                                                                                                                                 X^.KW ^1 hL Kw }W rD.=Z sD.tD.W] K%.T/ uD.vD.c=.yz E3 )O VM cS zC )R m3 wC h^ wD.xD.yD.zD.AD.{A BD.CD.T: DD.ED.FD.GD.HD.ID.JD.KD.LD.MD.ND.OD.GV ~B sz.eo.F#.,0.0-.,h M8 i7 h7 h7 FC pF 9' oF ZS 6Q ;j.nY y} la.3m PD.QD.RD.SD.TD.UD.VD.WD.XD.YD.{e.X' -5 ZD.Yo.^V 5v aX a< qF {B `t os |m ',.Cz Cz os ns ns Cz 0< Cz Pq os Pq 7@.ns 6v Wt M~.)B (y 4+.8' Dz (y Dz ]y 0< 0< Cz Cz :p I{.7v 7v ]U b< b< (B JC ]U i_.Aw UM ]E ,_ bS ]E ]E ,B UM `D.C .[V [n.>;.f_.a< ]U M..[n.g_.=( >;.@^ M..(B gL {y ^2 G) G) {^.Nt gL |B BC {^.w[ BC w[ $( 'E AC Q~ Q~ Q~ AC 8/.K9.a[ )< ;) K9. E.PC 'R i4.AC &~ V~ $: %: V~ #: Z] *d.X/ $: U] X/ V~ **.A} .E.;B X}.;B H> mL m,./~.j4.",
"                                                                                                                                                                                                                                                                                                                                                                                                                                                                                                                                                                                                                                                                                                                     +E.@E.#E.jB .F $E.G+ .R wP MF %E.&E..h *E.=E.W5.bM zM =R =R M. M. Xd.6, oO 0@.yL RV '^.yh.:[.f/.RV kI mS ;N mS nL +K +K M .J$.w} tC.-E.,_ w, ,E $) &p.H0.)e.UE ;E.>E.,E.'E.)E.!E.~E.{E.]E.^E./E.(E._E.:E.<E.[E.}E.|E.Vc.lD.1E.2E.3E.4E.Ru.E).                                                                                                                                                                                                                                 5E.z{.+X 6E.G) [V 7E.w1.8E.9E.0E.,u.#1 sy.$*.a-.2+.FV fL ZO gI ,B a[ ,B *-.BT ^S 0S q4.aE.Oa.bE.wz.cE.dE.eE.fE.gE.hE.iE.jE.kE.lE.mE.nE.ND.oE.8'.pE.Sn w;.v;.3 .Ga.tP w} <;. K AL EC EC %#.<v !y 9Q SO 9Q 3m .9.%j.qE.rE.sE.tE.uE.vE.wE.xE.0' :2 yE.wk.7'..u 7n.zE.Gn cs <v IC (y Pq St n).ms Wt Cz ns os Cz Cz Cz Wt 0< 0< Cz ns ns os Cz Cz <p 4+.!B /y (y Dz /y _y Cz Cz os os Wt I{.7v 7v a< ZS a< /2 (B ]U i_.Aw VM SO ~y '_ zz VM rP VM M..M..[n.[n.Mi.(B (B Mi.Mi.Mi.Mi.[n.=( =( N..a< G) hL '[.BC {^.BC WM Nt {^.BC 7/.w[ {^.{^.7/.BC bS ~y rP ,_ Q~ a[ ;) H) v` PC v` a[ '_ v` d8.8/.**.EV !<  _ !< Y> EV U]  {.U] !< V~ **.U] A} d[ &}.E7 a#./~.A> 7<.F> 9[ ",
"                                                                                                                                                                                                                                                                                                                                                                                                                                                                                                                                                                                                                                                                                                                     AE.BE.CE.*%.@e !C G+ :P RQ 5# fl.;n.mW DE.Z; SM M$.pL EE.z( 6, rQ 5, 26.#1 8+.zY YQ {..)^.)^.w#.C' :[.v#.nL nL +K +K +X 3 .J$.lT FE.GE.,_ i3 UP .J %C.HE.e] WU IE.JE.KE.LE.ME.NE.OE.DC.WB.PE.QE.RE._E.SE.TE.jA.UE.VE.WE.XE.1E.YE.ZE.`E.92. F.                                                                                                                                                                                                                                    .F.v#.R|.7/.C .X! +F.@F.#F.$F.%F.DT &F.*F.0-.YM -9 w$.e#.%*.0c hL IC Mi.@T =c.a< /1 =F.-F.;F.-q.>F.,F.'F.)F.!F.~F.{F.]F.^F./F.(F.|j.ND._F.8'.Qt ~B fX 4 .L4 ~g.mY k+.3O P:  K z, iL 7v oF cS Jd aS 6+.!y gI 8'.:F.<F.[F.}F.|F.3, *Z n).7@.HC Ua !B cs ls 5p )>.En Oq (y 0' .P /y 3v 1v Xt 6v os `t os Cz `t ns Wt :p 0< Cz os `t Pq ns Wt 0' )B /y ]y (y !B /y (y Wt Wt 0< Cz Wt 6v A!.^: hs [V ZS b< /2 f_.h_.h_.zz SO UM !y ]E SO IW ,_ /2 M..Mi.a< /2 #^ @^ N..N..Mi.Mi.Mi.M..[n.N../2 WM `> D) D) D) hL Nt gL CC D) D) D) 7/.BC WM gL rP bS ,B VM )< AC '_ ,_ v` +( 8/.8/.v` Q~ ,B )< !< V/ |=.|=.Z{ Z{ |=.V/ Z{ q'.V!.T^ i[ c-.V!.T^ 2=.a* ,!.8, 5@.FV F> H} ",
"                                                                                                                                                                                                                                                                                                                                                                                                                                                                                                                                                                                                                                                                                                                  1F.3X 2F.3F.(r.4F.}7.Zd 99.99.rf OX ]n.PN Kr rW @n.tT i..uP >3.J) }R }A.26.mI D3 -*.=].K%.+H )` lI yh.lI +K +K +K N8 'Y +K lT [>.3 .5F.6F.'_ 6E.L!.$) !<.^0.y_.5~ Sx.7F.8F.9F.0F.aF._B.bF.cF.dF.eF.fF.:E.gF.YB.hF.iF.Yz. C.jF.kF.lF.mF.`E.^w.nF.                                                                                                                                                                                                                                       /].u$.cS ]V =D.,> oF.pF.D6.kT i#.:*.qF.c0.kF 7, >R tF #P zz Bw Fw ^W Nw Gw |v is Nw mF &f.4x.H8 fM fT rF.sF.tF.uF.vF.wF.xF.yF.Vd zF.ND.%j.Cw r7.he.qY v;.a-.AF.90 h7 J{..Y +P `> gL `> ]: BT +P 9< `S !B #=.BF.CF.DF.EF.|v ^y es 9' :p WQ c:.Wt !..'>.qs <'.n).`t `t 4+./y @T 0Q 2v es %#.Cz `t Wt Wt `t `t :p 0< Cz Pq 7@.^y Cz os Pq Nt _y /y _y 4+.&*.)B (y Wt :p Wt Cz Cz 0< Cz ns @T FR EC EC @/.Kw f_.wk.[n.%) DC z, ac 48.(B JC JC N..M..Jz #^ g_.[n.[n.N..Mt Mt ]V h_.%) M..M..Nt UM CC {^.7/.`> BC BC {^.w[ G) WM {^.D) `> {y PC q5.;) rP @_ a[ ;) )[.Y/ AC '_ Y/ a[ AC v` **.J%.J%.#: Y{ $: U> a>.JW ~^. Y q'.JW <! |E o3 q'.m3 }E 7<.F> 8, H> X}.}E ",
"                                                                                                                                                                                                                                                                                                                                                                                                                                                                                                                                                                                                                                                                                                               FF.GF. $.3H nU HF.cl.BO IF.tf vA JF.&N yD.B).KF.!~.LF.[, S4 N[.2@.v#.>^.nS AY 3/.~R D3 MT N8 u#.kI e#.9@.I) ^1 Va e#.e#.I%.fL fL ,E .X zC IW {E ,E M .E` +X f^  1.VK 7[ =Y P^ MF.NF.hy.OF.PF.QF.RF.XB.PE.(E./E._E.SF.TF.UF.QF.VF.WF.XF.YF.sj.QC.ZF.                                                                                                                                                                                                                                       ho 6O tF /2 N..Mi.!p >B Z{ N  LP u#.U}.|<.8>.7>.e#.0c !y zz ,B hL (S oF Vt /y gs IC oF pF jI ,3.Dr.`F.L^ Ry  G.F< .G.+G.$I 3d.Vd &1.)B r7.r7.Nt.'O ~B he.pF '3.sU nF >N SO !y 0c .P q:..P .P 0' 4+.Dz <p GV g) @G.8' Bz <p FC ]y he.Dz c:.9p !..0p ,>.cs ^y Pq Pq Pq Pq `t ns Cz Wt :p 6v os Pq os os `t Cz ^: os ns ns os 0< 0< os `t Nt Nt (y /y !B 8' Dz 4+.)B ]y 0' )B <p /y (y /y @T Az #G.$G.%G.&G.z&.*G.^s.TO =G.-G.;G.>G.`0.Oj.|(.Jz |y <y Gi.(p >>.M../1 yz a,.`X u, Aw _B JC H)  , ,_ UM 8/.,B '_ cS VM VM bS ^^.^2 7/.|B %( a[  a.AC Q~ v` ,B v` )[.zC Y> V~ I%.E3 **.V~ Y> K9.K9. a.V~ K9.%~ #: %: [k.!< Y{ o) Z{ U> =*.S^ o3 &~ a,.$H d[ Z] %~ ~6.",
"                                                                                                                                                                                                                                                                                                                                                                                                                                                                                                                                                                                                                                                                                                            ,G.'G.<&.)G.)m.hE !G.td.[m.Ya.cl.s0.~G.{G.]G.KF.q/ }, [, PC.N[.B}.vC yh.nO }Y |P OU E_ {2 u#.3 .MT MT Va u$.^1 u$.Va e#. , sP sP sP .X .X .X ,E *-.*-.3 .zL D- g^ ^H jF fO [S +Z ^G./G.ky.OF.(G._G.:G.gD./E.eF.gD.<G.[G.}G.HC.IC._G.|G.1G.2G.>5 f/.(x.                                                                                                                                                                                                                                          7< e#.oF 1y _p 3G.h) d8.W}.4G..J 4O a[ ~y Q~ H)  X ]E ,B hI {y `> IC ]y _y 0' 0' ds 4p ^b.Rq w;.lK T} 5G.c).UN eN 6G.7G.EL xI v;.pE.Nt.'O b#.O~.pE.ln./B LC iN ac gI !y .P  X )y 7Z _y (y 0' /y _y )B 9'.G) 8G.Bz [Z fX :~.[Z  T Sq :p Z..|m 0v ^y ts ts ts `t `t `t os 0< Ew 6v 6v 0< Cz Cz Cz os os 0< :p os ns `t os Cz Cz ns Pq Az hL {y (y 4+.4+./y &*.)B (y _y /y !B /y /y )B s!.Kd 9G.0G.aG.bG.cG.dG.Yo.<y K~.eG.fG.gG.hG.Mj.1y BC |y [y #p.iG.$^ j) H) yz f#.z,. , %7.Xq.X[.DR `X zC )'.gI ,_ bS UM !y rP  X .T hL <v _y CC  X Bz 0c .T .T 0c '_ '_  , yz EV `X V~ sP U]  _ }B }B PC Y/ v` AC **..(  _ V~ Y{ Yw JW q'.~` jG.&~  _ #: U] %~ **.@H d[ ",
"                                                                                                                                                                                                                                                                                                                                                                                                                                                                                                                                                                                                                                                                                                            kG.lG.VL mG.nG.oG.pG.qG.rG.sG.tG.uG.aU :#.qK r3.2O YM U| ;N F%.M .UP rC.(3.vG.wG.xG.j] b'.u#.M .MT MT }> }> u$.Va e#.e#.Va u$.4O 4O ,E .X }Z .X ,E *-.P: 3 .N8 zT [*.N'.WK #R }C yG.zG.AG.BG.CG.DG.EG./B.DG.FG.GG.HG.hA.IG.JG.KG.LG.MG.NG.OG.t) >^.                                                                                                                                                                                                                                             <-.I).`S 8'.(: *X PG.zo.ZG XC 8>.BT AC @_ a[ '_ cS UM CC <v Bw {y Bw 0' _y ]y _y 0Q Bj.Zt Dz 5 .Rd QG.RG.SG.TG.UG.VG..Z i..c..[Z T{.4m 4m 'O O~.ln.K6.pm.w, >N +P v[ xU xU @P ^U <Z qF HC Sq ^B _y _y 8' <v WG.&*.)B GV <p /y Dz 4+.os ns `t Pq Pq Pq ^y ^y Pq ^y ^y `t Cz Wt :p :p `t 0< :p 0< Cz 0< 0< os os ns ns ns Cz Cz ns `t _y {y CC IC /y )B 8' <p 4+.!B /y Dz (y _y (y ER 7Z XG.ZG ]: z, 9' a< /U .{ YG.sP BT CT ^^.Jz _B (S Nt E) [y {'.[B rk.ZG.bS IW $K `, $}.1b.}2 `G. H..H.+H.@H.a[ [p !y zz zz .P U{ #H.$H.%H.$H.&H.*H.#H.=H.-H.;H.>H.Y/ cS J%.$H $: U] +_ V~ EV U] BC WM @_ ^^.H) ,_ $}.@H U] EV q'.o3 V!.|=.,H.rc.#: @H **.@H %: #:  {.Z] ",
"                                                                                                                                                                                                                                                                                                                                                                                                                                                                                                                                                                                                                                                                                                         'H.)H.!H.dR #8 %2 ~H.{H.R, ]H.A{ ^H./H.(H.Ei G! _) 8..c~ _H.j] K[.UV nP :H.<H.[H.}H.|H.j] u#.M .}> zL u#.zL zL Va e#.e#.e#.e#.e#.e#.e#.*-.,E .X .X ,E ,E P: P: N8 +K IP ]W |T WK C@.A7.1H.2H.3H.4H.5H.6H.7H.8H.9H.:z.0H.aH.bH.cH.dH.eH.fH.gH.hH.iH.!N                                                                                                                                                                                                                                                 2+.S] jH.*Z Rt Bw UM %*.![.kH.^S !y K9.^^. X gI ]E <v oF {y {y IC ]y (y _y _y Vt {U {U @T 9< z@.pX b} D6 lH./t.x- mH.DV AT 7Z [p <p O~.4m pE.c#.ln.pm.DC nH.9< +P 3W v[ xU f..&Z FC HC /B ]B HC ]y Dz ]y 'E )B 8' 8' _y !B !B &*.`t Pq ^y Pq ns os os `t Pq Pq ^y ^y Pq `t Cz 0< os Cz Wt Wt Wt Wt Cz ns os os ns os os os ns `t `> oF CC Nt IC Dz Bz /y /y !B )B _y 0' ]y _y Kd %[.oH.8c +9.Jj.Jj.vF 9c Pp.Id pH.qH.rH.T^ $}.IW SO zz JC F) sH.(p tH.&5 zz $H =].3+.8@.uH.vH.wH.xH.yH.zH.AH.BH.CH.ER 0c bS cS DH.EH.FH.GH.HH.IH.JH.KH.LH.MH.NH.OH.PH.,_ U] EV Y> sP $: $H V~ U]  a.^2 ^^.@_ bS Q~ J%. , **.!<  Y JW [! <! F- |E  {.!< #:  {.%~ @H %~ @H ",
"                                                                                                                                                                                                                                                                                                                                                                                                                                                                                                                                                                                                                                                                                                      QH.RH.SH.)= TH.P( UH.VH.WH.{+ XH.!, ]H.YH.ZH.`H.]) H` q] e^ 'h c~  I. I.A}.;O ;O .I.+I.;O $X 3O k+.ET x;.NP kI nL +K +K @X @X N8 C) 0S lT UP G#.,E ,E ,E .X e#.Va 0S C) YM A( |T rT VY Y] @I.}z.#I.$I.%I.&I.*I.=I.-I._z.;I.ey.>I.,I.'I.)I.!I.~I.{I.]I.+!.                                                                                                                                                                                                                                                )/.zo.+^ 9B z!.#] ]^.a[ gI SC.^I.Kd ~y VM `S 0c ]E 0' oF Bw Bw oF 0' _y _y 0< 7Q /I.(I.4v ]y ]B _I.:I.xZ <I.1(.[I.`G DR X..c' }I.&*.Qt B!.^y O~.O~.]B FC lS y-.jI g..F#.T$.S8 |V iI |/.2,.^B {B GC qF Sq EC HC <p )B Dz 9'.4v 0Q Pq Pq Pq `t os os ns `t `t ns ns `t ^y Pq Cz Ew 6v Cz ns Wt Ew 0< ns os Cz Cz Cz Cz Cz Cz os os hL <v Nt CC gL IC 8' )B 0' (y Dz _y ]y Dz Dz @T (I.|I.1I.`q.WO 2I.;;.C} 3I.1+.4I..t.5I.6I.{..3+.Va ,_ N..N..{'.(p %) /1 '_ Y> 'Y .J 7I.8I.9I.0I.;C.%: Rw.aI.bI.cI. a.gI ,_ !y zo.dI.eI.,q.,q.fI.gI.,q.,q.dI.hI.iI.jI.VM #: #: $H sP V~  {.>B :'  E.+( zo.8/.'_ Q~ !< **.&~ &~ T^ L9.[! Yw o) e, [k.+_ U] **.**.!< %~ #: ",
"                                                                                                                                                                                                                                                                                                                                                                                                                                                                                                                                                                                                                                                                                                      kI.lI.mI.nI.oI.pI.qI.rI.sI.tI.uI.vI.wI.xI.E! Fi $, f} Rm fo [*.n-.l] c{ _*.'=.yI.zI.AI.0~ 'h ET Da.aO }P Da.kI N8 @X +K +X +K @X C) 0S 0S .K UP *-.,E .X .X e#.e#.+X 0S zT o,.<-.+S [S !O BI.CI.DI.EI.FI.GI.HI._z.II.JI.KI.F!.LI.MI.NI.OI.7D.PI.QI.RI.ho                                                                                                                                                                                                                                                 )/.+T [V es Fw @^ 7z.}0.SI.zo.TI.8/.]E hI !y 0c 0c `> Az Az <v <v <v Az 0' 0< (y 9Q q:.@T Wt {,.UI.VI.WI.XI.YI.ZI.0v =c.6Q Rn `I.9'.M~.B!.ts T{.T{.~B O~.h3 RU C~.XM pK 6Z o^.S8 l%.2,.m=.c*.|/./B c*./B ~B ^B /y !B !B <p 0Q 3v `t Pq Pq Pq Pq Pq ^y ts Pq ns os ns `t ns 0< 6v 9' 0< ns Wt :p os ns Cz Wt Wt 0< 0< 0< 0< 0< 0< Az IC hL (S gL WM Az <p (y /y )B Dz Dz Dz (y gs  J..J.+J.s7.[m /U +9.YO 3I.&B.8u.y_.|l x_.M4 6/.'Y e#.rP N..|y <n.%) N..Q~ )O & .nI @J.#J.$J.;j.VM xz %J.V~ &J.*J.=J.`S VM !y cS ER cS .P ER DR .T .P -J.;J.>J.,J.]E )[.$}.J%.EV Y> #: %:  _ E3 PC d8.)[. a.;) bS $H **.&~ !< ~! V!.c-.JW V!.c-.A} E3 **.U] U] $: &~ $: ",
"                                                                                                                                                                                                                                                                                                                                                                                                                                                                                                                                                                                                                                                                                                   'J.)J.!J.K8.,8.~J.FO Z#.RL 6d.{J.]J.^J./J.ti.(J.,) e! (+.^e._J.KF.:J.j'.8u.j'.1P }l a{ LX b=.6%.U| aO AY }P Da.NP 3O k+.oL ET oL 3O w} <;.<;..K UP ,E .X }Z .X fL )R 0S 0S B].g^ 'K qT NV <! <J.%I.[J.}J.|J.1J.2J.3J.4J.^(.5J.6J.7J.vv.8J.9J.0J.aJ.bJ.a* 8M                                                                                                                                                                                                                                                 6O k%.(S Ez *Z Ez f_.(B >;.-) /2 +( UM ]y oF (y 0' IC /y 0' 0' :p :p :p Wt 0< _y +T +T /y `t N6.cJ.dJ.eJ.fJ.gJ.hJ.iJ.~w.Kn Ut jJ.M~.7@.GV GV )B 4+.he.HC kJ.lJ.DY $P ~K IZ =j.=j.l%.l%.-X -X pN qY .l.>=.2,.Sq /y 4+.3v 7Q 0Q 1,.!B !B !B !B 4+.<p ts ts Pq Pq `t ns os Cz Cz Cz 9' Ew Wt Wt Cz ns ns Cz :p :p :p :p Wt Wt Wt Wt 0' `> {y IC `> gL hL (y !B )B )B /y /y (y 0' (: UO mJ.ba.nJ.oJ.I{.aX pJ.qJ.7t.rJ.sJ.tJ.uJ.]H {|.N8 3 .~y M..|y 1y %) M..a[ U] I#.vJ.wJ.xJ.7z..9.v` >` $: yJ.zJ.AJ.BJ.U] bS UM VM UM ,B zz Q~ @_ Q~ cS CJ.MH.DJ.^^.!y q5.&~ @H $: **.**. {.%~  {.U{ Y/ ^^.K9.%: $H EV yz $: #: U] Z] <! }! B> [! @H %~ !< !< @H %:  _ &~ ",
"                                                                                                                                                                                                                                                                                                                                                                                                                                                                                                                                                                                                                                                                                                EJ.FJ.GJ.HJ.IJ.JJ.KJ.Y#.dG LJ.MJ.NJ.Ko.OJ.PJ.QJ.RJ.SJ.TJ.UJ.VJ.WJ.XJ.R'.YJ.ZJ.ZJ.Nb.^6 p-.uQ JU {R D- Da.J) NP NP U| x;.k+.oL ET oL tP 7 .if if  K G#..X ]2 ]2 .X tF CT lT mS <;.kL tQ U$.1T C> `J. K..K.+K.@K.#K.$K.%K.&K.*K.=K.-K.uj.;K.>K.,K.*u 'K.)K.7;.!K.                                                                                                                                                                                                                                                <l.nK _y Ez |v Y*.Y*./2 JC JC JC Q~ ,_ IC _y 0' Bw <v Dz <v 0' 0< Cz os Cz Wt :p 0' )B ^B Pq ca.~K.5m Xb.{K.]K.^K.{h.5p Fn 8v Qt ts ts 4+.[p 8' [p ~B /K.(K.sU _9.9Z PA./y.%;._K.P&.oN zi .l.:0.vZ .l.-X /#.2,.^B )B 8' 3v 4v [Q 4+.!B )B !B <p <p ^y Pq ns `t `t os Wt Wt os ^y 6v I{.I{.0< `t `t os Cz Ew Ew Ew Ew :p Wt :p :p {y hL Az IC Bw oF Nt (S Dz _y ]y (y /y Dz _y es :K.<K.[K.}K.|K.1K.gI XG.[].RX 2K.3K.4K.5K.3t N4 IP ET I) @_ [n.|y [n.=( @_ ~y ^S 6K.7K.8K.}B vF UM Y> )y 6+.9K.0K.aK.l, hI zz ~y a[ SO ,_ zz H) SO SO 'm bK.eI.DR a[ Q~ V~ U] %~  _ **.$H **.%~ @( W^  a.AC #: V~ #: Y> yz EV %~ X/  Y ~^.i[ JW d[ ._ E3 @H %: &~ Z]  _ ",
"                                                                                                                                                                                                                                                                                                                                                                                                                                                                                                                                                                                                                                                                                                cK.dK.eK.)z.k}.K^ vy.fK.A;.gK.hK.iK.H. jK.kK.lK.mK.nK.oK.pK.qK.rK.sK.T[.tK.uK.vK.KV KV v0 T!.{O kF mY U| tP k+.}R nO NP Da.tP <;.tP w} <;.<;.80 3 . K )Y {E ,E *-.y, CT ZQ +K 0S yh./> cs.1S yz.wK.xK.yK.zK.JI.%x.AK.BK.CK.DK.EK.FK.GK.HK.Df.IK.JK.KK.LK.JU                                                                                                                                                                                                                                                    wI nK ]y ds fs (: Ez b< C .]U (B oF e_._y _y <v /y <v oF Wt Cz os Cz Cz os ns ns N .us ws Nt.j3 MK.2v 2v H%.H%.H%.NK.NK.iJ.iJ.N6.ts GV [p /y <p [p H) OK..Y qY h] r> rN PK.{(.7x.n%.rN {K #X Ot.Ql.QK.h..h.. H '|.[Z /y /y 0Q [Q !B !B !B !B 4+.8' <p )B ns os os os os os 0< :p Wt 9' 7v :p `t ns Wt :p :p Ew 6v 6v 6v Ew Wt 0< Bw oF IC IC gL `> 0' Nt {y ]y Dz ]y 0' _y (y fs ^V `q RK.SK.TK.UK.7 .w&.VK.WK.XK.YK.ZK.`K. L.[C `n.f2 }V }Z '[.@^ M..#^ '_ Q~ &Z .L.+L.@L.|B bS %*.fL fL oI s$.#L.$L.%L.&Z )R {E ,E p/.c=.]2 %*.hI &L.UD.*L.SO '_ )< UM $H U] E3  _ $: EV $: X/ q5.@( $H $}.OC !< $: &~ Y> J%.@H  {.EV EV c-.[! l, A} Z] X/ **.#: @H @H ",
"                                                                                                                                                                                                                                                                                                                                                                                                                                                                                                                                                                                                                                                                                             =L.-L.1U ;L.>L.,L.'L.`6.hv.rB.S%.JV )H x(.y;.[[.C(..j r;.c+.IV )L.IV 0^.vu.B}.@Y W!./S yU -*.C' yL 0O aO D- k+.Da._S ]1 3/.}P x;.ET oL w} 7 .<;.if lT ZQ ]: y, ,E ,E {E y,  K 3 .&K N8 o,.:-.xL Y! !L.~L.{L.]L.R~.^L.5J./L.(L._L.zs ,! :L.U/ 7+.7+.<L.M}.[L.Rm                                                                                                                                                                                                                                                 c] mH.k%.(y ds es Xt Nw ZS b< C ./2 {y Az }L.4+.(y Dz _y _y Wt 0< 0< 0< os ns Cz :p |L.on.68.Yk.1a.UM 5+.;k.3v 3v St H%.NK.NK.1L.+r ts 8' /y [p &*.8' fI.i4.iO +P : .!K 2L.3L.4L.5L.Pd s#.6L.sN 7x.7L.8L.,N ;h l%..l.qY ^B Dz Dz /y )B !B !B )B !B <p 4+.)B Ew Wt Cz Cz 0< :p Ew Ew Cz 6v I{.Ew os ns Cz Wt 6v 6v ^: ^: ^: 6v Ew :p Bw IC Bw IC (S `> Az gL (S <v /y )B (y 0' ]y Vt fs Nn 9L.0L.aL.G* 9u.lP bL.cL.dL.eL.fL.gL.$6 hL.iL.T3.x;.LP bS N..>;.>;.,_ bS BT *7.jL.kL.}B ,B Va I) ^1 ZG G7.lL.mL.F0 dS fL )Y >N >N ]2  &.*-.8/.nL.oL.+( SO Q~ )< H) Y> !< %~ $: #: **. {.%~ PC d8. _  {.J%.Z] sP J%.#: V~ sP %~ $}.$: 1=.V!.@H $: **.$: !< &~ X/ %: ",
"                                                                                                                                                                                                                                                                                                                                                                                                                                                                                                                                                                                                                                                                                          pL.H-.qL.rL.sL.tL.uL.vL.] .wL.O] @Y O).y>.Z'.V! ;].^..a#.$K w$.2=.n:.n3 u$.$}.Y> U] **.)[.MC )[.-_ ,R {2 b'.u#.zL F%.}V &H a-.{2 b'.JT j] k] TP k] mO P: lT y, *-.,E *-.y, >N e#.Va &K N8 IP +N 3..Y! xL.yL.zL.AL.BL.CL.DL.EL.FL.GL.HL.IL.o) 8O :S k#.$m.a0.JL.p]                                                                                                                                                                                                                                                 d] KL.xU (y b' ds :p Ew <v oF ZS a< hL Dz LL.ML.4+.{y ^y ^: 0< 0< Wt 0< os ns Wt 9' NL.OL.`k.kO #P &c.PL.(9.9>.9>. P Pq ,>.QL.RL.1L.b#.O~._y Bz [p SL.TL.ER `X ZG |V |{.5Z UL.VL.AJ Ny.WL.!+.Z) >6 XL.!+.YL.ZL.n%.IZ DY  H ;r ;r DR +T DR DR +T !B 4+.4+.)B ]y 0' Ew :p Wt 0< Wt :p ^y ns Wt :p :p Wt :p Ew :p Ew Ew 6v 6v Ew :p :p ZS ZS a< [V ZS b< *X b< /2 /2 [V [Q 3v 7Q @T /y XM =X &X !K :f.;0.`L.^P ;g. M..M.+M.@M.#M.$M.jV {@ {q.+|.MP 82.G) (B JC '_ VM 4O %M.&M.h3.$H.+T e#.f#.v$.,b.mk *M.=M.-M.^S %H Va )R y, y, %*.k%.-H.TD.;M.`S '_ ,B )[.'R `X $}.V~ !< !< Y> yz  {.$: @H  _ $: U] !< U] $H $: EV $}.**.!< #: J%.!< :' E3 %: >B A} J%.V~ [k.",
"                                                                                                                                                                                                                                                                                                                                                                                                                                                                                                                                                                                                                                                                                       >M.,M.bQ Au.'M.d+.i@.!|.Vb. |.8*.Y{ sc.Y{ V/ a>.Y^ 1=.M)..Y k%.w, #P 48.<*.{y hL Cp.CC Lw }y j3 B, B, w[ %*.u#.MT {2 MP MP MP @}.{2 {2 2/.t@.g! g! g! TM 3 .P: *-.,E ,E *-.{E y, e#.)R SV +K o,.kL O. e, )M.!M.~M.{M.]M.^M./M.(M._M.:M.0) x1.b@.<M.gO JU 5/.[M.}M.|M.                                                                                                                                                                                                                                                1M.2M.nF ]y b' ds Wt Wt 0' Az [V FR <v Az <v 3M.hL <p :p 0< Cz Cz 0< 0< os ns Wt )..Qm.$r $j.>_ 4M.&1.Y'.5M.Rc.9>. P !B ,>.QL.RL.QL.b#.T{.Bz 4+.6M.7M.ER !y `X IW ^U |V 90 q@.8M.9M.0M./t.aM.z .Pt.Jl.bM.Yw.cM.dM.sN &d.h..qY  H ;r ER +T +T +T /y !B !B )B 8' _y 9' 9' :p ns ns Cz ^y `t os Cz :p I{.I{.:p 0< 0< :p Ew Ew Ew :p Wt a< ZS b< [V [V b< [V ZS C .JC f_.*X 4v =c.[Q Dz jI !K {: -F.eM.fM.gM.hM.iM.jM.kM.lM.mM.nM.oM.pM.qM.rM.ff.Wa p/.k3 M..>;.SO H) A .W6.sM.tM.uM.V^ e#.as $) D1.vM.wM.wM.xM.&Z dS & .Va p/.]: .Y -_ yM.zM.V^ '_ ,_ AC  E.)[.%~ #: a,.U] +_ @H EV %~ **.X/ &~ U] d[ %: %~  _ $: **.**.U] %: EV $}.V~ X/ Z]  _ E3 %~ #: U] Z] ",
"                                                                                                                                                                                                                                                                                                                                                                                                                                                                                                                                                                                                                                                                                       }!.AM.Du.q^.D3 FW |> 0>._2 8@.qD.;d.Rd.Rd.8c Y> sc.)'.I%./B jL BM.Sq iT ~_.N .WQ vU 6v ]S A!.!..]S /: A, 48.{E }Z %*.c=.%*.-_ '3.CM.=_ _E =_ RU RU lS sF }> }> 1/.L!..X .X .X ,E %H oI &K N8 v#.f/.kF F> DM.EM.FM.GM.HM.IM.JM.KM.LM.,E.<2 !3.mT q#.f3 fO `M MM.NM.OM.                                                                                                                                                                                                                                                PM.Ys.nK _y b' b' _y _y _y ]y Kd hI <v 0' Dz {^.58.8' Mw Pq os ns os Cz os os |m Z..|m ss c#.QM.RM.6].:~.p:.[`  T  P !B Pq ,>.H%.,>.b#./B [p G) SM.:v (2 ]^.xe.xz %H P: x;.0-.nE.an.TM.UM.au.YZ @, VM.WM.x{.#3.+w.XM.z- _-.HP HP : .@P .T .T .T .T +T )B /y 8' Dz ^: 9' 6v 0< ap 0v ns 0< os Pq 0< 7v 9' Cz Cz Wt Ew 6v ^: 6v Ew :p C .a< /2 ZS FR C .a< a< a< ]U f_.C .@T =c.=c./y 2,. H AT m'.YM.mK.ZM.`M. N..N.+N.@N.#N.$N.%N.&N.*N.R/.ci.b$.d:.bS N..C .k3 @_ R|.5O =N.-N.;N.>N.f0.8. ,N.'N.)N.!N.vM.kH.&Z )R fL )R !R oI &Z kH.~N.{N.VM Y/ ^^.AC H) ;) **.X/ &~ %~ A} E3 V~ V~ V~ !< &~ **.%: :' yz $: @H Z] #: @H Y> $:  , J%.U] &~ %~  {.Z] >B  _ %~ ",
"                                                                                                                                                                                                                                                                                                                                                                                                                                                                                                                                                                                                                                                                                    ]N.^N.tT q+..H h3 iO {E {y oF G) a< a< h4.y} v` zo.J%.mF nK FC GC FC FC /B ~B Qq K6.t$.Cz 0< Cz Pq Pq |v Cz <v nF +P .Y .Y #P y, ]2 RU 1/.$*.}=.}=.=_ CM._E MP MP _E kN A .A .]2 ]2 tF oI lT 0S C) D' q+.nI /N.(N._N.:N.<N.KM.[N.}N.|N.1N.2N.;].DU JU 4T #R @J 3N.dv.4N.                                                                                                                                                                                                                                                5N.Ys.;r !B 1v |v Dz Dz Dz (y .P `S <v <v <v GV VC /! }v 6v os `t Pq os Cz os ap 0p (: |v (V 6N.[v O~.{B Sq ]B {B !B Pq Pq St St St <p 0'.4+.7N.8N.9Q h_.&5 yE.bf.>` BT ~R k+.l] g] Bj 9N.V5.au.0N.Fw.aN.m/ bN.cN.bM.!+.` .IZ IZ : .k%.ER .T ER ER .T Dz (y (y /y `t os Wt Wt ap ap.Pq os `t ts os 9' %#.Ew 0< Wt Ew 6v Ew :p Wt 0< b< *X a< ZS *X a< a< a< ZS FR ZS C .b< *X 0Q 4v Cz Cz ]y  T n:.D/.dN.eN.fN.gN.hN.iN.jN.kN.lN.mN.nN.oN.jp.+K &_ Q~ ]U M..BC <v $*.CM..Y pN.qN.rN.sN.tN.Eo.l,.* .uN.vN.;> BT 4O AT )R tF E' dS f0.wN.xN.hI zz bS v` ,_ ~y I%.U] %~  _ +_ @H EV $H #: $: %~ $: U] *d.>B Y> X/ Z] $: U] EV %: **.**.yz yz yz EV $: @H  {.E3 ",
"                                                                                                                                                                                                                                                                                                                                                                                                                                                                                                                                                                                                                                                                                    yN.E  D- nN A@.qP z, ]B N .^: ns Ew _0.IC (y &' u(.+P LT ]: >N k%.g..h3 jI =X sU xU iO nK xU nK `S .P (y Dz 0' ]y (y Dz ^B HC /B Sq z, Rq VV zN.zN.<R AN.sy.}V }V BN.}=.A .]2 ]2 }Z }Z tF fL n3 SV SV +N '` f[ CN.DN.=m =m =m LM.EN.FN.cy >d.N{ 8,.E%.4T 0J v} Me.'t.GN.                                                                                                                                                                                                                                                   d..[Z 4+.`t `t )B )B [Z ;r 9< iO /y 0' 4+.IC A, HN.6v :p os `t Pq os |m |m 0p |v Ut jJ.Xq.^W Pq Hn IN.qm.av av ,>.Pq St 3v 3v 3v !B t7.}W JN.y} ]V .{ =9.;d.KN.IW CT N8 mS 7 .K) hS i{ LN.MN.h' NN.ON.~M PN.mG QN.vJ z- e0 Ai mK &Z :2 .T ER .P .P (y _y 0' /y ts ts `t os 0v N6.ts ts ^y Pq Pq os Ew 9' 6v 6v Ew :p Wt 0< Cz os b< 7Q FR ZS *X ZS a< b< FR FR FR a< ]U ]U [V U{.RN.SN.TN.$u N: r2.F. UN.lJ VN.WN.XN.YN.ZN.`N. O..O.qc r3.KP yC @_ /2 =( k3 }B UP RU u(.A .1a.Z! <c.E7 $K J).7<.+O.@O.8;.dS )R ^S Va e#.aS %_ #O.$O.U{ hI ,_ bS zz ,B Q~  _ V~ $}.U] +_ Z] &~ %: $:  _ %~  _ d[ Z] %O. _ Z]  _ Z] @H !< $: &~  {.IW EV **.J%.Y> &~ ._ ._ ",
"                                                                                                                                                                                                                                                                                                                                                                                                                                                                                                                                                                                                                                                                                 &O.)h Wa CT >N +].8Z >&.8Z a*.@r @r C9.~_.u` 2,.*O.Yd.n! qN !6 b$.#].&K #].E- SV b$. K &Z ZG ZG E' >` >` hI `S IC <v Az qF qF 2,.`G pY >=.Y].1(.H#.68.|0.=O.-O.Z> p/.,R ]2 U+..X ]2 ]2 ]2 *-..X ZQ [> &K 80 7,  _ ;O.>O.,O.'O.)O.!O.n2 ~O.R^ F- j_.EU sT WK YP UK bt.ux                                                                                                                                                                                                                                                       mH.5 .]B ^y Pq Pq ^y ^y {B HC ^B Dz Dz <v Az Cz !6.{O.}v ns `t `t os |m |m |m ds ]O.`I.+' -( Jp.Z..Y..^O.!b.!b.0v ,>.St 3v 3v 6Q 9'./O.7N.]E ^^.,_ 7' /1 .9.i_.SO Jd e#.nL kI zT :Y LX c1.pp.(O.!M ea._O.:O.<O.Hl.[O.$>.V8 z- Ai : .iO 9< @P k%.@P @P `S k%.`S _y /y ^y ^y 0v |m `t ts Pq os ts Qt ts I{.Mw %#.I{.Ew Wt 0< 0< 0< ),.@T ZS /2 ZS b< /2 f_.[V /2 ]U a< C .JC C .8v }O.|O.1O.2O.vs C~.3O.4O.5O.$< 6O.7O.8O.9O.0O.aO.-t.6< [*.N8 c=.,_ @^ #^ 7/.@_ d:.y, .X v[ #P 82.uF 9@.dS |> bO.cO.29 uF fL E' 4O fL l3 [` F0 dO.eO.rP bS rP VM VM ,_ SO @_ %: ~6.Z] E3  _ E3 U] $}.!< U] d[ l, d[ d[ .( Z] d[ d[ [k.EV V~ EV **.V~ zC Y> &~ %: #: !< E3 ",
"                                                                                                                                                                                                                                                                                                                                                                                                                                                                                                                                                                                                                                                                                 r2.-_ !y <Z `S Az Nw es Wt tU us &j.nP =^.fO.gO.hO._) i' ]) vJ $r.40 zT KP 6O B].:[.N8 |> |> tF Va nF v[ .Y .Y !y ]E FC pF g..pN f7 &d.7L.da.iO.*^.$u c$.jO.kO.V+.E) Cp.D) !6.7/.~E z|.+}.L!.sF TM i+.g3 `%.D- O8 lO.yR mO.nO.oO.pO.qO.rO.BY QW u>.sO.tO.== .` uO.vO.wO.                                                                                                                                                                                                                                                      xO.mH.z-.Pq H%.NK.NK.NK.0v av `t Nw 2v |v b' ds Oq yO.zO.B!.ns 0v ap 0p 0p AO.0p ds 0Q 5b.Uh.ps <'.rs Ln Ln ps H%.Ln Pq )B )B /y 1,.BO.1B ]E ,E e#.{E .Y SO gL .^ k3  X LP X> d#.'Y v$.,^.:[.i..k^ XM.r!.L*.H! H! L*.CO.=f.$>.ka.QK.h..qY g..6 .{: gN &Z : .aS ;r ;r {B +].^y ns Pq Pq Pq ^y 7@.B!.B!.B!.Ew 7v 7v 0< `t Wt Ew 0< _p Nw Ez Fw Xt Xt Fw _p ZS b< FR [V C .f_.C .IC 'O N .a*.0v :p IC ZG !=.DO.EO.FO.GO.HO.IO.Gi Fi ET  K y, d:.'[.{^.bS )< '_ IW I%.$: JO.KO.+_ E' 7>.{2 .K [> LO.MO.NO.qY UP oK UP g..RU >=.OO.{4.@G.]y {y k3 {y (S gL '_ ]E AC PC W^ SC.[D.Y/ SO $: **.@H sP >B +_ %: d[ A} OC #: .E.[k.yz Y> a,.$: sP IW %: !< V~ $H V~ ",
"                                                                                                                                                                                                                                                                                                                                                                                                                                                                                                                                                                                                                                                                                 }<.[n.a< ER `S FR js ^W `t Sq Ld PO.L: {(.QO.RO.SO.X* k6.TO.;t.eo io {[ |*.m;.U} g^ o,.lI @X .H lT h7 UP sU ]: #P )Y .Y B .l! IZ ka.!+.UO.X=.{(.f7 TQ 5m VO.WO.Zq dv Ez Fw *Z Hz 6E.6E.T}.x, /Y UV k] TP b~ Da.kF XO.|1 p6 YO.ZO.=-.`O. P.Wp.2]..P.4(.+P.@P.{ .(..G_.ec.                                                                                                                                                                                                                                                         #P.!d.{B H%.{K.$P.{K.QL.av `t cs Tt fs Xt cs (: 6v %P.I{.B!.ap 0p ,>.0v c$.ap Ew )B !,.Ez ~w.);.ls ~w.qs  u <'.Ln Pq Pq ~B 4+.[p *: &P.yz )R L4 lS -_ pF k3 *) /2 SO I%.)R =].J%.U] |=.2+.$].jf A- Y) `) `) %i y].Z) CO.XM.(#.f7 *P..l.WV WV R8 +J c..m-.c..aS mF /B {B ts 7@.ts ^y ^y ts M~.B!.B!.B!.Pq :p 6v os ^y ns Wt Wt ZX ms Nw Fw (: (: _p *Z gs ZS ZS FR a< b< b< (S >=.{i.us ds Jn 10.jL S8 }b.=P.-P.;P.>P.,P.'P.)P.G#.hL hL G) BC BC ~y bS a,.zC IW !< !P.~P.M7.]w.,|.B .1/.{P.]P.^P./P.sU LT sU UP UP 1/.sU 8B.(P._P.!B hL Nt (S WM Nt Bw rP H) @_ 8/.q5.@( M7 ^^.a,. _ A} U] !< %: @H Z] X/ *d.Z] $}.+_ E3 %~ **.!< &~ $H J%.J%. _ A} !< ",
"                                                                                                                                                                                                                                                                                                                                                                                                                                                                                                                                                                                                                                                                              :P.[> ]U hs gI gI St qs y).Ua $*.rN JZ lm.<P.[P. e.@; }P.|G |P.rg.zW u} i{ p; MN n>. S c1.!h l+.k+.<;.if |` g3 lT |Z J{.h7 ZQ 90 L8 }>.^@.*i }k )+.q@.N: a' 1P.RN.);.1v |v ds 6v A, iN z|.jO ~E lS $*.UV /Y |` Da.2].2P.3P.4P.5P.6P.7P.8P.qF.k8.M'.IV 7=.9P.0P.=` KV }9.1g.                                                                                                                                                                                                                                                         ;6 Bi sY Pq H%.H%.,>.Pq {B ]B ds 8v 2v |v b' *Z 6_.aP.bP.Cz 6v `t 0p |m ss 0v M~.gL cP.*Z H%.&#.xs In Ln <'.'>.',.ns ^y HC /B [p +T dP.W'.lT g#.|Z )Y U+.(S =( Mi.'_ Y> {}.$) ~^.~! >) mS <l.wI eP.Hl.um.fP.I! l/ Z) CO.(#.(#.gP.T8 .l.WV WV R8 +J c..;^.+J &Z <Z qF ^B c#.pE.M~.7@.7@.M~.B!.B!.B!.B!.B!.Pq Cz os Pq Pq os Wt Xt es Nw Fw Nw Nw _p _p [V b< /2 /2 /2 b< C .G) .K ;r Pq 8v 9v 3:.Az T$.hP.iP.jP.kP.lP.mP.nP.d~ >N Nt Nt gL Nt D) bS ,_ '_ ,_ V~ xz oP.pP.qP.rP.sP.tP.uP.jL.vP.wP.6]..X #P ]: +P *-.#P R|.xP.+L.yP._y Nt (S WM (S WM G) bS @_ v` )< '_ K9.zo.i4.#: ./ ._  _ U]  _ $: yz Y>  {.Z] X/ %: ~6.+_ V~  {.@H Y> @H @H @H !< %~ ",
"                                                                                                                                                                                                                                                                                                                                                                                                                                                                                                                                                                                                                                                                              fn.h7 7Q 3v cS  P Xt H%.^: zP.AP.ZZ A& ,i.BP.TL CP.DP.EP.Z0 FP.fE.GP.<m.HP.C{ t= IP.ZJ Hr ^) v/ wM ~q '[ o! c~ ET tP ;9 j7 P8 M8 lf f! ~w aZ IX JP.KP.f.._y dv LP.'>.1v 2v 1v 0< ^: z, ac w, jO =_ kN L!.PO.|` JT U| &}.MP.NP.OP.xL.PP.+] QP.Ga.W  RP.7=.SP.TP.Y6.5>.`e.]C                                                                                                                                                                                                                                                          UP.pX pK {B Pq St Pq !B  T  T Vt Yt Xt b' 1v 2v ^W y).*( VP.B!.`t 0v ,>.Z..os Bz '[.WP.cs 28.n).av.Bj.',.Ln rs ps Pq Pq +].O~.oY W6.6 .l2.v>.m-.mS oI SO 'E `D.M..)[.d:.MT nL !^.n:.7, +N Rd Sd Pt.XP.B3.vm.YP.L*.Y) $>.sN sN gP.fO.pN WV R8 ~: m-.+J m-.+J <Z fI FC GC b#.ln.B!.B!.B!.B!.B!.B!.B!.B!.B!.ts ns 0< Cz ns ns Cz Xt fs Ez ^W Nw Nw Fw Nw b< /2 ]U f_.JC C .b< CC A .y, 2v fp K!.+J.0Q nK ~K Y) ZP.un.`P.u/ L8 6 .#P WM WM (S hL BC H) ~y ,B bS Jd yz #H dg.qP. Q..Q.+Q.(P.@Q.#Q.)Y {E @P xU )Y .Y *-.k%.Pb.xP.+L.8G.(S G) gL WM hL G) $( a[ ~y )< ,_ ~y ^^.@_ Q~ V~ >B &~ Z]  {.~6.E3  ,  _ %~ EV d[ %~ Z] l, EV V~ &~ $: %: !< U] EV U] ",
"                                                                                                                                                                                                                                                                                                                                                                                                                                                                                                                                                                                                                                                                              n] 6 .[V hs `S .T St Cz ]B t@.WL.$Q.%Q.Dr &Q.*Q.=Q.-Q.;Q.>Q.,Q.'Q.hg.2) A= )Q.!Q.!Q.~Q.Y- &, Fl.u- um.c} &,.(*.r] w&.&].{Q.{Q.Rd ]Q.^Q.uJ &8.cO {w /Q.wC DR Gi.^t.2v Pq Pq `t os os /B /B Rq ac ]2 %*.c=.}=.CM.jS 2/.r8.8W (Q._Q.*[.:Q.H3.;C.E7 d(.9(.IV <Q.[Q.D,.9^.qB..Z                                                                                                                                                                                                                                                             }Q.&- _ .!B !B !B  P [` [` 4v |v Yt 8v Rt Xt es *Z Rt E) |Q.*Z cs |v Qt `t /y Px.-( 6_.Oq 1v <'.Ln ps ps Pq ts 7@.Pq HC ]B y-.6 .1Q.<Q 8].ip.-F.3+.@_ P6..^ M..;) d:.g! D- +K yh.zT p/ n;.D6 2Q.!M n' wm.<O.Hl.=f.X=.` .` .Pa r@.f7 mP mK mK mN mN m-.m-.{: gN c*.HZ F` us B!.B!.}v }v }v B!.B!.B!.M~.M~.Pq 0< :p 0< ns `t Xt fs Nw Fw (: Nw Ez Xt Fw Fw ZS /2 N..]U ZS {y {E rP (: |,.P0.7'.3Q.ER _ .hu.Jy.X=.6n.HP )R +T <v hL gL {y {y CC '_ ~y zz rP )O _2 I%.zC %~ Rw.4Q.5Q.SI.)[. P Q~ hI SO 0c gI Kd ~y VM H) CH.U{ k3 (S BC CC hL {^.D) 7/.)< ]E zz rP ~y H) ,B ~y Y> !< @H X/ @H !<  _ @H yz &~ @H EV &~  {.l,  _ $: Z]  {. {.$H $}.J%. {.",
"                                                                                                                                                                                                                                                                                                                                                                                                                                                                                                                                                                                                                                                                              6Q.gN JC gs ip ,E Wt Qq pN 8..W=./w.CE.FP.;g.`7 7Q.8Q.9Q.|x.0Q.aQ.L| {+ bQ.R, cQ.y= ^H.dQ.dQ.eQ.y; u= q~.Fi *i q! ., #) (].40 T3.-_.3t {t.fQ.gQ.]w <k.hQ.ZO 3Q.is 2v ^y ^y `t os ns {B {B {B GC v[ ,E  &.MC u(.sy.~i.*_ iQ.jQ.kQ.lQ.mQ.nQ.`} U/ oQ.j_.wL.d<.D,.o-.pQ.qQ.CP                                                                                                                                                                                                                                                             M) rQ._ . T !B !B  P [`  P [Q 2v U{.Tt ds Fw b' Fw b' Qt sQ.tQ.|Q.*) Cp.ns GV WG.|v 2v Rt 2v rs %u In ps ns ns os ^y T{.kO *j.Z0.uQ.J1.%M 4{.*= vQ.U] &5 Jz '[.c=.}a.Y` !=.x;.kF p/ |*.pf X8 #,.Qp.w{.hn.ON._O.Jl.!+.%;.` .f7 :0.IZ mP mK R8 ,h mN m-.i7 6 .|V >=.|/.F` us 7@.M~.B!.}v B!.B!.B!.B!.B!.}v M~.`t Wt Wt os Pq es es (: Nw (: Ez Fw (: Nw Nw [V b< JC f_.a< ZS ]: !y 5b.[y 7'.9v Yt [Q  T T$.HP if 5 .9< 9Q a< _y IC `> Bw IC `> zz rP SO ]E `X $H )O )y 6+.#H `S .T  P hI )< ]E !y hI !y ]E VM rP hI `S ER `S <v Bw G) w[ Nt D) gL G) bS SO ,_ '_ ,B zz '_ )[.#: $H **. {.%~ !< d[ :' %: A} #m.Z] %: &~ **.U] U] !< EV $: yz IW sP $: ",
"                                                                                                                                                                                                                                                                                                                                                                                                                                                                                                                                                                                                                                                                              wQ.gN ZS 4v 'B y, /B HZ 5Z xQ.W9.yQ.zQ.AQ.BQ.CQ.DQ.EQ.O& FQ.Uv GQ.HQ.IQ.IQ.JQ.KQ.LQ.MQ.NQ.NQ.^n.OQ.>n.&e.]2.4P cM VK qT ~=.p-. S go eo PQ.QQ.0B.RQ.af =}.9>.SQ.,;.Wt F` K6.us ^B ]B {B {B 4+.)B ER gI rP a[ 8/.CM.TQ.UV UQ.VQ.WQ.XQ.T0.US YQ.ZQ.`Q.g:.g@.g@.K  Jq  R..R.+R.                                                                                                                                                                                                                                                               K8 ,3. T !B 3v 3v !B !B Dw 2v fs es Zt Y+.<V Jn Zt Gw _'.Xt gs [n.%) N..$f.@R.E) St b' es es 2v Cz ns Cw 7@.|0.'O O~.kO qN Ir.JZ KF R!.)/.#R.Y] Jd xe.1B ~y 82.=_ 2Z 6%.J) f^ p/ f] ^A N|.K, u^ $R.%R.ON._O.Jl.X=.Ot.&d.&d.#X IZ j+.jf Z0.,h $].~: $].!6 !K jI jI |/.{B ^y 7@.B!.B!.B!.B!.B!.}v }v }v }v M~.Pq Cz os Pq es es Xt Xt fs Ez ^W (: Nw _p _p _p f_.f_./2 /2 y, ]E |y [B dG.P0.js 0Q gI mF h7 E' zz h4.10.~'.hs Az {y (S {y oF `> CC ,_ bS H) Q~ bS ,B )< rP cS ,_ zz rP gI  X VM `S ]E gI UM rP ,B bS UM rP WM gL G) w[ WM hL gL 7/.a[ )< ,_ '_ '_ Q~ )[.)[.$H sP J%.$H E3 ~6..( #m.#m.Z] ~6.B} l, (y.B} ./ EV $: EV $H $}.#: V~  , ",
"                                                                                                                                                                                                                                                                                                                                                                                                                                                                                                                                                                                                                                                                              &R.|Z 7Q hs VM >E C~.h] :k (m.*R.)G.}t.AQ.=R.-R.;R.>R.,R.'R.)R.!R.~R.{R.]R.^R./R.LQ.(R.BP._R.tg.:R.rV Li zA 0} 0J [S wL WR xL ei.VG Kr <R.[R.}R.e'.<e.Q8 :2 -j.=r IC t$.us K6.]B ~B +].+].8' !B  P 5+..P ,B ^^.y1.^Y PO.|R.1R.2R.3R.4R.5R.6R.7R.]' /..XX )*.NW B$.d/.s4.                                                                                                                                                                                                                                                                  K8 ,3.3W Pq St St Pq Pq |v cs Dw 1v ds Tt Kn Yt <V [p 1y *Z Vt 7Q (B FR Yq.Uh.2v ),._'._p -( *Z B!.Wt 0< Cz G` 4m iT 8R.$;.<T zM ^) 9R./` 0R.aR.|=.8c  ] ,B -_ t@.Y` 'h 6%.j^ 9o.bR.F, cR.]p.dR.~k ,p.eR.!M nm.A- #X ~K ~K ~K IZ m%.!: FP ,h mK mK ~: !K !K =X =X |/.38.b#.ts M~.B!.B!.B!.B!.}v B!.M~.}v Cw M~.`t os `t fs es Xt fs es Nw ^W (: Nw Y*.F) _p C ./2 /2 gL *-.)Y Ew _p fR.gR.*r |v (y +T ]: ZO y} ZS Gw s7.FR oF (S CC gL oF {y D) ,_ ~y '_ ^^.rP @_ ]E '_ '_ !y VM ]E ]E `S gI !y hI `S !y ,_ VM zz ]E SO WM BC 7/.hL (S gL w[ D) ~y v` a[ ;) ,_ ~y PC PC V~ $H **.Y> #: E3 @H %: .( hR.~< .( `( .( ./ #m.l, U] sP Z]  _ @H !<  {.",
"                                                                                                                                                                                                                                                                                                                                                                                                                                                                                                                                                                                                                                                                              a} 6 .0Q [n.bS |V |{.7].iR.jR.kR.OQ Sl.lR.Hf tq.mR.nR.oR.pR.qR.rR.sR.tR.uR.vR.wR./a.xR.yR.zR.sG.PM AR.%= BR.8M }@.f3 q$.s0 L#.uP K#.l& Z` 9J m}.Oa.!].On.7Z (I.1V Dz ^B ^B ~B t7.+].)B <p 8' !B /y /y +T Kd VM d:.z).![ Iz CR.DR.ER.{>.FR.GR.HR.IR.JR.k#.f@.H).#{.KR.5{.                                                                                                                                                                                                                                                                  3c d..@P Pq Ln %@.+r ap `t !B !B [Q 1v 2v qs Bj.gR.av.[m is hs Vt  X !B Rt Ez ^W Dw /y )B /y <p ^B +].z|.<*.F` Nt.c:.LR.MR.NR.C_ bM  R 7u.`M  |.OR.Y{ #H Y> g2 W> ld.C|.!=.Ce.|;.vx Rl ~- Xl xl.PR.QR.y{ RR.XP.A- _-.oN m%.IZ _-.q@.Z0.e0 Ai e0 ~[ xI HP S8 -X -X -X HZ 'O ts 7@.B!.}v B!.B!.M~.B!.}v B!.M~.}v Cw ts :p @T gs [V [V (: Nw (: fs (: Nw Nw F) _p _p Nw `> >N ]: WQ I{.m).Cc.Fw `t ]y `S DR  P *X b< <V s7.b< <v IC hL (S Az <v hL Nt Nt zz rP ~y ~y zz !y N..b< FR ZS a< /2 ]U a< gs [V [V *X b< C .a< ZS hL (S hL WM BC 7/.7/.7/.H) '_ )< AC ;) ;) a[ )[.;) a[ 8/.a[ rP Y/ +( 8/. a.d8.TL.z  S] x} T] +( +_ **.U] %: !< Y> Y> V~ ",
"                                                                                                                                                                                                                                                                                                                                                                                                                                                                                                                                                                                                                                                                              SR.z-.M..ZS .T 6 .<Q }~.TR.UR.VR.I-.WR.XR.YR.ZR.`R. S..S.+S.W>.@S.$= #S.nU oU lB ]r.$S.%S.Gk.C& &S.5~ fN %O |T ho LX i..i..TV 'h C|.5d.IT rL JX U$.*S.=S.'B lC.-S._y /B Sq GC +].T{.4+.)B Bz GV <p <p 'B DR hI #P CM./P.!6.$/ ;S.>S.,S.'S.)S.!S.~S.W! m3 l'.|E {S.]S.~!.                                                                                                                                                                                                                                                                     2M.eo.ns ,>.,>.^O.+u /B 4+.&*.8' 2v 1v av.av.En  u $#.Fz *X gs 0c Az ^W b' Ez Nw 4+.<p _y 8' Sq {B ]B O~.c#.WQ c#.|/.^S./S.(S.W) c1.pT _S.~|.= .:S.a,.CT h7 2/.OU g{ R8 ~: <S.Ol [S.w{ Q| }S.!, f1.|S.1S.XP.2S.&d.m! rN IZ &d.mP jf e0 Ai xI jf Ai HP |{.h...l.l%.jI ~B ts 7@.M~.B!.B!.B!.M~.M~.}v B!.M~.}v Cw ts 0< FR *X hs @T es (: Ez Fw Ez ^W ^W _'._'.F) ),.7v FC A@.~_.BM.3S.Qw I{.0< _y ]y ER .T *X ZS y&.*Z I{.<v oF {y Bw Az <v (S (S (S SO SO zz rP ~y '_ N..C .FR FR FR a< b< *X C .ZS ZS b< ]U f_.]U C .Bw (S WM BC {^.BC G) G) '_ bS bS '_ '_ H) Q~ ^^.'_ a[ ^^.AC H) U{ 'R 'R M7 d8.zo.4S.T] jI.0[ 4S.~6.Z] %: %~ A} E3 U] **.",
"                                                                                                                                                                                                                                                                                                                                                                                                                                                                                                                                                                                                                                                                              rX L4 gs ZS gI E- r$.z8.Y1.5S.6S.2h 7S.8S.9S.0S.aS.bS.cS.QP 5+ Pm.[g.1D.IL RF ti.37.WH <m.dS.6{ eS.fS.}@.Gt.gS.@J SY 6%.a~ j] 9Z h] $X c{ 'X {2.<~.{g.hS.Kd Vt Yt ]y (y Az <v )B GV 4+.(y 9'.&*.<p 4+.4+.!B /y Dz *-.u(.iS.jl.jS.kS.lS.mS.n6 nS.HK.-7.;E Rw.oS.pS.qS.A-.                                                                                                                                                                                                                                                                     cW rS.=X kO ln. l.G` C~.3W 9< .P Vt St );.qs En ~w.Uh.Y*.0' Az Sq <v Xt St {y 7/.0' <p {B ]B {B {B /B HC HC ~B Cw K6.*D.rn.sS.]d.B[. S G$.r^.tS.=]..L.^1 3 .i] p@.c{ i] GP V8 ^@.uS.$R.vS.wS.3) xS.yS.zS.nm.2S.&d.~S rN e0 L8 Ai xI e0 xI Z0.q@.q@.j+._-.Ql._-.j+.l%.+].7@.M~.B!.}v }v }v B!.M~.}v }v M~.B!.}v M~.`t ]U C .ZS *X *X FR Fw ^W ^W *Z ),.^W Y*.1y 1y 7v jL VV AS.AS.BS.{S &M i3 ]y _y ER .T (y ]y A!.Mw 9' IC IC IC oF <v IC `> `> (S hL (S `> hL G) 7/.G) `> IC oF <v IC Bw Az Bw _y 0' (S hL Nt CC gL {y WM 7/.w[ {^.D) G) D) bS ~y ~y '_ )< Q~ AC a[ @_ PC K9.v` ;) )[.8/.U{  a.zo.q5.q5.H) ^^.+( CJ..E.:' @: *d.!< #: !< V~ ",
"                                                                                                                                                                                                                                                                                                                                                                                                                                                                                                                                                                                                                                                                              ^) |V [V @T ^^..J CS.DS.ES.}9.FS.GS.wA.HS.IS.JS.KS.Au.Du.(}.LS.s/.Cs.MS.h. PX zQ yW ZK X5.wW #S eo 7J j'.7,.NS./> -9 J) g! KT SQ rC.k] 2Z l] dI c{ ]1 OS.W^ fs Gw gs _y 0' Az /y !B /y /y 4+.!B )B /y Dz /y )B !B Kd hI B, !,.PS.QS.RS.SS.TS.vj.Y~ (y.US.VS.WS.XS.u5.q,.                                                                                                                                                                                                                                                                        YS.Ai wg./3.h..Y].|{._ .z@.fX 4+.[Q 2v av.Bj.~w.$f.F) os ]y {B Sq ns (: IC BC gL _y O~.+].T{.^B ^B ]B {B ]B Cz Qq Ml.xZ )[ ZS.xb.}*.4c tI W3.e/.9O xM.MT `S.ef.90 =X g..&d.4_.h'  T..T.r} R( +T.W@ @T.6#.A- _-.!6 m%.xI Ai e0 xI xI jf !: rN n! n! mP #X mP m%.pN ~B ts 7@.M~.B!.B!.B!.B!.M~.}v }v B!.B!.}v B!.7@.*X C .]U a< ZS C ._p Ez Fw Ez _p Nw _'.),.F) 7v 48.O .'&.TQ #(.#(.#T.$T.Bw `S .T DR 4+.)B Wt 6v (S hL `> IC oF IC {y {y IC {y (S (S {y {y hL WM G) hL `> {y Bw `> hL {y (S ]y Bw G) Nt WM 7/.D) gL G) BC D) CC CC D) BC rP ,B rP H) ;) v` v` a[ ^^.U{ q5.q5.a[ ^^.Q~ v` +( 'R Y/ 'R  E.M7  a.K9.~< .E.._ >B B} *d.%:  {.",
"                                                                                                                                                                                                                                                                                                                                                                                                                                                                                                                                                                                                                                                                              NN : .hs M..AC *> %T.=m.&T.)9 *T.=T.-T.}9.;T.>T.,T.'T.)T.!T.9R.~T.{T.Ww.09.<4.s+.]2.UU Ll Yf.mW IX VG tQ 'K X~.Z~.-N i#.{2 MT =_ lS zL g! a~ a~  ` f^.]T.=H.F) s7.*X gs gs Vt /y _y (y &*.)B !B !B )B Dz /y )B 4+..T Kd !6.^T./T.(T._T.:T.<T.[T.}T.=N.|9 |T.1T.2T.H} 3T.                                                                                                                                                                                                                                                                              4T.5T.nP.pX xd.DV z-.9< Dz [Q 2v |v '>.rs 5y _'.ns 8Z Y8.FC ^y fs )B _y FC z, [Z ,|.jI '|.he.~B ^B HC os M~.4m Zk.xZ :r.6T.7T.qK 6< '1.,5.8T.3].9T.4=.@X |V 0'.GC HP 2S.RR.0T.aT.bT.cT.h= dR.dT.hc y- HP |{.j+.xI xI jf jf jf V8 s#.ka.ka.ka.` .7x.%;.%;.eT.HC `t Pq ts 7@.7@.M~.M~.M~.}v }v B!.B!.B!.B!.B!.bX hs C .FR [V b< b< *X Xt ds (: fs Fw fs Ez Fw IC FC c:.{S fT.pn.c:.@/.hL `S -k.gT.'B /y |0.Qq `> (S Bw Az 0' Az <v Az _y 0' <v oF oF IC Bw {y Nt `> {y {y IC Bw (S {y `> ]y {y Nt oF <v (S (S `> hL (S `> `> hL Nt gL SO !y ]E VM '_ @_ Q~ '_ bS H) 8/.q5.Q~ AC a[ a[ Y/ q5.d8.AC v` AC 8/.'R >B A} B} hT.A} **.#: yz ",
"                                                                                                                                                                                                                                                                                                                                                                                                                                                                                                                                                                                                                                                                              AD : .=c.M..Q~ aI.iT.jT.N7.*| 8a.kT.lT.mT.nT.oT.`).MM.Lo.pT.qT.rT.sT.tT.2T D%.o;.:P xA |Y qV *o.XV fo 'K m;.uT.f2 8+.w$.GZ & .p/.p/.GZ {2 D- Ci oO a;.}<.-H.bs b:.ZS FR *X 0Q )B 0' ]y 9'.)B !B !B !B /y /y )B !B 8Q nY 0' Yq.Mv.vT.wT.xT.yT.!5 {_ zT.&H.AT.BT.*m CT.                                                                                                                                                                                                                                                                                          DT.nf Ys.u[ F#.9< /y 2v 2v '>.28.<$.ET.us c:.HZ FC 0< Xt (S IC 0'.FC ]:  T sY y-.{B pF /B pm.ts Cz 0p ^y `G |{.FT.GT.HT.bM Qd IT.JT.N9.;N 0S b$.fI (y Qq pN %c.o/ ]p.K| KT.cT.gz.~k zS.LT.y- S8 |V jf jf jf Z0.Z0.jf V8 V8 %;.Ot.` .` .Ot.sN ` .eT.HC `t Pq ts 7@.B!.B!.}v B!.B!.B!.B!.B!.B!.B!.B!.[p 0Q FR [V gs gs gs @T ds 1v b' es Xt |v es Nw *X ]y Z..IN.@r IN.Qq Dz IC 8Q gT.MT.-J.+T FC us 0' 0' _y Dz /y /y Dz /y _y (y /y /y Dz (y _y ]y oF 0' 0' ]y Dz Dz _y Dz Dz !B ]y Az !B <p (y 0' Az <v <v Az IC `> {y <v !y 0c gI gI ]E VM VM !y UM ]E ,_ AC !y rP Q~ '_ UM zz ,_ VM ;) bS ~y ~y Y> Y> a,.U] +_ @H a,.J%.",
"                                                                                                                                                                                                                                                                                                                                                                                                                                                                                                                                                                                                                                                                              sM L4 f_.bX NT.zH.OT.PT.QT.RT.ST.TT.UT.VT.b. mT.5{.WT.Ne.XT.ZV YT.C-.k>.ct.eB ZT.`T.Rj.4P sV tx.bM )I H* SY 2]..N 9+.}E g2 **.AC %*.b'.3 .x;.f2 8[ DT V} jI. U.Jj.a< ZS FR @T [Q @T 0' /y /y )B !B )B /y Dz ^B /y Rn .U.7Q Y*.Oh.+U.@U.#U.$U.h).%U.&U.*U.=U.-U.;U..|.                                                                                                                                                                                                                                                                                                   >U.v;.:~.Dz 2v Dw %u %u Qw Fc.us |0.B9.t$.Pq 2v Bw _y 6]. T 5O =X {i.{i. H {i.he.^B 0< M~.Ln n).r7.vZ 6L.,U.'U.)U.=K !U.~U.b$.b$.{U.`O o:.Cz ap w9.da.]U.x{ ^U./U.(U._U.:U.@T.au.y- S8 {: xI kf V8 V8 V8 z- %;.` .%;.Ot.` .sN ` .%;.%;.r@.^B ns `t ^y 7@.B!.Cw Cw }v B!.M~.B!.B!.B!.B!.M~.=c.4v @T b< a< 7Q 0Q hs ds ds |v es ds es X8.fs D .D .n).0p !'.Nn 0< Dz Dz -k.1b.-D.<U.5+.Sq +].!B 4+.4+.!B !B !B !B !B (y /y !B 4+.4+.!B /y /y GC ^B /B /B ~B ~B {B +].{B ^B Sq GC HC ]B GC Rq _y 0' 0' ]y <v Bw IC ]y  X 0c 0c  X  X 0c 0c cS !y !y UM ,B gI UM SO UM ,_ rP VM UM ,_ '_ )< AC #: J%.U] **.a,.zC $}.a,.",
"                                                                                                                                                                                                                                                                                                                                                                                                                                                                                                                                                                                                                                                                              [v.5 .FR b< [U.}U.|U.1U.2U.3U.4U.5U.6U.7U.%m.8U.u4.jK.^m.9U.6l.a- #*.0U. ).Wz aU.9l.bU.aJ c^ SK qK d=.b=.TY zU G).&Y {Z  {.%: a[ AC a-.~R J) f^ -9 #K AF.Z] cU.I3.FR FR a< [V 0Q 0Q <v Bw )B )B )B )B )B /y HC .T -j.dU.@T b< }$.eU.fU.gU.hU.iU.jU.kU.lU.mU.nU.oU. |.                                                                                                                                                                                                                                                                                                      pU.oK ip ts |v 28.%u ca.S<.F` t$.n=.t$.:p ds _y <v y1.J3.7E qU.kN pY eo.'|.]B ~B 7@.1v NK.H%.ns y-.rU.v- sU.pf tU.}~.Oa DV es.m'.uU._2 ns 9p 68.gP.VM.eR.vU.wU.xU.yU.zU.dT.Ol AU.|{.+J xI kf V8 z- y- y- ` .Ot.%;.Ot.%;.ka.Ot.7x.` .f7 Sq 0< Cz ns ^y 7@.M~.B!.}v M~.M~.B!.}v }v M~.7@.%j.[p %j./2 f_.@T 0Q FR es (: b' es b' Fw hN Zt *r 3:.n).ps +r 0v ap )B 3v 9Q BU.CU.<U.DU./B T{.8' GV &*.!B )B !B !B /y <p 4+.!B )B )B /y (y _y qF Sq FC FC ^B ^B /B ]B ]B Sq Sq HC ]B ]B HC GC (y ]y ]y Dz _y <v oF ]y .T  X SO SO ]E 0c 0c cS  X zz UM VM VM ,_ SO ,B ]E VM ]E SO 0c ,B ,_ @_ Y> #: V~ EV J%.$}.IW #H "};
